%
(1001)
(T1 D=4 CR=0 - ZMIN=-3.2 - flat end mill)
N10 G90 G94
N20 G17
N30 G21
(-Attention- Property Safe Retracts is set to Clearance Height.)
(Ensure the clearance height will clear the part and or fixtures.)
(Raise the Z-axis to a safe height before starting the program.)

(2D 3)
N40 T1 M6
N50 S20000 M3
N60 G17 G90 G94
N70 G54
N80 M8
N90 G0 G43 Z2.3
N100 G0 X40.201 Y-3.219
N110 Z2.3
N120 G1 Z0.6 F75
N130 Y-3.211 Z0.522 F43
N140 X40.203 Y-3.188 Z0.447
N150 X40.205 Y-3.151 Z0.378
N160 X40.208 Y-3.102 Z0.317
N170 X40.212 Y-3.041 Z0.267
N180 X40.216 Y-2.972 Z0.23
N190 X40.221 Y-2.897 Z0.208
N200 X40.226 Y-2.819 Z0.2
N210 X40.25 Y-2.42
N220 G3 X39.876 Y-1.996 I-0.399 J0.025
N230 G2 X38 Y0 I0.124 J1.996 F800
N240 G1 Y47.2
N250 Y48 F200
N260 X17.8 F800
N270 X17 F200
N280 Y0 F800
N290 G2 X15 Y-2 I-2 J0
N300 G1 X0
N310 G2 X-2 Y0 I0 J2
N320 G1 Y70
N330 G2 X0 Y72 I2 J0
N340 G1 X160
N350 G2 X162 Y70 I0 J-2
N360 G1 Y0
N370 G2 X160 Y-2 I-2 J0
N380 G1 X145
N390 G2 X143 Y0 I0 J2
N400 G1 Y47.2
N410 Y48 F200
N420 X122.8 F800
N430 X122 F200
N440 Y0 F800
N450 G2 X120 Y-2 I-2 J0
N460 G1 X40
N470 X39.876 Y-1.996
N480 G3 X39.452 Y-2.371 I-0.025 J-0.399
N490 G1 X39.427 Y-2.77
N500 X39.422 Y-2.848 Z0.208
N510 X39.418 Y-2.923 Z0.23
N520 X39.413 Y-2.992 Z0.267
N530 X39.41 Y-3.052 Z0.317
N540 X39.407 Y-3.102 Z0.378
N550 X39.404 Y-3.139 Z0.447
N560 X39.403 Y-3.161 Z0.522
N570 X39.402 Y-3.169 Z0.6
N580 G0 Z2.3
N590 X40.201 Y-3.219
N600 G1 Z0.5 F75
N610 Y-3.211 Z0.422 F43
N620 X40.203 Y-3.188 Z0.347
N630 X40.205 Y-3.151 Z0.278
N640 X40.208 Y-3.102 Z0.217
N650 X40.212 Y-3.041 Z0.167
N660 X40.216 Y-2.972 Z0.13
N670 X40.221 Y-2.897 Z0.108
N680 X40.226 Y-2.819 Z0.1
N690 X40.25 Y-2.42
N700 G3 X39.876 Y-1.996 I-0.399 J0.025
N710 G2 X38 Y0 I0.124 J1.996 F800
N720 G1 Y47.2
N730 Y48 F200
N740 X17.8 F800
N750 X17 F200
N760 Y0 F800
N770 G2 X15 Y-2 I-2 J0
N780 G1 X0
N790 G2 X-2 Y0 I0 J2
N800 G1 Y70
N810 G2 X0 Y72 I2 J0
N820 G1 X160
N830 G2 X162 Y70 I0 J-2
N840 G1 Y0
N850 G2 X160 Y-2 I-2 J0
N860 G1 X145
N870 G2 X143 Y0 I0 J2
N880 G1 Y47.2
N890 Y48 F200
N900 X122.8 F800
N910 X122 F200
N920 Y0 F800
N930 G2 X120 Y-2 I-2 J0
N940 G1 X40
N950 X39.876 Y-1.996
N960 G3 X39.452 Y-2.371 I-0.025 J-0.399
N970 G1 X39.427 Y-2.77
N980 X39.422 Y-2.848 Z0.108
N990 X39.418 Y-2.923 Z0.13
N1000 X39.413 Y-2.992 Z0.167
N1010 X39.41 Y-3.052 Z0.217
N1020 X39.407 Y-3.102 Z0.278
N1030 X39.404 Y-3.139 Z0.347
N1040 X39.403 Y-3.161 Z0.422
N1050 X39.402 Y-3.169 Z0.5
N1060 G0 Z2.3
N1070 X40.201 Y-3.219
N1080 G1 Z0.4 F75
N1090 Y-3.211 Z0.322 F43
N1100 X40.203 Y-3.188 Z0.247
N1110 X40.205 Y-3.151 Z0.178
N1120 X40.208 Y-3.102 Z0.117
N1130 X40.212 Y-3.041 Z0.067
N1140 X40.216 Y-2.972 Z0.03
N1150 X40.221 Y-2.897 Z0.008
N1160 X40.226 Y-2.819 Z0
N1170 X40.25 Y-2.42
N1180 G3 X39.876 Y-1.996 I-0.399 J0.025
N1190 G2 X38 Y0 I0.124 J1.996 F800
N1200 G1 Y47.2
N1210 Y48 F200
N1220 X17.8 F800
N1230 X17 F200
N1240 Y0 F800
N1250 G2 X15 Y-2 I-2 J0
N1260 G1 X0
N1270 G2 X-2 Y0 I0 J2
N1280 G1 Y70
N1290 G2 X0 Y72 I2 J0
N1300 G1 X160
N1310 G2 X162 Y70 I0 J-2
N1320 G1 Y0
N1330 G2 X160 Y-2 I-2 J0
N1340 G1 X145
N1350 G2 X143 Y0 I0 J2
N1360 G1 Y47.2
N1370 Y48 F200
N1380 X122.8 F800
N1390 X122 F200
N1400 Y0 F800
N1410 G2 X120 Y-2 I-2 J0
N1420 G1 X40
N1430 X39.876 Y-1.996
N1440 G3 X39.452 Y-2.371 I-0.025 J-0.399
N1450 G1 X39.427 Y-2.77
N1460 X39.422 Y-2.848 Z0.008
N1470 X39.418 Y-2.923 Z0.03
N1480 X39.413 Y-2.992 Z0.067
N1490 X39.41 Y-3.052 Z0.117
N1500 X39.407 Y-3.102 Z0.178
N1510 X39.404 Y-3.139 Z0.247
N1520 X39.403 Y-3.161 Z0.322
N1530 X39.402 Y-3.169 Z0.4
N1540 G0 Z2.3
N1550 X40.201 Y-3.219
N1560 G1 Z0.3 F75
N1570 Y-3.211 Z0.222 F43
N1580 X40.203 Y-3.188 Z0.147
N1590 X40.205 Y-3.151 Z0.078
N1600 X40.208 Y-3.102 Z0.017
N1610 X40.212 Y-3.041 Z-0.033
N1620 X40.216 Y-2.972 Z-0.07
N1630 X40.221 Y-2.897 Z-0.092
N1640 X40.226 Y-2.819 Z-0.1
N1650 X40.25 Y-2.42
N1660 G3 X39.876 Y-1.996 I-0.399 J0.025
N1670 G2 X38 Y0 I0.124 J1.996 F800
N1680 G1 Y47.2
N1690 Y48 F200
N1700 X17.8 F800
N1710 X17 F200
N1720 Y0 F800
N1730 G2 X15 Y-2 I-2 J0
N1740 G1 X0
N1750 G2 X-2 Y0 I0 J2
N1760 G1 Y70
N1770 G2 X0 Y72 I2 J0
N1780 G1 X160
N1790 G2 X162 Y70 I0 J-2
N1800 G1 Y0
N1810 G2 X160 Y-2 I-2 J0
N1820 G1 X145
N1830 G2 X143 Y0 I0 J2
N1840 G1 Y47.2
N1850 Y48 F200
N1860 X122.8 F800
N1870 X122 F200
N1880 Y0 F800
N1890 G2 X120 Y-2 I-2 J0
N1900 G1 X40
N1910 X39.876 Y-1.996
N1920 G3 X39.452 Y-2.371 I-0.025 J-0.399
N1930 G1 X39.427 Y-2.77
N1940 X39.422 Y-2.848 Z-0.092
N1950 X39.418 Y-2.923 Z-0.07
N1960 X39.413 Y-2.992 Z-0.033
N1970 X39.41 Y-3.052 Z0.017
N1980 X39.407 Y-3.102 Z0.078
N1990 X39.404 Y-3.139 Z0.147
N2000 X39.403 Y-3.161 Z0.222
N2010 X39.402 Y-3.169 Z0.3
N2020 G0 Z2.3
N2030 X40.201 Y-3.219
N2040 G1 Z0.2 F75
N2050 Y-3.211 Z0.122 F43
N2060 X40.203 Y-3.188 Z0.047
N2070 X40.205 Y-3.151 Z-0.022
N2080 X40.208 Y-3.102 Z-0.083
N2090 X40.212 Y-3.041 Z-0.133
N2100 X40.216 Y-2.972 Z-0.17
N2110 X40.221 Y-2.897 Z-0.192
N2120 X40.226 Y-2.819 Z-0.2
N2130 X40.25 Y-2.42
N2140 G3 X39.876 Y-1.996 I-0.399 J0.025
N2150 G2 X38 Y0 I0.124 J1.996 F800
N2160 G1 Y47.2
N2170 Y48 F200
N2180 X17.8 F800
N2190 X17 F200
N2200 Y0 F800
N2210 G2 X15 Y-2 I-2 J0
N2220 G1 X0
N2230 G2 X-2 Y0 I0 J2
N2240 G1 Y70
N2250 G2 X0 Y72 I2 J0
N2260 G1 X160
N2270 G2 X162 Y70 I0 J-2
N2280 G1 Y0
N2290 G2 X160 Y-2 I-2 J0
N2300 G1 X145
N2310 G2 X143 Y0 I0 J2
N2320 G1 Y47.2
N2330 Y48 F200
N2340 X122.8 F800
N2350 X122 F200
N2360 Y0 F800
N2370 G2 X120 Y-2 I-2 J0
N2380 G1 X40
N2390 X39.876 Y-1.996
N2400 G3 X39.452 Y-2.371 I-0.025 J-0.399
N2410 G1 X39.427 Y-2.77
N2420 X39.422 Y-2.848 Z-0.192
N2430 X39.418 Y-2.923 Z-0.17
N2440 X39.413 Y-2.992 Z-0.133
N2450 X39.41 Y-3.052 Z-0.083
N2460 X39.407 Y-3.102 Z-0.022
N2470 X39.404 Y-3.139 Z0.047
N2480 X39.403 Y-3.161 Z0.122
N2490 X39.402 Y-3.169 Z0.2
N2500 G0 Z2.3
N2510 X40.201 Y-3.219
N2520 G1 Z0.1 F75
N2530 Y-3.211 Z0.022 F43
N2540 X40.203 Y-3.188 Z-0.053
N2550 X40.205 Y-3.151 Z-0.122
N2560 X40.208 Y-3.102 Z-0.183
N2570 X40.212 Y-3.041 Z-0.233
N2580 X40.216 Y-2.972 Z-0.27
N2590 X40.221 Y-2.897 Z-0.292
N2600 X40.226 Y-2.819 Z-0.3
N2610 X40.25 Y-2.42
N2620 G3 X39.876 Y-1.996 I-0.399 J0.025
N2630 G2 X38 Y0 I0.124 J1.996 F800
N2640 G1 Y47.2
N2650 Y48 F200
N2660 X17.8 F800
N2670 X17 F200
N2680 Y0 F800
N2690 G2 X15 Y-2 I-2 J0
N2700 G1 X0
N2710 G2 X-2 Y0 I0 J2
N2720 G1 Y70
N2730 G2 X0 Y72 I2 J0
N2740 G1 X160
N2750 G2 X162 Y70 I0 J-2
N2760 G1 Y0
N2770 G2 X160 Y-2 I-2 J0
N2780 G1 X145
N2790 G2 X143 Y0 I0 J2
N2800 G1 Y47.2
N2810 Y48 F200
N2820 X122.8 F800
N2830 X122 F200
N2840 Y0 F800
N2850 G2 X120 Y-2 I-2 J0
N2860 G1 X40
N2870 X39.876 Y-1.996
N2880 G3 X39.452 Y-2.371 I-0.025 J-0.399
N2890 G1 X39.427 Y-2.77
N2900 X39.422 Y-2.848 Z-0.292
N2910 X39.418 Y-2.923 Z-0.27
N2920 X39.413 Y-2.992 Z-0.233
N2930 X39.41 Y-3.052 Z-0.183
N2940 X39.407 Y-3.102 Z-0.122
N2950 X39.404 Y-3.139 Z-0.053
N2960 X39.403 Y-3.161 Z0.022
N2970 X39.402 Y-3.169 Z0.1
N2980 G0 Z2.3
N2990 X40.201 Y-3.219
N3000 G1 Z0 F75
N3010 Y-3.211 Z-0.078 F43
N3020 X40.203 Y-3.188 Z-0.153
N3030 X40.205 Y-3.151 Z-0.222
N3040 X40.208 Y-3.102 Z-0.283
N3050 X40.212 Y-3.041 Z-0.333
N3060 X40.216 Y-2.972 Z-0.37
N3070 X40.221 Y-2.897 Z-0.392
N3080 X40.226 Y-2.819 Z-0.4
N3090 X40.25 Y-2.42
N3100 G3 X39.876 Y-1.996 I-0.399 J0.025
N3110 G2 X38 Y0 I0.124 J1.996 F800
N3120 G1 Y47.2
N3130 Y48 F200
N3140 X17.8 F800
N3150 X17 F200
N3160 Y0 F800
N3170 G2 X15 Y-2 I-2 J0
N3180 G1 X0
N3190 G2 X-2 Y0 I0 J2
N3200 G1 Y70
N3210 G2 X0 Y72 I2 J0
N3220 G1 X160
N3230 G2 X162 Y70 I0 J-2
N3240 G1 Y0
N3250 G2 X160 Y-2 I-2 J0
N3260 G1 X145
N3270 G2 X143 Y0 I0 J2
N3280 G1 Y47.2
N3290 Y48 F200
N3300 X122.8 F800
N3310 X122 F200
N3320 Y0 F800
N3330 G2 X120 Y-2 I-2 J0
N3340 G1 X40
N3350 X39.876 Y-1.996
N3360 G3 X39.452 Y-2.371 I-0.025 J-0.399
N3370 G1 X39.427 Y-2.77
N3380 X39.422 Y-2.848 Z-0.392
N3390 X39.418 Y-2.923 Z-0.37
N3400 X39.413 Y-2.992 Z-0.333
N3410 X39.41 Y-3.052 Z-0.283
N3420 X39.407 Y-3.102 Z-0.222
N3430 X39.404 Y-3.139 Z-0.153
N3440 X39.403 Y-3.161 Z-0.078
N3450 X39.402 Y-3.169 Z0
N3460 G0 Z2.3
N3470 X40.201 Y-3.219
N3480 G1 Z-0.1 F75
N3490 Y-3.211 Z-0.178 F43
N3500 X40.203 Y-3.188 Z-0.253
N3510 X40.205 Y-3.151 Z-0.322
N3520 X40.208 Y-3.102 Z-0.383
N3530 X40.212 Y-3.041 Z-0.433
N3540 X40.216 Y-2.972 Z-0.47
N3550 X40.221 Y-2.897 Z-0.492
N3560 X40.226 Y-2.819 Z-0.5
N3570 X40.25 Y-2.42
N3580 G3 X39.876 Y-1.996 I-0.399 J0.025
N3590 G2 X38 Y0 I0.124 J1.996 F800
N3600 G1 Y47.2
N3610 Y48 F200
N3620 X17.8 F800
N3630 X17 F200
N3640 Y0 F800
N3650 G2 X15 Y-2 I-2 J0
N3660 G1 X0
N3670 G2 X-2 Y0 I0 J2
N3680 G1 Y70
N3690 G2 X0 Y72 I2 J0
N3700 G1 X160
N3710 G2 X162 Y70 I0 J-2
N3720 G1 Y0
N3730 G2 X160 Y-2 I-2 J0
N3740 G1 X145
N3750 G2 X143 Y0 I0 J2
N3760 G1 Y47.2
N3770 Y48 F200
N3780 X122.8 F800
N3790 X122 F200
N3800 Y0 F800
N3810 G2 X120 Y-2 I-2 J0
N3820 G1 X40
N3830 X39.876 Y-1.996
N3840 G3 X39.452 Y-2.371 I-0.025 J-0.399
N3850 G1 X39.427 Y-2.77
N3860 X39.422 Y-2.848 Z-0.492
N3870 X39.418 Y-2.923 Z-0.47
N3880 X39.413 Y-2.992 Z-0.433
N3890 X39.41 Y-3.052 Z-0.383
N3900 X39.407 Y-3.102 Z-0.322
N3910 X39.404 Y-3.139 Z-0.253
N3920 X39.403 Y-3.161 Z-0.178
N3930 X39.402 Y-3.169 Z-0.1
N3940 G0 Z2.3
N3950 X40.201 Y-3.219
N3960 G1 Z-0.2 F75
N3970 Y-3.211 Z-0.278 F43
N3980 X40.203 Y-3.188 Z-0.353
N3990 X40.205 Y-3.151 Z-0.422
N4000 X40.208 Y-3.102 Z-0.483
N4010 X40.212 Y-3.041 Z-0.533
N4020 X40.216 Y-2.972 Z-0.57
N4030 X40.221 Y-2.897 Z-0.592
N4040 X40.226 Y-2.819 Z-0.6
N4050 X40.25 Y-2.42
N4060 G3 X39.876 Y-1.996 I-0.399 J0.025
N4070 G2 X38 Y0 I0.124 J1.996 F800
N4080 G1 Y47.2
N4090 Y48 F200
N4100 X17.8 F800
N4110 X17 F200
N4120 Y0 F800
N4130 G2 X15 Y-2 I-2 J0
N4140 G1 X0
N4150 G2 X-2 Y0 I0 J2
N4160 G1 Y70
N4170 G2 X0 Y72 I2 J0
N4180 G1 X160
N4190 G2 X162 Y70 I0 J-2
N4200 G1 Y0
N4210 G2 X160 Y-2 I-2 J0
N4220 G1 X145
N4230 G2 X143 Y0 I0 J2
N4240 G1 Y47.2
N4250 Y48 F200
N4260 X122.8 F800
N4270 X122 F200
N4280 Y0 F800
N4290 G2 X120 Y-2 I-2 J0
N4300 G1 X40
N4310 X39.876 Y-1.996
N4320 G3 X39.452 Y-2.371 I-0.025 J-0.399
N4330 G1 X39.427 Y-2.77
N4340 X39.422 Y-2.848 Z-0.592
N4350 X39.418 Y-2.923 Z-0.57
N4360 X39.413 Y-2.992 Z-0.533
N4370 X39.41 Y-3.052 Z-0.483
N4380 X39.407 Y-3.102 Z-0.422
N4390 X39.404 Y-3.139 Z-0.353
N4400 X39.403 Y-3.161 Z-0.278
N4410 X39.402 Y-3.169 Z-0.2
N4420 G0 Z2.3
N4430 X40.201 Y-3.219
N4440 G1 Z-0.3 F75
N4450 Y-3.211 Z-0.378 F43
N4460 X40.203 Y-3.188 Z-0.453
N4470 X40.205 Y-3.151 Z-0.522
N4480 X40.208 Y-3.102 Z-0.583
N4490 X40.212 Y-3.041 Z-0.633
N4500 X40.216 Y-2.972 Z-0.67
N4510 X40.221 Y-2.897 Z-0.692
N4520 X40.226 Y-2.819 Z-0.7
N4530 X40.25 Y-2.42
N4540 G3 X39.876 Y-1.996 I-0.399 J0.025
N4550 G2 X38 Y0 I0.124 J1.996 F800
N4560 G1 Y47.2
N4570 Y48 F200
N4580 X17.8 F800
N4590 X17 F200
N4600 Y0 F800
N4610 G2 X15 Y-2 I-2 J0
N4620 G1 X0
N4630 G2 X-2 Y0 I0 J2
N4640 G1 Y70
N4650 G2 X0 Y72 I2 J0
N4660 G1 X160
N4670 G2 X162 Y70 I0 J-2
N4680 G1 Y0
N4690 G2 X160 Y-2 I-2 J0
N4700 G1 X145
N4710 G2 X143 Y0 I0 J2
N4720 G1 Y47.2
N4730 Y48 F200
N4740 X122.8 F800
N4750 X122 F200
N4760 Y0 F800
N4770 G2 X120 Y-2 I-2 J0
N4780 G1 X40
N4790 X39.876 Y-1.996
N4800 G3 X39.452 Y-2.371 I-0.025 J-0.399
N4810 G1 X39.427 Y-2.77
N4820 X39.422 Y-2.848 Z-0.692
N4830 X39.418 Y-2.923 Z-0.67
N4840 X39.413 Y-2.992 Z-0.633
N4850 X39.41 Y-3.052 Z-0.583
N4860 X39.407 Y-3.102 Z-0.522
N4870 X39.404 Y-3.139 Z-0.453
N4880 X39.403 Y-3.161 Z-0.378
N4890 X39.402 Y-3.169 Z-0.3
N4900 G0 Z2.3
N4910 X40.201 Y-3.219
N4920 G1 Z-0.4 F75
N4930 Y-3.211 Z-0.478 F43
N4940 X40.203 Y-3.188 Z-0.553
N4950 X40.205 Y-3.151 Z-0.622
N4960 X40.208 Y-3.102 Z-0.683
N4970 X40.212 Y-3.041 Z-0.733
N4980 X40.216 Y-2.972 Z-0.77
N4990 X40.221 Y-2.897 Z-0.792
N5000 X40.226 Y-2.819 Z-0.8
N5010 X40.25 Y-2.42
N5020 G3 X39.876 Y-1.996 I-0.399 J0.025
N5030 G2 X38 Y0 I0.124 J1.996 F800
N5040 G1 Y47.2
N5050 Y48 F200
N5060 X17.8 F800
N5070 X17 F200
N5080 Y0 F800
N5090 G2 X15 Y-2 I-2 J0
N5100 G1 X0
N5110 G2 X-2 Y0 I0 J2
N5120 G1 Y70
N5130 G2 X0 Y72 I2 J0
N5140 G1 X160
N5150 G2 X162 Y70 I0 J-2
N5160 G1 Y0
N5170 G2 X160 Y-2 I-2 J0
N5180 G1 X145
N5190 G2 X143 Y0 I0 J2
N5200 G1 Y47.2
N5210 Y48 F200
N5220 X122.8 F800
N5230 X122 F200
N5240 Y0 F800
N5250 G2 X120 Y-2 I-2 J0
N5260 G1 X40
N5270 X39.876 Y-1.996
N5280 G3 X39.452 Y-2.371 I-0.025 J-0.399
N5290 G1 X39.427 Y-2.77
N5300 X39.422 Y-2.848 Z-0.792
N5310 X39.418 Y-2.923 Z-0.77
N5320 X39.413 Y-2.992 Z-0.733
N5330 X39.41 Y-3.052 Z-0.683
N5340 X39.407 Y-3.102 Z-0.622
N5350 X39.404 Y-3.139 Z-0.553
N5360 X39.403 Y-3.161 Z-0.478
N5370 X39.402 Y-3.169 Z-0.4
N5380 G0 Z2.3
N5390 X40.201 Y-3.219
N5400 G1 Z-0.5 F75
N5410 Y-3.211 Z-0.578 F43
N5420 X40.203 Y-3.188 Z-0.653
N5430 X40.205 Y-3.151 Z-0.722
N5440 X40.208 Y-3.102 Z-0.783
N5450 X40.212 Y-3.041 Z-0.833
N5460 X40.216 Y-2.972 Z-0.87
N5470 X40.221 Y-2.897 Z-0.892
N5480 X40.226 Y-2.819 Z-0.9
N5490 X40.25 Y-2.42
N5500 G3 X39.876 Y-1.996 I-0.399 J0.025
N5510 G2 X38 Y0 I0.124 J1.996 F800
N5520 G1 Y47.2
N5530 Y48 F200
N5540 X17.8 F800
N5550 X17 F200
N5560 Y0 F800
N5570 G2 X15 Y-2 I-2 J0
N5580 G1 X0
N5590 G2 X-2 Y0 I0 J2
N5600 G1 Y70
N5610 G2 X0 Y72 I2 J0
N5620 G1 X160
N5630 G2 X162 Y70 I0 J-2
N5640 G1 Y0
N5650 G2 X160 Y-2 I-2 J0
N5660 G1 X145
N5670 G2 X143 Y0 I0 J2
N5680 G1 Y47.2
N5690 Y48 F200
N5700 X122.8 F800
N5710 X122 F200
N5720 Y0 F800
N5730 G2 X120 Y-2 I-2 J0
N5740 G1 X40
N5750 X39.876 Y-1.996
N5760 G3 X39.452 Y-2.371 I-0.025 J-0.399
N5770 G1 X39.427 Y-2.77
N5780 X39.422 Y-2.848 Z-0.892
N5790 X39.418 Y-2.923 Z-0.87
N5800 X39.413 Y-2.992 Z-0.833
N5810 X39.41 Y-3.052 Z-0.783
N5820 X39.407 Y-3.102 Z-0.722
N5830 X39.404 Y-3.139 Z-0.653
N5840 X39.403 Y-3.161 Z-0.578
N5850 X39.402 Y-3.169 Z-0.5
N5860 G0 Z2.3
N5870 X40.201 Y-3.219
N5880 G1 Z-0.6 F75
N5890 Y-3.211 Z-0.678 F43
N5900 X40.203 Y-3.188 Z-0.753
N5910 X40.205 Y-3.151 Z-0.822
N5920 X40.208 Y-3.102 Z-0.883
N5930 X40.212 Y-3.041 Z-0.933
N5940 X40.216 Y-2.972 Z-0.97
N5950 X40.221 Y-2.897 Z-0.992
N5960 X40.226 Y-2.819 Z-1
N5970 X40.25 Y-2.42
N5980 G3 X39.876 Y-1.996 I-0.399 J0.025
N5990 G2 X38 Y0 I0.124 J1.996 F800
N6000 G1 Y47.2
N6010 Y48 F200
N6020 X17.8 F800
N6030 X17 F200
N6040 Y0 F800
N6050 G2 X15 Y-2 I-2 J0
N6060 G1 X0
N6070 G2 X-2 Y0 I0 J2
N6080 G1 Y70
N6090 G2 X0 Y72 I2 J0
N6100 G1 X160
N6110 G2 X162 Y70 I0 J-2
N6120 G1 Y0
N6130 G2 X160 Y-2 I-2 J0
N6140 G1 X145
N6150 G2 X143 Y0 I0 J2
N6160 G1 Y47.2
N6170 Y48 F200
N6180 X122.8 F800
N6190 X122 F200
N6200 Y0 F800
N6210 G2 X120 Y-2 I-2 J0
N6220 G1 X40
N6230 X39.876 Y-1.996
N6240 G3 X39.452 Y-2.371 I-0.025 J-0.399
N6250 G1 X39.427 Y-2.77
N6260 X39.422 Y-2.848 Z-0.992
N6270 X39.418 Y-2.923 Z-0.97
N6280 X39.413 Y-2.992 Z-0.933
N6290 X39.41 Y-3.052 Z-0.883
N6300 X39.407 Y-3.102 Z-0.822
N6310 X39.404 Y-3.139 Z-0.753
N6320 X39.403 Y-3.161 Z-0.678
N6330 X39.402 Y-3.169 Z-0.6
N6340 G0 Z2.3
N6350 X40.201 Y-3.219
N6360 G1 Z-0.7 F75
N6370 Y-3.211 Z-0.778 F43
N6380 X40.203 Y-3.188 Z-0.853
N6390 X40.205 Y-3.151 Z-0.922
N6400 X40.208 Y-3.102 Z-0.983
N6410 X40.212 Y-3.041 Z-1.033
N6420 X40.216 Y-2.972 Z-1.07
N6430 X40.221 Y-2.897 Z-1.092
N6440 X40.226 Y-2.819 Z-1.1
N6450 X40.25 Y-2.42
N6460 G3 X39.876 Y-1.996 I-0.399 J0.025
N6470 G2 X38 Y0 I0.124 J1.996 F800
N6480 G1 Y47.2
N6490 Y48 F200
N6500 X17.8 F800
N6510 X17 F200
N6520 Y0 F800
N6530 G2 X15 Y-2 I-2 J0
N6540 G1 X0
N6550 G2 X-2 Y0 I0 J2
N6560 G1 Y70
N6570 G2 X0 Y72 I2 J0
N6580 G1 X160
N6590 G2 X162 Y70 I0 J-2
N6600 G1 Y0
N6610 G2 X160 Y-2 I-2 J0
N6620 G1 X145
N6630 G2 X143 Y0 I0 J2
N6640 G1 Y47.2
N6650 Y48 F200
N6660 X122.8 F800
N6670 X122 F200
N6680 Y0 F800
N6690 G2 X120 Y-2 I-2 J0
N6700 G1 X40
N6710 X39.876 Y-1.996
N6720 G3 X39.452 Y-2.371 I-0.025 J-0.399
N6730 G1 X39.427 Y-2.77
N6740 X39.422 Y-2.848 Z-1.092
N6750 X39.418 Y-2.923 Z-1.07
N6760 X39.413 Y-2.992 Z-1.033
N6770 X39.41 Y-3.052 Z-0.983
N6780 X39.407 Y-3.102 Z-0.922
N6790 X39.404 Y-3.139 Z-0.853
N6800 X39.403 Y-3.161 Z-0.778
N6810 X39.402 Y-3.169 Z-0.7
N6820 G0 Z2.3
N6830 X40.201 Y-3.219
N6840 G1 Z-0.8 F75
N6850 Y-3.211 Z-0.878 F43
N6860 X40.203 Y-3.188 Z-0.953
N6870 X40.205 Y-3.151 Z-1.022
N6880 X40.208 Y-3.102 Z-1.083
N6890 X40.212 Y-3.041 Z-1.133
N6900 X40.216 Y-2.972 Z-1.17
N6910 X40.221 Y-2.897 Z-1.192
N6920 X40.226 Y-2.819 Z-1.2
N6930 X40.25 Y-2.42
N6940 G3 X39.876 Y-1.996 I-0.399 J0.025
N6950 G2 X38 Y0 I0.124 J1.996 F800
N6960 G1 Y47.2
N6970 Y48 F200
N6980 X17.8 F800
N6990 X17 F200
N7000 Y0 F800
N7010 G2 X15 Y-2 I-2 J0
N7020 G1 X0
N7030 G2 X-2 Y0 I0 J2
N7040 G1 Y70
N7050 G2 X0 Y72 I2 J0
N7060 G1 X160
N7070 G2 X162 Y70 I0 J-2
N7080 G1 Y0
N7090 G2 X160 Y-2 I-2 J0
N7100 G1 X145
N7110 G2 X143 Y0 I0 J2
N7120 G1 Y47.2
N7130 Y48 F200
N7140 X122.8 F800
N7150 X122 F200
N7160 Y0 F800
N7170 G2 X120 Y-2 I-2 J0
N7180 G1 X40
N7190 X39.876 Y-1.996
N7200 G3 X39.452 Y-2.371 I-0.025 J-0.399
N7210 G1 X39.427 Y-2.77
N7220 X39.422 Y-2.848 Z-1.192
N7230 X39.418 Y-2.923 Z-1.17
N7240 X39.413 Y-2.992 Z-1.133
N7250 X39.41 Y-3.052 Z-1.083
N7260 X39.407 Y-3.102 Z-1.022
N7270 X39.404 Y-3.139 Z-0.953
N7280 X39.403 Y-3.161 Z-0.878
N7290 X39.402 Y-3.169 Z-0.8
N7300 G0 Z2.3
N7310 X40.201 Y-3.219
N7320 G1 Z-0.9 F75
N7330 Y-3.211 Z-0.978 F43
N7340 X40.203 Y-3.188 Z-1.053
N7350 X40.205 Y-3.151 Z-1.122
N7360 X40.208 Y-3.102 Z-1.183
N7370 X40.212 Y-3.041 Z-1.233
N7380 X40.216 Y-2.972 Z-1.27
N7390 X40.221 Y-2.897 Z-1.292
N7400 X40.226 Y-2.819 Z-1.3
N7410 X40.25 Y-2.42
N7420 G3 X39.876 Y-1.996 I-0.399 J0.025
N7430 G2 X38 Y0 I0.124 J1.996 F800
N7440 G1 Y47.2
N7450 Y48 F200
N7460 X17.8 F800
N7470 X17 F200
N7480 Y0 F800
N7490 G2 X15 Y-2 I-2 J0
N7500 G1 X0
N7510 G2 X-2 Y0 I0 J2
N7520 G1 Y70
N7530 G2 X0 Y72 I2 J0
N7540 G1 X160
N7550 G2 X162 Y70 I0 J-2
N7560 G1 Y0
N7570 G2 X160 Y-2 I-2 J0
N7580 G1 X145
N7590 G2 X143 Y0 I0 J2
N7600 G1 Y47.2
N7610 Y48 F200
N7620 X122.8 F800
N7630 X122 F200
N7640 Y0 F800
N7650 G2 X120 Y-2 I-2 J0
N7660 G1 X40
N7670 X39.876 Y-1.996
N7680 G3 X39.452 Y-2.371 I-0.025 J-0.399
N7690 G1 X39.427 Y-2.77
N7700 X39.422 Y-2.848 Z-1.292
N7710 X39.418 Y-2.923 Z-1.27
N7720 X39.413 Y-2.992 Z-1.233
N7730 X39.41 Y-3.052 Z-1.183
N7740 X39.407 Y-3.102 Z-1.122
N7750 X39.404 Y-3.139 Z-1.053
N7760 X39.403 Y-3.161 Z-0.978
N7770 X39.402 Y-3.169 Z-0.9
N7780 G0 Z2.3
N7790 X40.201 Y-3.219
N7800 G1 Z-1 F75
N7810 Y-3.211 Z-1.078 F43
N7820 X40.203 Y-3.188 Z-1.153
N7830 X40.205 Y-3.151 Z-1.222
N7840 X40.208 Y-3.102 Z-1.283
N7850 X40.212 Y-3.041 Z-1.333
N7860 X40.216 Y-2.972 Z-1.37
N7870 X40.221 Y-2.897 Z-1.392
N7880 X40.226 Y-2.819 Z-1.4
N7890 X40.25 Y-2.42
N7900 G3 X39.876 Y-1.996 I-0.399 J0.025
N7910 G2 X38 Y0 I0.124 J1.996 F800
N7920 G1 Y47.2
N7930 Y48 F200
N7940 X17.8 F800
N7950 X17 F200
N7960 Y0 F800
N7970 G2 X15 Y-2 I-2 J0
N7980 G1 X0
N7990 G2 X-2 Y0 I0 J2
N8000 G1 Y70
N8010 G2 X0 Y72 I2 J0
N8020 G1 X160
N8030 G2 X162 Y70 I0 J-2
N8040 G1 Y0
N8050 G2 X160 Y-2 I-2 J0
N8060 G1 X145
N8070 G2 X143 Y0 I0 J2
N8080 G1 Y47.2
N8090 Y48 F200
N8100 X122.8 F800
N8110 X122 F200
N8120 Y0 F800
N8130 G2 X120 Y-2 I-2 J0
N8140 G1 X40
N8150 X39.876 Y-1.996
N8160 G3 X39.452 Y-2.371 I-0.025 J-0.399
N8170 G1 X39.427 Y-2.77
N8180 X39.422 Y-2.848 Z-1.392
N8190 X39.418 Y-2.923 Z-1.37
N8200 X39.413 Y-2.992 Z-1.333
N8210 X39.41 Y-3.052 Z-1.283
N8220 X39.407 Y-3.102 Z-1.222
N8230 X39.404 Y-3.139 Z-1.153
N8240 X39.403 Y-3.161 Z-1.078
N8250 X39.402 Y-3.169 Z-1
N8260 G0 Z2.3
N8270 X40.201 Y-3.219
N8280 G1 Z-1.1 F75
N8290 Y-3.211 Z-1.178 F43
N8300 X40.203 Y-3.188 Z-1.253
N8310 X40.205 Y-3.151 Z-1.322
N8320 X40.208 Y-3.102 Z-1.383
N8330 X40.212 Y-3.041 Z-1.433
N8340 X40.216 Y-2.972 Z-1.47
N8350 X40.221 Y-2.897 Z-1.492
N8360 X40.226 Y-2.819 Z-1.5
N8370 X40.25 Y-2.42
N8380 G3 X39.876 Y-1.996 I-0.399 J0.025
N8390 G2 X38 Y0 I0.124 J1.996 F800
N8400 G1 Y47.2
N8410 Y48 F200
N8420 X17.8 F800
N8430 X17 F200
N8440 Y0 F800
N8450 G2 X15 Y-2 I-2 J0
N8460 G1 X0
N8470 G2 X-2 Y0 I0 J2
N8480 G1 Y70
N8490 G2 X0 Y72 I2 J0
N8500 G1 X160
N8510 G2 X162 Y70 I0 J-2
N8520 G1 Y0
N8530 G2 X160 Y-2 I-2 J0
N8540 G1 X145
N8550 G2 X143 Y0 I0 J2
N8560 G1 Y47.2
N8570 Y48 F200
N8580 X122.8 F800
N8590 X122 F200
N8600 Y0 F800
N8610 G2 X120 Y-2 I-2 J0
N8620 G1 X40
N8630 X39.876 Y-1.996
N8640 G3 X39.452 Y-2.371 I-0.025 J-0.399
N8650 G1 X39.427 Y-2.77
N8660 X39.422 Y-2.848 Z-1.492
N8670 X39.418 Y-2.923 Z-1.47
N8680 X39.413 Y-2.992 Z-1.433
N8690 X39.41 Y-3.052 Z-1.383
N8700 X39.407 Y-3.102 Z-1.322
N8710 X39.404 Y-3.139 Z-1.253
N8720 X39.403 Y-3.161 Z-1.178
N8730 X39.402 Y-3.169 Z-1.1
N8740 G0 Z2.3
N8750 X40.201 Y-3.219
N8760 G1 Z-1.2 F75
N8770 Y-3.211 Z-1.278 F43
N8780 X40.203 Y-3.188 Z-1.353
N8790 X40.205 Y-3.151 Z-1.422
N8800 X40.208 Y-3.102 Z-1.483
N8810 X40.212 Y-3.041 Z-1.533
N8820 X40.216 Y-2.972 Z-1.57
N8830 X40.221 Y-2.897 Z-1.592
N8840 X40.226 Y-2.819 Z-1.6
N8850 X40.25 Y-2.42
N8860 G3 X39.876 Y-1.996 I-0.399 J0.025
N8870 G2 X38 Y0 I0.124 J1.996 F800
N8880 G1 Y47.2
N8890 Y48 F200
N8900 X17.8 F800
N8910 X17 F200
N8920 Y0 F800
N8930 G2 X15 Y-2 I-2 J0
N8940 G1 X0
N8950 G2 X-2 Y0 I0 J2
N8960 G1 Y70
N8970 G2 X0 Y72 I2 J0
N8980 G1 X160
N8990 G2 X162 Y70 I0 J-2
N9000 G1 Y0
N9010 G2 X160 Y-2 I-2 J0
N9020 G1 X145
N9030 G2 X143 Y0 I0 J2
N9040 G1 Y47.2
N9050 Y48 F200
N9060 X122.8 F800
N9070 X122 F200
N9080 Y0 F800
N9090 G2 X120 Y-2 I-2 J0
N9100 G1 X40
N9110 X39.876 Y-1.996
N9120 G3 X39.452 Y-2.371 I-0.025 J-0.399
N9130 G1 X39.427 Y-2.77
N9140 X39.422 Y-2.848 Z-1.592
N9150 X39.418 Y-2.923 Z-1.57
N9160 X39.413 Y-2.992 Z-1.533
N9170 X39.41 Y-3.052 Z-1.483
N9180 X39.407 Y-3.102 Z-1.422
N9190 X39.404 Y-3.139 Z-1.353
N9200 X39.403 Y-3.161 Z-1.278
N9210 X39.402 Y-3.169 Z-1.2
N9220 G0 Z2.3
N9230 X40.201 Y-3.219
N9240 G1 Z-1.3 F75
N9250 Y-3.211 Z-1.378 F43
N9260 X40.203 Y-3.188 Z-1.453
N9270 X40.205 Y-3.151 Z-1.522
N9280 X40.208 Y-3.102 Z-1.583
N9290 X40.212 Y-3.041 Z-1.633
N9300 X40.216 Y-2.972 Z-1.67
N9310 X40.221 Y-2.897 Z-1.692
N9320 X40.226 Y-2.819 Z-1.7
N9330 X40.25 Y-2.42
N9340 G3 X39.876 Y-1.996 I-0.399 J0.025
N9350 G2 X38 Y0 I0.124 J1.996 F800
N9360 G1 Y47.2
N9370 Y48 F200
N9380 X17.8 F800
N9390 X17 F200
N9400 Y0 F800
N9410 G2 X15 Y-2 I-2 J0
N9420 G1 X0
N9430 G2 X-2 Y0 I0 J2
N9440 G1 Y70
N9450 G2 X0 Y72 I2 J0
N9460 G1 X160
N9470 G2 X162 Y70 I0 J-2
N9480 G1 Y0
N9490 G2 X160 Y-2 I-2 J0
N9500 G1 X145
N9510 G2 X143 Y0 I0 J2
N9520 G1 Y47.2
N9530 Y48 F200
N9540 X122.8 F800
N9550 X122 F200
N9560 Y0 F800
N9570 G2 X120 Y-2 I-2 J0
N9580 G1 X40
N9590 X39.876 Y-1.996
N9600 G3 X39.452 Y-2.371 I-0.025 J-0.399
N9610 G1 X39.427 Y-2.77
N9620 X39.422 Y-2.848 Z-1.692
N9630 X39.418 Y-2.923 Z-1.67
N9640 X39.413 Y-2.992 Z-1.633
N9650 X39.41 Y-3.052 Z-1.583
N9660 X39.407 Y-3.102 Z-1.522
N9670 X39.404 Y-3.139 Z-1.453
N9680 X39.403 Y-3.161 Z-1.378
N9690 X39.402 Y-3.169 Z-1.3
N9700 G0 Z2.3
N9710 X40.201 Y-3.219
N9720 G1 Z-1.4 F75
N9730 Y-3.211 Z-1.478 F43
N9740 X40.203 Y-3.188 Z-1.553
N9750 X40.205 Y-3.151 Z-1.622
N9760 X40.208 Y-3.102 Z-1.683
N9770 X40.212 Y-3.041 Z-1.733
N9780 X40.216 Y-2.972 Z-1.77
N9790 X40.221 Y-2.897 Z-1.792
N9800 X40.226 Y-2.819 Z-1.8
N9810 X40.25 Y-2.42
N9820 G3 X39.876 Y-1.996 I-0.399 J0.025
N9830 G2 X38 Y0 I0.124 J1.996 F800
N9840 G1 Y47.2
N9850 Y48 F200
N9860 X17.8 F800
N9870 X17 F200
N9880 Y0 F800
N9890 G2 X15 Y-2 I-2 J0
N9900 G1 X0
N9910 G2 X-2 Y0 I0 J2
N9920 G1 Y70
N9930 G2 X0 Y72 I2 J0
N9940 G1 X160
N9950 G2 X162 Y70 I0 J-2
N9960 G1 Y0
N9970 G2 X160 Y-2 I-2 J0
N9980 G1 X145
N9990 G2 X143 Y0 I0 J2
N10000 G1 Y47.2
N10010 Y48 F200
N10020 X122.8 F800
N10030 X122 F200
N10040 Y0 F800
N10050 G2 X120 Y-2 I-2 J0
N10060 G1 X40
N10070 X39.876 Y-1.996
N10080 G3 X39.452 Y-2.371 I-0.025 J-0.399
N10090 G1 X39.427 Y-2.77
N10100 X39.422 Y-2.848 Z-1.792
N10110 X39.418 Y-2.923 Z-1.77
N10120 X39.413 Y-2.992 Z-1.733
N10130 X39.41 Y-3.052 Z-1.683
N10140 X39.407 Y-3.102 Z-1.622
N10150 X39.404 Y-3.139 Z-1.553
N10160 X39.403 Y-3.161 Z-1.478
N10170 X39.402 Y-3.169 Z-1.4
N10180 G0 Z2.3
N10190 X40.201 Y-3.219
N10200 G1 Z-1.5 F75
N10210 Y-3.211 Z-1.578 F43
N10220 X40.203 Y-3.188 Z-1.653
N10230 X40.205 Y-3.151 Z-1.722
N10240 X40.208 Y-3.102 Z-1.783
N10250 X40.212 Y-3.041 Z-1.833
N10260 X40.216 Y-2.972 Z-1.87
N10270 X40.221 Y-2.897 Z-1.892
N10280 X40.226 Y-2.819 Z-1.9
N10290 X40.25 Y-2.42
N10300 G3 X39.876 Y-1.996 I-0.399 J0.025
N10310 G2 X38 Y0 I0.124 J1.996 F800
N10320 G1 Y47.2
N10330 Y48 F200
N10340 X17.8 F800
N10350 X17 F200
N10360 Y0 F800
N10370 G2 X15 Y-2 I-2 J0
N10380 G1 X0
N10390 G2 X-2 Y0 I0 J2
N10400 G1 Y70
N10410 G2 X0 Y72 I2 J0
N10420 G1 X160
N10430 G2 X162 Y70 I0 J-2
N10440 G1 Y0
N10450 G2 X160 Y-2 I-2 J0
N10460 G1 X145
N10470 G2 X143 Y0 I0 J2
N10480 G1 Y47.2
N10490 Y48 F200
N10500 X122.8 F800
N10510 X122 F200
N10520 Y0 F800
N10530 G2 X120 Y-2 I-2 J0
N10540 G1 X40
N10550 X39.876 Y-1.996
N10560 G3 X39.452 Y-2.371 I-0.025 J-0.399
N10570 G1 X39.427 Y-2.77
N10580 X39.422 Y-2.848 Z-1.892
N10590 X39.418 Y-2.923 Z-1.87
N10600 X39.413 Y-2.992 Z-1.833
N10610 X39.41 Y-3.052 Z-1.783
N10620 X39.407 Y-3.102 Z-1.722
N10630 X39.404 Y-3.139 Z-1.653
N10640 X39.403 Y-3.161 Z-1.578
N10650 X39.402 Y-3.169 Z-1.5
N10660 G0 Z2.3
N10670 X40.201 Y-3.219
N10680 G1 Z-1.6 F75
N10690 Y-3.211 Z-1.678 F43
N10700 X40.203 Y-3.188 Z-1.753
N10710 X40.205 Y-3.151 Z-1.822
N10720 X40.208 Y-3.102 Z-1.883
N10730 X40.212 Y-3.041 Z-1.933
N10740 X40.216 Y-2.972 Z-1.97
N10750 X40.221 Y-2.897 Z-1.992
N10760 X40.226 Y-2.819 Z-2
N10770 X40.25 Y-2.42
N10780 G3 X39.876 Y-1.996 I-0.399 J0.025
N10790 G2 X38 Y0 I0.124 J1.996 F800
N10800 G1 Y47.2
N10810 Y48 F200
N10820 X17.8 F800
N10830 X17 F200
N10840 Y0 F800
N10850 G2 X15 Y-2 I-2 J0
N10860 G1 X0
N10870 G2 X-2 Y0 I0 J2
N10880 G1 Y70
N10890 G2 X0 Y72 I2 J0
N10900 G1 X160
N10910 G2 X162 Y70 I0 J-2
N10920 G1 Y0
N10930 G2 X160 Y-2 I-2 J0
N10940 G1 X145
N10950 G2 X143 Y0 I0 J2
N10960 G1 Y47.2
N10970 Y48 F200
N10980 X122.8 F800
N10990 X122 F200
N11000 Y0 F800
N11010 G2 X120 Y-2 I-2 J0
N11020 G1 X40
N11030 X39.876 Y-1.996
N11040 G3 X39.452 Y-2.371 I-0.025 J-0.399
N11050 G1 X39.427 Y-2.77
N11060 X39.422 Y-2.848 Z-1.992
N11070 X39.418 Y-2.923 Z-1.97
N11080 X39.413 Y-2.992 Z-1.933
N11090 X39.41 Y-3.052 Z-1.883
N11100 X39.407 Y-3.102 Z-1.822
N11110 X39.404 Y-3.139 Z-1.753
N11120 X39.403 Y-3.161 Z-1.678
N11130 X39.402 Y-3.169 Z-1.6
N11140 G0 Z2.3
N11150 X40.201 Y-3.219
N11160 G1 Z-1.7 F75
N11170 Y-3.211 Z-1.778 F43
N11180 X40.203 Y-3.188 Z-1.853
N11190 X40.205 Y-3.151 Z-1.922
N11200 X40.208 Y-3.102 Z-1.983
N11210 X40.212 Y-3.041 Z-2.033
N11220 X40.216 Y-2.972 Z-2.07
N11230 X40.221 Y-2.897 Z-2.092
N11240 X40.226 Y-2.819 Z-2.1
N11250 X40.25 Y-2.42
N11260 G3 X39.876 Y-1.996 I-0.399 J0.025
N11270 G2 X38 Y0 I0.124 J1.996 F800
N11280 G1 Y47.2
N11290 Y48 F200
N11300 X17.8 F800
N11310 X17 F200
N11320 Y0 F800
N11330 G2 X15 Y-2 I-2 J0
N11340 G1 X0
N11350 G2 X-2 Y0 I0 J2
N11360 G1 Y70
N11370 G2 X0 Y72 I2 J0
N11380 G1 X160
N11390 G2 X162 Y70 I0 J-2
N11400 G1 Y0
N11410 G2 X160 Y-2 I-2 J0
N11420 G1 X145
N11430 G2 X143 Y0 I0 J2
N11440 G1 Y47.2
N11450 Y48 F200
N11460 X122.8 F800
N11470 X122 F200
N11480 Y0 F800
N11490 G2 X120 Y-2 I-2 J0
N11500 G1 X40
N11510 X39.876 Y-1.996
N11520 G3 X39.452 Y-2.371 I-0.025 J-0.399
N11530 G1 X39.427 Y-2.77
N11540 X39.422 Y-2.848 Z-2.092
N11550 X39.418 Y-2.923 Z-2.07
N11560 X39.413 Y-2.992 Z-2.033
N11570 X39.41 Y-3.052 Z-1.983
N11580 X39.407 Y-3.102 Z-1.922
N11590 X39.404 Y-3.139 Z-1.853
N11600 X39.403 Y-3.161 Z-1.778
N11610 X39.402 Y-3.169 Z-1.7
N11620 G0 Z2.3
N11630 X40.201 Y-3.219
N11640 G1 Z-1.8 F75
N11650 Y-3.211 Z-1.878 F43
N11660 X40.203 Y-3.188 Z-1.953
N11670 X40.205 Y-3.151 Z-2.022
N11680 X40.208 Y-3.102 Z-2.083
N11690 X40.212 Y-3.041 Z-2.133
N11700 X40.216 Y-2.972 Z-2.17
N11710 X40.221 Y-2.897 Z-2.192
N11720 X40.226 Y-2.819 Z-2.2
N11730 X40.25 Y-2.42
N11740 G3 X39.876 Y-1.996 I-0.399 J0.025
N11750 G2 X38 Y0 I0.124 J1.996 F800
N11760 G1 Y47.2
N11770 Y48 F200
N11780 X17.8 F800
N11790 X17 F200
N11800 Y0 F800
N11810 G2 X15 Y-2 I-2 J0
N11820 G1 X0
N11830 G2 X-2 Y0 I0 J2
N11840 G1 Y70
N11850 G2 X0 Y72 I2 J0
N11860 G1 X160
N11870 G2 X162 Y70 I0 J-2
N11880 G1 Y0
N11890 G2 X160 Y-2 I-2 J0
N11900 G1 X145
N11910 G2 X143 Y0 I0 J2
N11920 G1 Y47.2
N11930 Y48 F200
N11940 X122.8 F800
N11950 X122 F200
N11960 Y0 F800
N11970 G2 X120 Y-2 I-2 J0
N11980 G1 X40
N11990 X39.876 Y-1.996
N12000 G3 X39.452 Y-2.371 I-0.025 J-0.399
N12010 G1 X39.427 Y-2.77
N12020 X39.422 Y-2.848 Z-2.192
N12030 X39.418 Y-2.923 Z-2.17
N12040 X39.413 Y-2.992 Z-2.133
N12050 X39.41 Y-3.052 Z-2.083
N12060 X39.407 Y-3.102 Z-2.022
N12070 X39.404 Y-3.139 Z-1.953
N12080 X39.403 Y-3.161 Z-1.878
N12090 X39.402 Y-3.169 Z-1.8
N12100 G0 Z2.3
N12110 X40.201 Y-3.219
N12120 G1 Z-1.9 F75
N12130 Y-3.211 Z-1.978 F43
N12140 X40.203 Y-3.188 Z-2.053
N12150 X40.205 Y-3.151 Z-2.122
N12160 X40.208 Y-3.102 Z-2.183
N12170 X40.212 Y-3.041 Z-2.233
N12180 X40.216 Y-2.972 Z-2.27
N12190 X40.221 Y-2.897 Z-2.292
N12200 X40.226 Y-2.819 Z-2.3
N12210 X40.25 Y-2.42
N12220 G3 X39.876 Y-1.996 I-0.399 J0.025
N12230 G2 X38 Y0 I0.124 J1.996 F800
N12240 G1 Y47.2
N12250 Y48 F200
N12260 X17.8 F800
N12270 X17 F200
N12280 Y0 F800
N12290 G2 X15 Y-2 I-2 J0
N12300 G1 X0
N12310 G2 X-2 Y0 I0 J2
N12320 G1 Y70
N12330 G2 X0 Y72 I2 J0
N12340 G1 X37.15
N12350 X37.95 F200
N12360 X38 Z-2.2 F800
N12370 X42
N12380 X42.05 Z-2.3 F75
N12390 X117.15 F800
N12400 X117.95 F200
N12410 X118 Z-2.2 F800
N12420 X122
N12430 X122.05 Z-2.3 F75
N12440 X160 F800
N12450 G2 X162 Y70 I0 J-2
N12460 G1 Y0
N12470 G2 X160 Y-2 I-2 J0
N12480 G1 X145
N12490 G2 X143 Y0 I0 J2
N12500 G1 Y47.2
N12510 Y48 F200
N12520 X122.8 F800
N12530 X122 F200
N12540 Y0 F800
N12550 G2 X120 Y-2 I-2 J0
N12560 G1 X82.85
N12570 X82.05 F200
N12580 X82 Z-2.2 F800
N12590 X78
N12600 X77.95 Z-2.3 F75
N12610 X40 F800
N12620 X39.876 Y-1.996
N12630 G3 X39.452 Y-2.371 I-0.025 J-0.399
N12640 G1 X39.427 Y-2.77
N12650 X39.422 Y-2.848 Z-2.292
N12660 X39.418 Y-2.923 Z-2.27
N12670 X39.413 Y-2.992 Z-2.233
N12680 X39.41 Y-3.052 Z-2.183
N12690 X39.407 Y-3.102 Z-2.122
N12700 X39.404 Y-3.139 Z-2.053
N12710 X39.403 Y-3.161 Z-1.978
N12720 X39.402 Y-3.169 Z-1.9
N12730 G0 Z2.3
N12740 X40.201 Y-3.219
N12750 G1 Z-2 F75
N12760 Y-3.211 Z-2.078 F43
N12770 X40.203 Y-3.188 Z-2.153
N12780 X40.205 Y-3.151 Z-2.222
N12790 X40.208 Y-3.102 Z-2.283
N12800 X40.212 Y-3.041 Z-2.333
N12810 X40.216 Y-2.972 Z-2.37
N12820 X40.221 Y-2.897 Z-2.392
N12830 X40.226 Y-2.819 Z-2.4
N12840 X40.25 Y-2.42
N12850 G3 X39.876 Y-1.996 I-0.399 J0.025
N12860 G2 X38 Y0 I0.124 J1.996 F800
N12870 G1 Y47.2
N12880 Y48 F200
N12890 X17.8 F800
N12900 X17 F200
N12910 Y0 F800
N12920 G2 X15 Y-2 I-2 J0
N12930 G1 X0
N12940 G2 X-2 Y0 I0 J2
N12950 G1 Y70
N12960 G2 X0 Y72 I2 J0
N12970 G1 X37.1
N12980 X37.9 F200
N12990 X38 Z-2.2 F800
N13000 X42
N13010 X42.1 Z-2.4 F75
N13020 X117.1 F800
N13030 X117.9 F200
N13040 X118 Z-2.2 F800
N13050 X122
N13060 X122.1 Z-2.4 F75
N13070 X160 F800
N13080 G2 X162 Y70 I0 J-2
N13090 G1 Y0
N13100 G2 X160 Y-2 I-2 J0
N13110 G1 X145
N13120 G2 X143 Y0 I0 J2
N13130 G1 Y47.2
N13140 Y48 F200
N13150 X122.8 F800
N13160 X122 F200
N13170 Y0 F800
N13180 G2 X120 Y-2 I-2 J0
N13190 G1 X82.9
N13200 X82.1 F200
N13210 X82 Z-2.2 F800
N13220 X78
N13230 X77.9 Z-2.4 F75
N13240 X40 F800
N13250 X39.876 Y-1.996
N13260 G3 X39.452 Y-2.371 I-0.025 J-0.399
N13270 G1 X39.427 Y-2.77
N13280 X39.422 Y-2.848 Z-2.392
N13290 X39.418 Y-2.923 Z-2.37
N13300 X39.413 Y-2.992 Z-2.333
N13310 X39.41 Y-3.052 Z-2.283
N13320 X39.407 Y-3.102 Z-2.222
N13330 X39.404 Y-3.139 Z-2.153
N13340 X39.403 Y-3.161 Z-2.078
N13350 X39.402 Y-3.169 Z-2
N13360 G0 Z2.3
N13370 X40.201 Y-3.219
N13380 G1 Z-2.1 F75
N13390 Y-3.211 Z-2.178 F43
N13400 X40.203 Y-3.188 Z-2.253
N13410 X40.205 Y-3.151 Z-2.322
N13420 X40.208 Y-3.102 Z-2.383
N13430 X40.212 Y-3.041 Z-2.433
N13440 X40.216 Y-2.972 Z-2.47
N13450 X40.221 Y-2.897 Z-2.492
N13460 X40.226 Y-2.819 Z-2.5
N13470 X40.25 Y-2.42
N13480 G3 X39.876 Y-1.996 I-0.399 J0.025
N13490 G2 X38 Y0 I0.124 J1.996 F800
N13500 G1 Y47.2
N13510 Y48 F200
N13520 X17.8 F800
N13530 X17 F200
N13540 Y0 F800
N13550 G2 X15 Y-2 I-2 J0
N13560 G1 X0
N13570 G2 X-2 Y0 I0 J2
N13580 G1 Y70
N13590 G2 X0 Y72 I2 J0
N13600 G1 X37.05
N13610 X37.85 F200
N13620 X38 Z-2.2 F800
N13630 X42
N13640 X42.15 Z-2.5 F75
N13650 X117.05 F800
N13660 X117.85 F200
N13670 X118 Z-2.2 F800
N13680 X122
N13690 X122.15 Z-2.5 F75
N13700 X160 F800
N13710 G2 X162 Y70 I0 J-2
N13720 G1 Y0
N13730 G2 X160 Y-2 I-2 J0
N13740 G1 X145
N13750 G2 X143 Y0 I0 J2
N13760 G1 Y47.2
N13770 Y48 F200
N13780 X122.8 F800
N13790 X122 F200
N13800 Y0 F800
N13810 G2 X120 Y-2 I-2 J0
N13820 G1 X82.95
N13830 X82.15 F200
N13840 X82 Z-2.2 F800
N13850 X78
N13860 X77.85 Z-2.5 F75
N13870 X40 F800
N13880 X39.876 Y-1.996
N13890 G3 X39.452 Y-2.371 I-0.025 J-0.399
N13900 G1 X39.427 Y-2.77
N13910 X39.422 Y-2.848 Z-2.492
N13920 X39.418 Y-2.923 Z-2.47
N13930 X39.413 Y-2.992 Z-2.433
N13940 X39.41 Y-3.052 Z-2.383
N13950 X39.407 Y-3.102 Z-2.322
N13960 X39.404 Y-3.139 Z-2.253
N13970 X39.403 Y-3.161 Z-2.178
N13980 X39.402 Y-3.169 Z-2.1
N13990 G0 Z2.3
N14000 X40.201 Y-3.219
N14010 G1 Z-2.2 F75
N14020 Y-3.211 Z-2.278 F43
N14030 X40.203 Y-3.188 Z-2.353
N14040 X40.205 Y-3.151 Z-2.422
N14050 X40.208 Y-3.102 Z-2.483
N14060 X40.212 Y-3.041 Z-2.533
N14070 X40.216 Y-2.972 Z-2.57
N14080 X40.221 Y-2.897 Z-2.592
N14090 X40.226 Y-2.819 Z-2.6
N14100 X40.25 Y-2.42
N14110 G3 X39.876 Y-1.996 I-0.399 J0.025
N14120 G2 X38 Y0 I0.124 J1.996 F800
N14130 G1 Y47.2
N14140 Y48 F200
N14150 X17.8 F800
N14160 X17 F200
N14170 Y0 F800
N14180 G2 X15 Y-2 I-2 J0
N14190 G1 X0
N14200 G2 X-2 Y0 I0 J2
N14210 G1 Y70
N14220 G2 X0 Y72 I2 J0
N14230 G1 X37
N14240 X37.8 F200
N14250 X38 Z-2.2 F800
N14260 X42
N14270 X42.2 Z-2.6 F75
N14280 X117 F800
N14290 X117.8 F200
N14300 X118 Z-2.2 F800
N14310 X122
N14320 X122.2 Z-2.6 F75
N14330 X160 F800
N14340 G2 X162 Y70 I0 J-2
N14350 G1 Y0
N14360 G2 X160 Y-2 I-2 J0
N14370 G1 X145
N14380 G2 X143 Y0 I0 J2
N14390 G1 Y47.2
N14400 Y48 F200
N14410 X122.8 F800
N14420 X122 F200
N14430 Y0 F800
N14440 G2 X120 Y-2 I-2 J0
N14450 G1 X83
N14460 X82.2 F200
N14470 X82 Z-2.2 F800
N14480 X78
N14490 X77.8 Z-2.6 F75
N14500 X40 F800
N14510 X39.876 Y-1.996
N14520 G3 X39.452 Y-2.371 I-0.025 J-0.399
N14530 G1 X39.427 Y-2.77
N14540 X39.422 Y-2.848 Z-2.592
N14550 X39.418 Y-2.923 Z-2.57
N14560 X39.413 Y-2.992 Z-2.533
N14570 X39.41 Y-3.052 Z-2.483
N14580 X39.407 Y-3.102 Z-2.422
N14590 X39.404 Y-3.139 Z-2.353
N14600 X39.403 Y-3.161 Z-2.278
N14610 X39.402 Y-3.169 Z-2.2
N14620 G0 Z2.3
N14630 X40.201 Y-3.219
N14640 G1 Z-2.3 F75
N14650 Y-3.211 Z-2.378 F43
N14660 X40.203 Y-3.188 Z-2.453
N14670 X40.205 Y-3.151 Z-2.522
N14680 X40.208 Y-3.102 Z-2.583
N14690 X40.212 Y-3.041 Z-2.633
N14700 X40.216 Y-2.972 Z-2.67
N14710 X40.221 Y-2.897 Z-2.692
N14720 X40.226 Y-2.819 Z-2.7
N14730 X40.25 Y-2.42
N14740 G3 X39.876 Y-1.996 I-0.399 J0.025
N14750 G2 X38 Y0 I0.124 J1.996 F800
N14760 G1 Y47.2
N14770 Y48 F200
N14780 X17.8 F800
N14790 X17 F200
N14800 Y0 F800
N14810 G2 X15 Y-2 I-2 J0
N14820 G1 X0
N14830 G2 X-2 Y0 I0 J2
N14840 G1 Y70
N14850 G2 X0 Y72 I2 J0
N14860 G1 X36.95
N14870 X37.75 F200
N14880 X38 Z-2.2 F800
N14890 X42
N14900 X42.25 Z-2.7 F75
N14910 X116.95 F800
N14920 X117.75 F200
N14930 X118 Z-2.2 F800
N14940 X122
N14950 X122.25 Z-2.7 F75
N14960 X160 F800
N14970 G2 X162 Y70 I0 J-2
N14980 G1 Y0
N14990 G2 X160 Y-2 I-2 J0
N15000 G1 X145
N15010 G2 X143 Y0 I0 J2
N15020 G1 Y47.2
N15030 Y48 F200
N15040 X122.8 F800
N15050 X122 F200
N15060 Y0 F800
N15070 G2 X120 Y-2 I-2 J0
N15080 G1 X83.05
N15090 X82.25 F200
N15100 X82 Z-2.2 F800
N15110 X78
N15120 X77.75 Z-2.7 F75
N15130 X40 F800
N15140 X39.876 Y-1.996
N15150 G3 X39.452 Y-2.371 I-0.025 J-0.399
N15160 G1 X39.427 Y-2.77
N15170 X39.422 Y-2.848 Z-2.692
N15180 X39.418 Y-2.923 Z-2.67
N15190 X39.413 Y-2.992 Z-2.633
N15200 X39.41 Y-3.052 Z-2.583
N15210 X39.407 Y-3.102 Z-2.522
N15220 X39.404 Y-3.139 Z-2.453
N15230 X39.403 Y-3.161 Z-2.378
N15240 X39.402 Y-3.169 Z-2.3
N15250 G0 Z2.3
N15260 X40.201 Y-3.219
N15270 G1 Z-2.4 F75
N15280 Y-3.211 Z-2.478 F43
N15290 X40.203 Y-3.188 Z-2.553
N15300 X40.205 Y-3.151 Z-2.622
N15310 X40.208 Y-3.102 Z-2.683
N15320 X40.212 Y-3.041 Z-2.733
N15330 X40.216 Y-2.972 Z-2.77
N15340 X40.221 Y-2.897 Z-2.792
N15350 X40.226 Y-2.819 Z-2.8
N15360 X40.25 Y-2.42
N15370 G3 X39.876 Y-1.996 I-0.399 J0.025
N15380 G2 X38 Y0 I0.124 J1.996 F800
N15390 G1 Y47.2
N15400 Y48 F200
N15410 X17.8 F800
N15420 X17 F200
N15430 Y0 F800
N15440 G2 X15 Y-2 I-2 J0
N15450 G1 X0
N15460 G2 X-2 Y0 I0 J2
N15470 G1 Y70
N15480 G2 X0 Y72 I2 J0
N15490 G1 X36.9
N15500 X37.7 F200
N15510 X38 Z-2.2 F800
N15520 X42
N15530 X42.3 Z-2.8 F75
N15540 X116.9 F800
N15550 X117.7 F200
N15560 X118 Z-2.2 F800
N15570 X122
N15580 X122.3 Z-2.8 F75
N15590 X160 F800
N15600 G2 X162 Y70 I0 J-2
N15610 G1 Y0
N15620 G2 X160 Y-2 I-2 J0
N15630 G1 X145
N15640 G2 X143 Y0 I0 J2
N15650 G1 Y47.2
N15660 Y48 F200
N15670 X122.8 F800
N15680 X122 F200
N15690 Y0 F800
N15700 G2 X120 Y-2 I-2 J0
N15710 G1 X83.1
N15720 X82.3 F200
N15730 X82 Z-2.2 F800
N15740 X78
N15750 X77.7 Z-2.8 F75
N15760 X40 F800
N15770 X39.876 Y-1.996
N15780 G3 X39.452 Y-2.371 I-0.025 J-0.399
N15790 G1 X39.427 Y-2.77
N15800 X39.422 Y-2.848 Z-2.792
N15810 X39.418 Y-2.923 Z-2.77
N15820 X39.413 Y-2.992 Z-2.733
N15830 X39.41 Y-3.052 Z-2.683
N15840 X39.407 Y-3.102 Z-2.622
N15850 X39.404 Y-3.139 Z-2.553
N15860 X39.403 Y-3.161 Z-2.478
N15870 X39.402 Y-3.169 Z-2.4
N15880 G0 Z2.3
N15890 X40.201 Y-3.219
N15900 G1 Z-2.5 F75
N15910 Y-3.211 Z-2.578 F43
N15920 X40.203 Y-3.188 Z-2.653
N15930 X40.205 Y-3.151 Z-2.722
N15940 X40.208 Y-3.102 Z-2.783
N15950 X40.212 Y-3.041 Z-2.833
N15960 X40.216 Y-2.972 Z-2.87
N15970 X40.221 Y-2.897 Z-2.892
N15980 X40.226 Y-2.819 Z-2.9
N15990 X40.25 Y-2.42
N16000 G3 X39.876 Y-1.996 I-0.399 J0.025
N16010 G2 X38 Y0 I0.124 J1.996 F800
N16020 G1 Y47.2
N16030 Y48 F200
N16040 X17.8 F800
N16050 X17 F200
N16060 Y0 F800
N16070 G2 X15 Y-2 I-2 J0
N16080 G1 X0
N16090 G2 X-2 Y0 I0 J2
N16100 G1 Y70
N16110 G2 X0 Y72 I2 J0
N16120 G1 X36.85
N16130 X37.65 F200
N16140 X38 Z-2.2 F800
N16150 X42
N16160 X42.35 Z-2.9 F75
N16170 X116.85 F800
N16180 X117.65 F200
N16190 X118 Z-2.2 F800
N16200 X122
N16210 X122.35 Z-2.9 F75
N16220 X160 F800
N16230 G2 X162 Y70 I0 J-2
N16240 G1 Y0
N16250 G2 X160 Y-2 I-2 J0
N16260 G1 X145
N16270 G2 X143 Y0 I0 J2
N16280 G1 Y47.2
N16290 Y48 F200
N16300 X122.8 F800
N16310 X122 F200
N16320 Y0 F800
N16330 G2 X120 Y-2 I-2 J0
N16340 G1 X83.15
N16350 X82.35 F200
N16360 X82 Z-2.2 F800
N16370 X78
N16380 X77.65 Z-2.9 F75
N16390 X40 F800
N16400 X39.876 Y-1.996
N16410 G3 X39.452 Y-2.371 I-0.025 J-0.399
N16420 G1 X39.427 Y-2.77
N16430 X39.422 Y-2.848 Z-2.892
N16440 X39.418 Y-2.923 Z-2.87
N16450 X39.413 Y-2.992 Z-2.833
N16460 X39.41 Y-3.052 Z-2.783
N16470 X39.407 Y-3.102 Z-2.722
N16480 X39.404 Y-3.139 Z-2.653
N16490 X39.403 Y-3.161 Z-2.578
N16500 X39.402 Y-3.169 Z-2.5
N16510 G0 Z2.3
N16520 X40.201 Y-3.219
N16530 G1 Z-2.6 F75
N16540 Y-3.211 Z-2.678 F43
N16550 X40.203 Y-3.188 Z-2.753
N16560 X40.205 Y-3.151 Z-2.822
N16570 X40.208 Y-3.102 Z-2.883
N16580 X40.212 Y-3.041 Z-2.933
N16590 X40.216 Y-2.972 Z-2.97
N16600 X40.221 Y-2.897 Z-2.992
N16610 X40.226 Y-2.819 Z-3
N16620 X40.25 Y-2.42
N16630 G3 X39.876 Y-1.996 I-0.399 J0.025
N16640 G2 X38 Y0 I0.124 J1.996 F800
N16650 G1 Y47.2
N16660 Y48 F200
N16670 X17.8 F800
N16680 X17 F200
N16690 Y0 F800
N16700 G2 X15 Y-2 I-2 J0
N16710 G1 X0
N16720 G2 X-2 Y0 I0 J2
N16730 G1 Y70
N16740 G2 X0 Y72 I2 J0
N16750 G1 X36.8
N16760 X37.6 F200
N16770 X38 Z-2.2 F800
N16780 X42
N16790 X42.4 Z-3 F75
N16800 X116.8 F800
N16810 X117.6 F200
N16820 X118 Z-2.2 F800
N16830 X122
N16840 X122.4 Z-3 F75
N16850 X160 F800
N16860 G2 X162 Y70 I0 J-2
N16870 G1 Y0
N16880 G2 X160 Y-2 I-2 J0
N16890 G1 X145
N16900 G2 X143 Y0 I0 J2
N16910 G1 Y47.2
N16920 Y48 F200
N16930 X122.8 F800
N16940 X122 F200
N16950 Y0 F800
N16960 G2 X120 Y-2 I-2 J0
N16970 G1 X83.2
N16980 X82.4 F200
N16990 X82 Z-2.2 F800
N17000 X78
N17010 X77.6 Z-3 F75
N17020 X40 F800
N17030 X39.876 Y-1.996
N17040 G3 X39.452 Y-2.371 I-0.025 J-0.399
N17050 G1 X39.427 Y-2.77
N17060 X39.422 Y-2.848 Z-2.992
N17070 X39.418 Y-2.923 Z-2.97
N17080 X39.413 Y-2.992 Z-2.933
N17090 X39.41 Y-3.052 Z-2.883
N17100 X39.407 Y-3.102 Z-2.822
N17110 X39.404 Y-3.139 Z-2.753
N17120 X39.403 Y-3.161 Z-2.678
N17130 X39.402 Y-3.169 Z-2.6
N17140 G0 Z2.3
N17150 X40.201 Y-3.219
N17160 G1 Z-2.7 F75
N17170 Y-3.211 Z-2.778 F43
N17180 X40.203 Y-3.188 Z-2.853
N17190 X40.205 Y-3.151 Z-2.922
N17200 X40.208 Y-3.102 Z-2.983
N17210 X40.212 Y-3.041 Z-3.033
N17220 X40.216 Y-2.972 Z-3.07
N17230 X40.221 Y-2.897 Z-3.092
N17240 X40.226 Y-2.819 Z-3.1
N17250 X40.25 Y-2.42
N17260 G3 X39.876 Y-1.996 I-0.399 J0.025
N17270 G2 X38 Y0 I0.124 J1.996 F800
N17280 G1 Y47.2
N17290 Y48 F200
N17300 X17.8 F800
N17310 X17 F200
N17320 Y0 F800
N17330 G2 X15 Y-2 I-2 J0
N17340 G1 X0
N17350 G2 X-2 Y0 I0 J2
N17360 G1 Y70
N17370 G2 X0 Y72 I2 J0
N17380 G1 X36.75
N17390 X37.55 F200
N17400 X38 Z-2.2 F800
N17410 X42
N17420 X42.45 Z-3.1 F75
N17430 X116.75 F800
N17440 X117.55 F200
N17450 X118 Z-2.2 F800
N17460 X122
N17470 X122.45 Z-3.1 F75
N17480 X160 F800
N17490 G2 X162 Y70 I0 J-2
N17500 G1 Y0
N17510 G2 X160 Y-2 I-2 J0
N17520 G1 X145
N17530 G2 X143 Y0 I0 J2
N17540 G1 Y47.2
N17550 Y48 F200
N17560 X122.8 F800
N17570 X122 F200
N17580 Y0 F800
N17590 G2 X120 Y-2 I-2 J0
N17600 G1 X83.25
N17610 X82.45 F200
N17620 X82 Z-2.2 F800
N17630 X78
N17640 X77.55 Z-3.1 F75
N17650 X40 F800
N17660 X39.876 Y-1.996
N17670 G3 X39.452 Y-2.371 I-0.025 J-0.399
N17680 G1 X39.427 Y-2.77
N17690 X39.422 Y-2.848 Z-3.092
N17700 X39.418 Y-2.923 Z-3.07
N17710 X39.413 Y-2.992 Z-3.033
N17720 X39.41 Y-3.052 Z-2.983
N17730 X39.407 Y-3.102 Z-2.922
N17740 X39.404 Y-3.139 Z-2.853
N17750 X39.403 Y-3.161 Z-2.778
N17760 X39.402 Y-3.169 Z-2.7
N17770 G0 Z2.3
N17780 X40.201 Y-3.219
N17790 G1 Z-2.8 F75
N17800 Y-3.211 Z-2.878 F43
N17810 X40.203 Y-3.188 Z-2.953
N17820 X40.205 Y-3.151 Z-3.022
N17830 X40.208 Y-3.102 Z-3.083
N17840 X40.212 Y-3.041 Z-3.133
N17850 X40.216 Y-2.972 Z-3.17
N17860 X40.221 Y-2.897 Z-3.192
N17870 X40.226 Y-2.819 Z-3.2
N17880 X40.25 Y-2.42
N17890 G3 X39.876 Y-1.996 I-0.399 J0.025
N17900 G2 X38 Y0 I0.124 J1.996 F800
N17910 G1 Y47.2
N17920 Y48 F200
N17930 X17.8 F800
N17940 X17 F200
N17950 Y0 F800
N17960 G2 X15 Y-2 I-2 J0
N17970 G1 X0
N17980 G2 X-2 Y0 I0 J2
N17990 G1 Y70
N18000 G2 X0 Y72 I2 J0
N18010 G1 X36.7
N18020 X37.5 F200
N18030 X38 Z-2.2 F800
N18040 X42
N18050 X42.5 Z-3.2 F75
N18060 X116.7 F800
N18070 X117.5 F200
N18080 X118 Z-2.2 F800
N18090 X122
N18100 X122.5 Z-3.2 F75
N18110 X160 F800
N18120 G2 X162 Y70 I0 J-2
N18130 G1 Y0
N18140 G2 X160 Y-2 I-2 J0
N18150 G1 X145
N18160 G2 X143 Y0 I0 J2
N18170 G1 Y47.2
N18180 Y48 F200
N18190 X122.8 F800
N18200 X122 F200
N18210 Y0 F800
N18220 G2 X120 Y-2 I-2 J0
N18230 G1 X83.3
N18240 X82.5 F200
N18250 X82 Z-2.2 F800
N18260 X78
N18270 X77.5 Z-3.2 F75
N18280 X40 F800
N18290 X39.876 Y-1.996
N18300 G3 X39.452 Y-2.371 I-0.025 J-0.399
N18310 G1 X39.427 Y-2.77
N18320 X39.422 Y-2.848 Z-3.192
N18330 X39.418 Y-2.923 Z-3.17
N18340 X39.413 Y-2.992 Z-3.133
N18350 X39.41 Y-3.052 Z-3.083
N18360 X39.407 Y-3.102 Z-3.022
N18370 X39.404 Y-3.139 Z-2.953
N18380 X39.403 Y-3.161 Z-2.878
N18390 X39.402 Y-3.169 Z-2.8
N18400 G0 Z2.3
N18410 X-3.188 Y79.515
N18420 G1 Z0.6 F75
N18430 X-3.181 Z0.522 F43
N18440 X-3.158 Y79.516 Z0.447
N18450 X-3.121 Y79.517 Z0.378
N18460 X-3.071 Y79.518 Z0.317
N18470 X-3.011 Y79.52 Z0.267
N18480 X-2.941 Y79.522 Z0.23
N18490 X-2.866 Y79.524 Z0.208
N18500 X-2.788 Y79.526 Z0.2
N18510 X-2.389 Y79.536
N18520 G3 X-1.999 Y79.947 I-0.011 J0.4
N18530 G1 X-2 Y80 F800
N18540 Y130
N18550 G2 X0 Y132 I2 J0
N18560 G1 X160
N18570 G2 X162 Y130 I0 J-2
N18580 G1 Y80
N18590 G2 X160 Y78 I-2 J0
N18600 G1 X0
N18610 G2 X-1.999 Y79.947 I0 J2
N18620 G3 X-2.41 Y80.336 I-0.4 J-0.011
N18630 G1 X-2.81 Y80.325
N18640 X-2.888 Y80.323 Z0.208
N18650 X-2.963 Y80.321 Z0.23
N18660 X-3.032 Y80.32 Z0.267
N18670 X-3.092 Y80.318 Z0.317
N18680 X-3.142 Y80.317 Z0.378
N18690 X-3.179 Y80.316 Z0.447
N18700 X-3.202 Y80.315 Z0.522
N18710 X-3.209 Z0.6
N18720 G0 Z2.3
N18730 X-3.188 Y79.515
N18740 G1 Z0.5 F75
N18750 X-3.181 Z0.422 F43
N18760 X-3.158 Y79.516 Z0.347
N18770 X-3.121 Y79.517 Z0.278
N18780 X-3.071 Y79.518 Z0.217
N18790 X-3.011 Y79.52 Z0.167
N18800 X-2.941 Y79.522 Z0.13
N18810 X-2.866 Y79.524 Z0.108
N18820 X-2.788 Y79.526 Z0.1
N18830 X-2.389 Y79.536
N18840 G3 X-1.999 Y79.947 I-0.011 J0.4
N18850 G1 X-2 Y80 F800
N18860 Y130
N18870 G2 X0 Y132 I2 J0
N18880 G1 X160
N18890 G2 X162 Y130 I0 J-2
N18900 G1 Y80
N18910 G2 X160 Y78 I-2 J0
N18920 G1 X0
N18930 G2 X-1.999 Y79.947 I0 J2
N18940 G3 X-2.41 Y80.336 I-0.4 J-0.011
N18950 G1 X-2.81 Y80.325
N18960 X-2.888 Y80.323 Z0.108
N18970 X-2.963 Y80.321 Z0.13
N18980 X-3.032 Y80.32 Z0.167
N18990 X-3.092 Y80.318 Z0.217
N19000 X-3.142 Y80.317 Z0.278
N19010 X-3.179 Y80.316 Z0.347
N19020 X-3.202 Y80.315 Z0.422
N19030 X-3.209 Z0.5
N19040 G0 Z2.3
N19050 X-3.188 Y79.515
N19060 G1 Z0.4 F75
N19070 X-3.181 Z0.322 F43
N19080 X-3.158 Y79.516 Z0.247
N19090 X-3.121 Y79.517 Z0.178
N19100 X-3.071 Y79.518 Z0.117
N19110 X-3.011 Y79.52 Z0.067
N19120 X-2.941 Y79.522 Z0.03
N19130 X-2.866 Y79.524 Z0.008
N19140 X-2.788 Y79.526 Z0
N19150 X-2.389 Y79.536
N19160 G3 X-1.999 Y79.947 I-0.011 J0.4
N19170 G1 X-2 Y80 F800
N19180 Y130
N19190 G2 X0 Y132 I2 J0
N19200 G1 X160
N19210 G2 X162 Y130 I0 J-2
N19220 G1 Y80
N19230 G2 X160 Y78 I-2 J0
N19240 G1 X0
N19250 G2 X-1.999 Y79.947 I0 J2
N19260 G3 X-2.41 Y80.336 I-0.4 J-0.011
N19270 G1 X-2.81 Y80.325
N19280 X-2.888 Y80.323 Z0.008
N19290 X-2.963 Y80.321 Z0.03
N19300 X-3.032 Y80.32 Z0.067
N19310 X-3.092 Y80.318 Z0.117
N19320 X-3.142 Y80.317 Z0.178
N19330 X-3.179 Y80.316 Z0.247
N19340 X-3.202 Y80.315 Z0.322
N19350 X-3.209 Z0.4
N19360 G0 Z2.3
N19370 X-3.188 Y79.515
N19380 G1 Z0.3 F75
N19390 X-3.181 Z0.222 F43
N19400 X-3.158 Y79.516 Z0.147
N19410 X-3.121 Y79.517 Z0.078
N19420 X-3.071 Y79.518 Z0.017
N19430 X-3.011 Y79.52 Z-0.033
N19440 X-2.941 Y79.522 Z-0.07
N19450 X-2.866 Y79.524 Z-0.092
N19460 X-2.788 Y79.526 Z-0.1
N19470 X-2.389 Y79.536
N19480 G3 X-1.999 Y79.947 I-0.011 J0.4
N19490 G1 X-2 Y80 F800
N19500 Y130
N19510 G2 X0 Y132 I2 J0
N19520 G1 X160
N19530 G2 X162 Y130 I0 J-2
N19540 G1 Y80
N19550 G2 X160 Y78 I-2 J0
N19560 G1 X0
N19570 G2 X-1.999 Y79.947 I0 J2
N19580 G3 X-2.41 Y80.336 I-0.4 J-0.011
N19590 G1 X-2.81 Y80.325
N19600 X-2.888 Y80.323 Z-0.092
N19610 X-2.963 Y80.321 Z-0.07
N19620 X-3.032 Y80.32 Z-0.033
N19630 X-3.092 Y80.318 Z0.017
N19640 X-3.142 Y80.317 Z0.078
N19650 X-3.179 Y80.316 Z0.147
N19660 X-3.202 Y80.315 Z0.222
N19670 X-3.209 Z0.3
N19680 G0 Z2.3
N19690 X-3.188 Y79.515
N19700 G1 Z0.2 F75
N19710 X-3.181 Z0.122 F43
N19720 X-3.158 Y79.516 Z0.047
N19730 X-3.121 Y79.517 Z-0.022
N19740 X-3.071 Y79.518 Z-0.083
N19750 X-3.011 Y79.52 Z-0.133
N19760 X-2.941 Y79.522 Z-0.17
N19770 X-2.866 Y79.524 Z-0.192
N19780 X-2.788 Y79.526 Z-0.2
N19790 X-2.389 Y79.536
N19800 G3 X-1.999 Y79.947 I-0.011 J0.4
N19810 G1 X-2 Y80 F800
N19820 Y130
N19830 G2 X0 Y132 I2 J0
N19840 G1 X160
N19850 G2 X162 Y130 I0 J-2
N19860 G1 Y80
N19870 G2 X160 Y78 I-2 J0
N19880 G1 X0
N19890 G2 X-1.999 Y79.947 I0 J2
N19900 G3 X-2.41 Y80.336 I-0.4 J-0.011
N19910 G1 X-2.81 Y80.325
N19920 X-2.888 Y80.323 Z-0.192
N19930 X-2.963 Y80.321 Z-0.17
N19940 X-3.032 Y80.32 Z-0.133
N19950 X-3.092 Y80.318 Z-0.083
N19960 X-3.142 Y80.317 Z-0.022
N19970 X-3.179 Y80.316 Z0.047
N19980 X-3.202 Y80.315 Z0.122
N19990 X-3.209 Z0.2
N20000 G0 Z2.3
N20010 X-3.188 Y79.515
N20020 G1 Z0.1 F75
N20030 X-3.181 Z0.022 F43
N20040 X-3.158 Y79.516 Z-0.053
N20050 X-3.121 Y79.517 Z-0.122
N20060 X-3.071 Y79.518 Z-0.183
N20070 X-3.011 Y79.52 Z-0.233
N20080 X-2.941 Y79.522 Z-0.27
N20090 X-2.866 Y79.524 Z-0.292
N20100 X-2.788 Y79.526 Z-0.3
N20110 X-2.389 Y79.536
N20120 G3 X-1.999 Y79.947 I-0.011 J0.4
N20130 G1 X-2 Y80 F800
N20140 Y130
N20150 G2 X0 Y132 I2 J0
N20160 G1 X160
N20170 G2 X162 Y130 I0 J-2
N20180 G1 Y80
N20190 G2 X160 Y78 I-2 J0
N20200 G1 X0
N20210 G2 X-1.999 Y79.947 I0 J2
N20220 G3 X-2.41 Y80.336 I-0.4 J-0.011
N20230 G1 X-2.81 Y80.325
N20240 X-2.888 Y80.323 Z-0.292
N20250 X-2.963 Y80.321 Z-0.27
N20260 X-3.032 Y80.32 Z-0.233
N20270 X-3.092 Y80.318 Z-0.183
N20280 X-3.142 Y80.317 Z-0.122
N20290 X-3.179 Y80.316 Z-0.053
N20300 X-3.202 Y80.315 Z0.022
N20310 X-3.209 Z0.1
N20320 G0 Z2.3
N20330 X-3.188 Y79.515
N20340 G1 Z0 F75
N20350 X-3.181 Z-0.078 F43
N20360 X-3.158 Y79.516 Z-0.153
N20370 X-3.121 Y79.517 Z-0.222
N20380 X-3.071 Y79.518 Z-0.283
N20390 X-3.011 Y79.52 Z-0.333
N20400 X-2.941 Y79.522 Z-0.37
N20410 X-2.866 Y79.524 Z-0.392
N20420 X-2.788 Y79.526 Z-0.4
N20430 X-2.389 Y79.536
N20440 G3 X-1.999 Y79.947 I-0.011 J0.4
N20450 G1 X-2 Y80 F800
N20460 Y130
N20470 G2 X0 Y132 I2 J0
N20480 G1 X160
N20490 G2 X162 Y130 I0 J-2
N20500 G1 Y80
N20510 G2 X160 Y78 I-2 J0
N20520 G1 X0
N20530 G2 X-1.999 Y79.947 I0 J2
N20540 G3 X-2.41 Y80.336 I-0.4 J-0.011
N20550 G1 X-2.81 Y80.325
N20560 X-2.888 Y80.323 Z-0.392
N20570 X-2.963 Y80.321 Z-0.37
N20580 X-3.032 Y80.32 Z-0.333
N20590 X-3.092 Y80.318 Z-0.283
N20600 X-3.142 Y80.317 Z-0.222
N20610 X-3.179 Y80.316 Z-0.153
N20620 X-3.202 Y80.315 Z-0.078
N20630 X-3.209 Z0
N20640 G0 Z2.3
N20650 X-3.188 Y79.515
N20660 G1 Z-0.1 F75
N20670 X-3.181 Z-0.178 F43
N20680 X-3.158 Y79.516 Z-0.253
N20690 X-3.121 Y79.517 Z-0.322
N20700 X-3.071 Y79.518 Z-0.383
N20710 X-3.011 Y79.52 Z-0.433
N20720 X-2.941 Y79.522 Z-0.47
N20730 X-2.866 Y79.524 Z-0.492
N20740 X-2.788 Y79.526 Z-0.5
N20750 X-2.389 Y79.536
N20760 G3 X-1.999 Y79.947 I-0.011 J0.4
N20770 G1 X-2 Y80 F800
N20780 Y130
N20790 G2 X0 Y132 I2 J0
N20800 G1 X160
N20810 G2 X162 Y130 I0 J-2
N20820 G1 Y80
N20830 G2 X160 Y78 I-2 J0
N20840 G1 X0
N20850 G2 X-1.999 Y79.947 I0 J2
N20860 G3 X-2.41 Y80.336 I-0.4 J-0.011
N20870 G1 X-2.81 Y80.325
N20880 X-2.888 Y80.323 Z-0.492
N20890 X-2.963 Y80.321 Z-0.47
N20900 X-3.032 Y80.32 Z-0.433
N20910 X-3.092 Y80.318 Z-0.383
N20920 X-3.142 Y80.317 Z-0.322
N20930 X-3.179 Y80.316 Z-0.253
N20940 X-3.202 Y80.315 Z-0.178
N20950 X-3.209 Z-0.1
N20960 G0 Z2.3
N20970 X-3.188 Y79.515
N20980 G1 Z-0.2 F75
N20990 X-3.181 Z-0.278 F43
N21000 X-3.158 Y79.516 Z-0.353
N21010 X-3.121 Y79.517 Z-0.422
N21020 X-3.071 Y79.518 Z-0.483
N21030 X-3.011 Y79.52 Z-0.533
N21040 X-2.941 Y79.522 Z-0.57
N21050 X-2.866 Y79.524 Z-0.592
N21060 X-2.788 Y79.526 Z-0.6
N21070 X-2.389 Y79.536
N21080 G3 X-1.999 Y79.947 I-0.011 J0.4
N21090 G1 X-2 Y80 F800
N21100 Y130
N21110 G2 X0 Y132 I2 J0
N21120 G1 X160
N21130 G2 X162 Y130 I0 J-2
N21140 G1 Y80
N21150 G2 X160 Y78 I-2 J0
N21160 G1 X0
N21170 G2 X-1.999 Y79.947 I0 J2
N21180 G3 X-2.41 Y80.336 I-0.4 J-0.011
N21190 G1 X-2.81 Y80.325
N21200 X-2.888 Y80.323 Z-0.592
N21210 X-2.963 Y80.321 Z-0.57
N21220 X-3.032 Y80.32 Z-0.533
N21230 X-3.092 Y80.318 Z-0.483
N21240 X-3.142 Y80.317 Z-0.422
N21250 X-3.179 Y80.316 Z-0.353
N21260 X-3.202 Y80.315 Z-0.278
N21270 X-3.209 Z-0.2
N21280 G0 Z2.3
N21290 X-3.188 Y79.515
N21300 G1 Z-0.3 F75
N21310 X-3.181 Z-0.378 F43
N21320 X-3.158 Y79.516 Z-0.453
N21330 X-3.121 Y79.517 Z-0.522
N21340 X-3.071 Y79.518 Z-0.583
N21350 X-3.011 Y79.52 Z-0.633
N21360 X-2.941 Y79.522 Z-0.67
N21370 X-2.866 Y79.524 Z-0.692
N21380 X-2.788 Y79.526 Z-0.7
N21390 X-2.389 Y79.536
N21400 G3 X-1.999 Y79.947 I-0.011 J0.4
N21410 G1 X-2 Y80 F800
N21420 Y130
N21430 G2 X0 Y132 I2 J0
N21440 G1 X160
N21450 G2 X162 Y130 I0 J-2
N21460 G1 Y80
N21470 G2 X160 Y78 I-2 J0
N21480 G1 X0
N21490 G2 X-1.999 Y79.947 I0 J2
N21500 G3 X-2.41 Y80.336 I-0.4 J-0.011
N21510 G1 X-2.81 Y80.325
N21520 X-2.888 Y80.323 Z-0.692
N21530 X-2.963 Y80.321 Z-0.67
N21540 X-3.032 Y80.32 Z-0.633
N21550 X-3.092 Y80.318 Z-0.583
N21560 X-3.142 Y80.317 Z-0.522
N21570 X-3.179 Y80.316 Z-0.453
N21580 X-3.202 Y80.315 Z-0.378
N21590 X-3.209 Z-0.3
N21600 G0 Z2.3
N21610 X-3.188 Y79.515
N21620 G1 Z-0.4 F75
N21630 X-3.181 Z-0.478 F43
N21640 X-3.158 Y79.516 Z-0.553
N21650 X-3.121 Y79.517 Z-0.622
N21660 X-3.071 Y79.518 Z-0.683
N21670 X-3.011 Y79.52 Z-0.733
N21680 X-2.941 Y79.522 Z-0.77
N21690 X-2.866 Y79.524 Z-0.792
N21700 X-2.788 Y79.526 Z-0.8
N21710 X-2.389 Y79.536
N21720 G3 X-1.999 Y79.947 I-0.011 J0.4
N21730 G1 X-2 Y80 F800
N21740 Y130
N21750 G2 X0 Y132 I2 J0
N21760 G1 X160
N21770 G2 X162 Y130 I0 J-2
N21780 G1 Y80
N21790 G2 X160 Y78 I-2 J0
N21800 G1 X0
N21810 G2 X-1.999 Y79.947 I0 J2
N21820 G3 X-2.41 Y80.336 I-0.4 J-0.011
N21830 G1 X-2.81 Y80.325
N21840 X-2.888 Y80.323 Z-0.792
N21850 X-2.963 Y80.321 Z-0.77
N21860 X-3.032 Y80.32 Z-0.733
N21870 X-3.092 Y80.318 Z-0.683
N21880 X-3.142 Y80.317 Z-0.622
N21890 X-3.179 Y80.316 Z-0.553
N21900 X-3.202 Y80.315 Z-0.478
N21910 X-3.209 Z-0.4
N21920 G0 Z2.3
N21930 X-3.188 Y79.515
N21940 G1 Z-0.5 F75
N21950 X-3.181 Z-0.578 F43
N21960 X-3.158 Y79.516 Z-0.653
N21970 X-3.121 Y79.517 Z-0.722
N21980 X-3.071 Y79.518 Z-0.783
N21990 X-3.011 Y79.52 Z-0.833
N22000 X-2.941 Y79.522 Z-0.87
N22010 X-2.866 Y79.524 Z-0.892
N22020 X-2.788 Y79.526 Z-0.9
N22030 X-2.389 Y79.536
N22040 G3 X-1.999 Y79.947 I-0.011 J0.4
N22050 G1 X-2 Y80 F800
N22060 Y130
N22070 G2 X0 Y132 I2 J0
N22080 G1 X160
N22090 G2 X162 Y130 I0 J-2
N22100 G1 Y80
N22110 G2 X160 Y78 I-2 J0
N22120 G1 X0
N22130 G2 X-1.999 Y79.947 I0 J2
N22140 G3 X-2.41 Y80.336 I-0.4 J-0.011
N22150 G1 X-2.81 Y80.325
N22160 X-2.888 Y80.323 Z-0.892
N22170 X-2.963 Y80.321 Z-0.87
N22180 X-3.032 Y80.32 Z-0.833
N22190 X-3.092 Y80.318 Z-0.783
N22200 X-3.142 Y80.317 Z-0.722
N22210 X-3.179 Y80.316 Z-0.653
N22220 X-3.202 Y80.315 Z-0.578
N22230 X-3.209 Z-0.5
N22240 G0 Z2.3
N22250 X-3.188 Y79.515
N22260 G1 Z-0.6 F75
N22270 X-3.181 Z-0.678 F43
N22280 X-3.158 Y79.516 Z-0.753
N22290 X-3.121 Y79.517 Z-0.822
N22300 X-3.071 Y79.518 Z-0.883
N22310 X-3.011 Y79.52 Z-0.933
N22320 X-2.941 Y79.522 Z-0.97
N22330 X-2.866 Y79.524 Z-0.992
N22340 X-2.788 Y79.526 Z-1
N22350 X-2.389 Y79.536
N22360 G3 X-1.999 Y79.947 I-0.011 J0.4
N22370 G1 X-2 Y80 F800
N22380 Y130
N22390 G2 X0 Y132 I2 J0
N22400 G1 X160
N22410 G2 X162 Y130 I0 J-2
N22420 G1 Y80
N22430 G2 X160 Y78 I-2 J0
N22440 G1 X0
N22450 G2 X-1.999 Y79.947 I0 J2
N22460 G3 X-2.41 Y80.336 I-0.4 J-0.011
N22470 G1 X-2.81 Y80.325
N22480 X-2.888 Y80.323 Z-0.992
N22490 X-2.963 Y80.321 Z-0.97
N22500 X-3.032 Y80.32 Z-0.933
N22510 X-3.092 Y80.318 Z-0.883
N22520 X-3.142 Y80.317 Z-0.822
N22530 X-3.179 Y80.316 Z-0.753
N22540 X-3.202 Y80.315 Z-0.678
N22550 X-3.209 Z-0.6
N22560 G0 Z2.3
N22570 X-3.188 Y79.515
N22580 G1 Z-0.7 F75
N22590 X-3.181 Z-0.778 F43
N22600 X-3.158 Y79.516 Z-0.853
N22610 X-3.121 Y79.517 Z-0.922
N22620 X-3.071 Y79.518 Z-0.983
N22630 X-3.011 Y79.52 Z-1.033
N22640 X-2.941 Y79.522 Z-1.07
N22650 X-2.866 Y79.524 Z-1.092
N22660 X-2.788 Y79.526 Z-1.1
N22670 X-2.389 Y79.536
N22680 G3 X-1.999 Y79.947 I-0.011 J0.4
N22690 G1 X-2 Y80 F800
N22700 Y130
N22710 G2 X0 Y132 I2 J0
N22720 G1 X160
N22730 G2 X162 Y130 I0 J-2
N22740 G1 Y80
N22750 G2 X160 Y78 I-2 J0
N22760 G1 X0
N22770 G2 X-1.999 Y79.947 I0 J2
N22780 G3 X-2.41 Y80.336 I-0.4 J-0.011
N22790 G1 X-2.81 Y80.325
N22800 X-2.888 Y80.323 Z-1.092
N22810 X-2.963 Y80.321 Z-1.07
N22820 X-3.032 Y80.32 Z-1.033
N22830 X-3.092 Y80.318 Z-0.983
N22840 X-3.142 Y80.317 Z-0.922
N22850 X-3.179 Y80.316 Z-0.853
N22860 X-3.202 Y80.315 Z-0.778
N22870 X-3.209 Z-0.7
N22880 G0 Z2.3
N22890 X-3.188 Y79.515
N22900 G1 Z-0.8 F75
N22910 X-3.181 Z-0.878 F43
N22920 X-3.158 Y79.516 Z-0.953
N22930 X-3.121 Y79.517 Z-1.022
N22940 X-3.071 Y79.518 Z-1.083
N22950 X-3.011 Y79.52 Z-1.133
N22960 X-2.941 Y79.522 Z-1.17
N22970 X-2.866 Y79.524 Z-1.192
N22980 X-2.788 Y79.526 Z-1.2
N22990 X-2.389 Y79.536
N23000 G3 X-1.999 Y79.947 I-0.011 J0.4
N23010 G1 X-2 Y80 F800
N23020 Y130
N23030 G2 X0 Y132 I2 J0
N23040 G1 X160
N23050 G2 X162 Y130 I0 J-2
N23060 G1 Y80
N23070 G2 X160 Y78 I-2 J0
N23080 G1 X0
N23090 G2 X-1.999 Y79.947 I0 J2
N23100 G3 X-2.41 Y80.336 I-0.4 J-0.011
N23110 G1 X-2.81 Y80.325
N23120 X-2.888 Y80.323 Z-1.192
N23130 X-2.963 Y80.321 Z-1.17
N23140 X-3.032 Y80.32 Z-1.133
N23150 X-3.092 Y80.318 Z-1.083
N23160 X-3.142 Y80.317 Z-1.022
N23170 X-3.179 Y80.316 Z-0.953
N23180 X-3.202 Y80.315 Z-0.878
N23190 X-3.209 Z-0.8
N23200 G0 Z2.3
N23210 X-3.188 Y79.515
N23220 G1 Z-0.9 F75
N23230 X-3.181 Z-0.978 F43
N23240 X-3.158 Y79.516 Z-1.053
N23250 X-3.121 Y79.517 Z-1.122
N23260 X-3.071 Y79.518 Z-1.183
N23270 X-3.011 Y79.52 Z-1.233
N23280 X-2.941 Y79.522 Z-1.27
N23290 X-2.866 Y79.524 Z-1.292
N23300 X-2.788 Y79.526 Z-1.3
N23310 X-2.389 Y79.536
N23320 G3 X-1.999 Y79.947 I-0.011 J0.4
N23330 G1 X-2 Y80 F800
N23340 Y130
N23350 G2 X0 Y132 I2 J0
N23360 G1 X160
N23370 G2 X162 Y130 I0 J-2
N23380 G1 Y80
N23390 G2 X160 Y78 I-2 J0
N23400 G1 X0
N23410 G2 X-1.999 Y79.947 I0 J2
N23420 G3 X-2.41 Y80.336 I-0.4 J-0.011
N23430 G1 X-2.81 Y80.325
N23440 X-2.888 Y80.323 Z-1.292
N23450 X-2.963 Y80.321 Z-1.27
N23460 X-3.032 Y80.32 Z-1.233
N23470 X-3.092 Y80.318 Z-1.183
N23480 X-3.142 Y80.317 Z-1.122
N23490 X-3.179 Y80.316 Z-1.053
N23500 X-3.202 Y80.315 Z-0.978
N23510 X-3.209 Z-0.9
N23520 G0 Z2.3
N23530 X-3.188 Y79.515
N23540 G1 Z-1 F75
N23550 X-3.181 Z-1.078 F43
N23560 X-3.158 Y79.516 Z-1.153
N23570 X-3.121 Y79.517 Z-1.222
N23580 X-3.071 Y79.518 Z-1.283
N23590 X-3.011 Y79.52 Z-1.333
N23600 X-2.941 Y79.522 Z-1.37
N23610 X-2.866 Y79.524 Z-1.392
N23620 X-2.788 Y79.526 Z-1.4
N23630 X-2.389 Y79.536
N23640 G3 X-1.999 Y79.947 I-0.011 J0.4
N23650 G1 X-2 Y80 F800
N23660 Y130
N23670 G2 X0 Y132 I2 J0
N23680 G1 X160
N23690 G2 X162 Y130 I0 J-2
N23700 G1 Y80
N23710 G2 X160 Y78 I-2 J0
N23720 G1 X0
N23730 G2 X-1.999 Y79.947 I0 J2
N23740 G3 X-2.41 Y80.336 I-0.4 J-0.011
N23750 G1 X-2.81 Y80.325
N23760 X-2.888 Y80.323 Z-1.392
N23770 X-2.963 Y80.321 Z-1.37
N23780 X-3.032 Y80.32 Z-1.333
N23790 X-3.092 Y80.318 Z-1.283
N23800 X-3.142 Y80.317 Z-1.222
N23810 X-3.179 Y80.316 Z-1.153
N23820 X-3.202 Y80.315 Z-1.078
N23830 X-3.209 Z-1
N23840 G0 Z2.3
N23850 X-3.188 Y79.515
N23860 G1 Z-1.1 F75
N23870 X-3.181 Z-1.178 F43
N23880 X-3.158 Y79.516 Z-1.253
N23890 X-3.121 Y79.517 Z-1.322
N23900 X-3.071 Y79.518 Z-1.383
N23910 X-3.011 Y79.52 Z-1.433
N23920 X-2.941 Y79.522 Z-1.47
N23930 X-2.866 Y79.524 Z-1.492
N23940 X-2.788 Y79.526 Z-1.5
N23950 X-2.389 Y79.536
N23960 G3 X-1.999 Y79.947 I-0.011 J0.4
N23970 G1 X-2 Y80 F800
N23980 Y130
N23990 G2 X0 Y132 I2 J0
N24000 G1 X160
N24010 G2 X162 Y130 I0 J-2
N24020 G1 Y80
N24030 G2 X160 Y78 I-2 J0
N24040 G1 X0
N24050 G2 X-1.999 Y79.947 I0 J2
N24060 G3 X-2.41 Y80.336 I-0.4 J-0.011
N24070 G1 X-2.81 Y80.325
N24080 X-2.888 Y80.323 Z-1.492
N24090 X-2.963 Y80.321 Z-1.47
N24100 X-3.032 Y80.32 Z-1.433
N24110 X-3.092 Y80.318 Z-1.383
N24120 X-3.142 Y80.317 Z-1.322
N24130 X-3.179 Y80.316 Z-1.253
N24140 X-3.202 Y80.315 Z-1.178
N24150 X-3.209 Z-1.1
N24160 G0 Z2.3
N24170 X-3.188 Y79.515
N24180 G1 Z-1.2 F75
N24190 X-3.181 Z-1.278 F43
N24200 X-3.158 Y79.516 Z-1.353
N24210 X-3.121 Y79.517 Z-1.422
N24220 X-3.071 Y79.518 Z-1.483
N24230 X-3.011 Y79.52 Z-1.533
N24240 X-2.941 Y79.522 Z-1.57
N24250 X-2.866 Y79.524 Z-1.592
N24260 X-2.788 Y79.526 Z-1.6
N24270 X-2.389 Y79.536
N24280 G3 X-1.999 Y79.947 I-0.011 J0.4
N24290 G1 X-2 Y80 F800
N24300 Y130
N24310 G2 X0 Y132 I2 J0
N24320 G1 X160
N24330 G2 X162 Y130 I0 J-2
N24340 G1 Y80
N24350 G2 X160 Y78 I-2 J0
N24360 G1 X0
N24370 G2 X-1.999 Y79.947 I0 J2
N24380 G3 X-2.41 Y80.336 I-0.4 J-0.011
N24390 G1 X-2.81 Y80.325
N24400 X-2.888 Y80.323 Z-1.592
N24410 X-2.963 Y80.321 Z-1.57
N24420 X-3.032 Y80.32 Z-1.533
N24430 X-3.092 Y80.318 Z-1.483
N24440 X-3.142 Y80.317 Z-1.422
N24450 X-3.179 Y80.316 Z-1.353
N24460 X-3.202 Y80.315 Z-1.278
N24470 X-3.209 Z-1.2
N24480 G0 Z2.3
N24490 X-3.188 Y79.515
N24500 G1 Z-1.3 F75
N24510 X-3.181 Z-1.378 F43
N24520 X-3.158 Y79.516 Z-1.453
N24530 X-3.121 Y79.517 Z-1.522
N24540 X-3.071 Y79.518 Z-1.583
N24550 X-3.011 Y79.52 Z-1.633
N24560 X-2.941 Y79.522 Z-1.67
N24570 X-2.866 Y79.524 Z-1.692
N24580 X-2.788 Y79.526 Z-1.7
N24590 X-2.389 Y79.536
N24600 G3 X-1.999 Y79.947 I-0.011 J0.4
N24610 G1 X-2 Y80 F800
N24620 Y130
N24630 G2 X0 Y132 I2 J0
N24640 G1 X160
N24650 G2 X162 Y130 I0 J-2
N24660 G1 Y80
N24670 G2 X160 Y78 I-2 J0
N24680 G1 X0
N24690 G2 X-1.999 Y79.947 I0 J2
N24700 G3 X-2.41 Y80.336 I-0.4 J-0.011
N24710 G1 X-2.81 Y80.325
N24720 X-2.888 Y80.323 Z-1.692
N24730 X-2.963 Y80.321 Z-1.67
N24740 X-3.032 Y80.32 Z-1.633
N24750 X-3.092 Y80.318 Z-1.583
N24760 X-3.142 Y80.317 Z-1.522
N24770 X-3.179 Y80.316 Z-1.453
N24780 X-3.202 Y80.315 Z-1.378
N24790 X-3.209 Z-1.3
N24800 G0 Z2.3
N24810 X-3.188 Y79.515
N24820 G1 Z-1.4 F75
N24830 X-3.181 Z-1.478 F43
N24840 X-3.158 Y79.516 Z-1.553
N24850 X-3.121 Y79.517 Z-1.622
N24860 X-3.071 Y79.518 Z-1.683
N24870 X-3.011 Y79.52 Z-1.733
N24880 X-2.941 Y79.522 Z-1.77
N24890 X-2.866 Y79.524 Z-1.792
N24900 X-2.788 Y79.526 Z-1.8
N24910 X-2.389 Y79.536
N24920 G3 X-1.999 Y79.947 I-0.011 J0.4
N24930 G1 X-2 Y80 F800
N24940 Y130
N24950 G2 X0 Y132 I2 J0
N24960 G1 X160
N24970 G2 X162 Y130 I0 J-2
N24980 G1 Y80
N24990 G2 X160 Y78 I-2 J0
N25000 G1 X0
N25010 G2 X-1.999 Y79.947 I0 J2
N25020 G3 X-2.41 Y80.336 I-0.4 J-0.011
N25030 G1 X-2.81 Y80.325
N25040 X-2.888 Y80.323 Z-1.792
N25050 X-2.963 Y80.321 Z-1.77
N25060 X-3.032 Y80.32 Z-1.733
N25070 X-3.092 Y80.318 Z-1.683
N25080 X-3.142 Y80.317 Z-1.622
N25090 X-3.179 Y80.316 Z-1.553
N25100 X-3.202 Y80.315 Z-1.478
N25110 X-3.209 Z-1.4
N25120 G0 Z2.3
N25130 X-3.188 Y79.515
N25140 G1 Z-1.5 F75
N25150 X-3.181 Z-1.578 F43
N25160 X-3.158 Y79.516 Z-1.653
N25170 X-3.121 Y79.517 Z-1.722
N25180 X-3.071 Y79.518 Z-1.783
N25190 X-3.011 Y79.52 Z-1.833
N25200 X-2.941 Y79.522 Z-1.87
N25210 X-2.866 Y79.524 Z-1.892
N25220 X-2.788 Y79.526 Z-1.9
N25230 X-2.389 Y79.536
N25240 G3 X-1.999 Y79.947 I-0.011 J0.4
N25250 G1 X-2 Y80 F800
N25260 Y130
N25270 G2 X0 Y132 I2 J0
N25280 G1 X160
N25290 G2 X162 Y130 I0 J-2
N25300 G1 Y80
N25310 G2 X160 Y78 I-2 J0
N25320 G1 X0
N25330 G2 X-1.999 Y79.947 I0 J2
N25340 G3 X-2.41 Y80.336 I-0.4 J-0.011
N25350 G1 X-2.81 Y80.325
N25360 X-2.888 Y80.323 Z-1.892
N25370 X-2.963 Y80.321 Z-1.87
N25380 X-3.032 Y80.32 Z-1.833
N25390 X-3.092 Y80.318 Z-1.783
N25400 X-3.142 Y80.317 Z-1.722
N25410 X-3.179 Y80.316 Z-1.653
N25420 X-3.202 Y80.315 Z-1.578
N25430 X-3.209 Z-1.5
N25440 G0 Z2.3
N25450 X-3.188 Y79.515
N25460 G1 Z-1.6 F75
N25470 X-3.181 Z-1.678 F43
N25480 X-3.158 Y79.516 Z-1.753
N25490 X-3.121 Y79.517 Z-1.822
N25500 X-3.071 Y79.518 Z-1.883
N25510 X-3.011 Y79.52 Z-1.933
N25520 X-2.941 Y79.522 Z-1.97
N25530 X-2.866 Y79.524 Z-1.992
N25540 X-2.788 Y79.526 Z-2
N25550 X-2.389 Y79.536
N25560 G3 X-1.999 Y79.947 I-0.011 J0.4
N25570 G1 X-2 Y80 F800
N25580 Y130
N25590 G2 X0 Y132 I2 J0
N25600 G1 X160
N25610 G2 X162 Y130 I0 J-2
N25620 G1 Y80
N25630 G2 X160 Y78 I-2 J0
N25640 G1 X0
N25650 G2 X-1.999 Y79.947 I0 J2
N25660 G3 X-2.41 Y80.336 I-0.4 J-0.011
N25670 G1 X-2.81 Y80.325
N25680 X-2.888 Y80.323 Z-1.992
N25690 X-2.963 Y80.321 Z-1.97
N25700 X-3.032 Y80.32 Z-1.933
N25710 X-3.092 Y80.318 Z-1.883
N25720 X-3.142 Y80.317 Z-1.822
N25730 X-3.179 Y80.316 Z-1.753
N25740 X-3.202 Y80.315 Z-1.678
N25750 X-3.209 Z-1.6
N25760 G0 Z2.3
N25770 X-3.188 Y79.515
N25780 G1 Z-1.7 F75
N25790 X-3.181 Z-1.778 F43
N25800 X-3.158 Y79.516 Z-1.853
N25810 X-3.121 Y79.517 Z-1.922
N25820 X-3.071 Y79.518 Z-1.983
N25830 X-3.011 Y79.52 Z-2.033
N25840 X-2.941 Y79.522 Z-2.07
N25850 X-2.866 Y79.524 Z-2.092
N25860 X-2.788 Y79.526 Z-2.1
N25870 X-2.389 Y79.536
N25880 G3 X-1.999 Y79.947 I-0.011 J0.4
N25890 G1 X-2 Y80 F800
N25900 Y130
N25910 G2 X0 Y132 I2 J0
N25920 G1 X160
N25930 G2 X162 Y130 I0 J-2
N25940 G1 Y80
N25950 G2 X160 Y78 I-2 J0
N25960 G1 X0
N25970 G2 X-1.999 Y79.947 I0 J2
N25980 G3 X-2.41 Y80.336 I-0.4 J-0.011
N25990 G1 X-2.81 Y80.325
N26000 X-2.888 Y80.323 Z-2.092
N26010 X-2.963 Y80.321 Z-2.07
N26020 X-3.032 Y80.32 Z-2.033
N26030 X-3.092 Y80.318 Z-1.983
N26040 X-3.142 Y80.317 Z-1.922
N26050 X-3.179 Y80.316 Z-1.853
N26060 X-3.202 Y80.315 Z-1.778
N26070 X-3.209 Z-1.7
N26080 G0 Z2.3
N26090 X-3.188 Y79.515
N26100 G1 Z-1.8 F75
N26110 X-3.181 Z-1.878 F43
N26120 X-3.158 Y79.516 Z-1.953
N26130 X-3.121 Y79.517 Z-2.022
N26140 X-3.071 Y79.518 Z-2.083
N26150 X-3.011 Y79.52 Z-2.133
N26160 X-2.941 Y79.522 Z-2.17
N26170 X-2.866 Y79.524 Z-2.192
N26180 X-2.788 Y79.526 Z-2.2
N26190 X-2.389 Y79.536
N26200 G3 X-1.999 Y79.947 I-0.011 J0.4
N26210 G1 X-2 Y80 F800
N26220 Y130
N26230 G2 X0 Y132 I2 J0
N26240 G1 X160
N26250 G2 X162 Y130 I0 J-2
N26260 G1 Y80
N26270 G2 X160 Y78 I-2 J0
N26280 G1 X0
N26290 G2 X-1.999 Y79.947 I0 J2
N26300 G3 X-2.41 Y80.336 I-0.4 J-0.011
N26310 G1 X-2.81 Y80.325
N26320 X-2.888 Y80.323 Z-2.192
N26330 X-2.963 Y80.321 Z-2.17
N26340 X-3.032 Y80.32 Z-2.133
N26350 X-3.092 Y80.318 Z-2.083
N26360 X-3.142 Y80.317 Z-2.022
N26370 X-3.179 Y80.316 Z-1.953
N26380 X-3.202 Y80.315 Z-1.878
N26390 X-3.209 Z-1.8
N26400 G0 Z2.3
N26410 X-3.188 Y79.515
N26420 G1 Z-1.9 F75
N26430 X-3.181 Z-1.978 F43
N26440 X-3.158 Y79.516 Z-2.053
N26450 X-3.121 Y79.517 Z-2.122
N26460 X-3.071 Y79.518 Z-2.183
N26470 X-3.011 Y79.52 Z-2.233
N26480 X-2.941 Y79.522 Z-2.27
N26490 X-2.866 Y79.524 Z-2.292
N26500 X-2.788 Y79.526 Z-2.3
N26510 X-2.389 Y79.536
N26520 G3 X-1.999 Y79.947 I-0.011 J0.4
N26530 G1 X-2 Y80 F800
N26540 Y130
N26550 G2 X0 Y132 I2 J0
N26560 G1 X37.15
N26570 X37.95 F200
N26580 X38 Z-2.2 F800
N26590 X42
N26600 X42.05 Z-2.3 F75
N26610 X117.15 F800
N26620 X117.95 F200
N26630 X118 Z-2.2 F800
N26640 X122
N26650 X122.05 Z-2.3 F75
N26660 X160 F800
N26670 G2 X162 Y130 I0 J-2
N26680 G1 Y80
N26690 G2 X160 Y78 I-2 J0
N26700 G1 X122.85
N26710 X122.05 F200
N26720 X122 Z-2.2 F800
N26730 X118
N26740 X117.95 Z-2.3 F75
N26750 X42.85 F800
N26760 X42.05 F200
N26770 X42 Z-2.2 F800
N26780 X38
N26790 X37.95 Z-2.3 F75
N26800 X0 F800
N26810 G2 X-1.999 Y79.947 I0 J2
N26820 G3 X-2.41 Y80.336 I-0.4 J-0.011
N26830 G1 X-2.81 Y80.325
N26840 X-2.888 Y80.323 Z-2.292
N26850 X-2.963 Y80.321 Z-2.27
N26860 X-3.032 Y80.32 Z-2.233
N26870 X-3.092 Y80.318 Z-2.183
N26880 X-3.142 Y80.317 Z-2.122
N26890 X-3.179 Y80.316 Z-2.053
N26900 X-3.202 Y80.315 Z-1.978
N26910 X-3.209 Z-1.9
N26920 G0 Z2.3
N26930 X-3.188 Y79.515
N26940 G1 Z-2 F75
N26950 X-3.181 Z-2.078 F43
N26960 X-3.158 Y79.516 Z-2.153
N26970 X-3.121 Y79.517 Z-2.222
N26980 X-3.071 Y79.518 Z-2.283
N26990 X-3.011 Y79.52 Z-2.333
N27000 X-2.941 Y79.522 Z-2.37
N27010 X-2.866 Y79.524 Z-2.392
N27020 X-2.788 Y79.526 Z-2.4
N27030 X-2.389 Y79.536
N27040 G3 X-1.999 Y79.947 I-0.011 J0.4
N27050 G1 X-2 Y80 F800
N27060 Y130
N27070 G2 X0 Y132 I2 J0
N27080 G1 X37.1
N27090 X37.9 F200
N27100 X38 Z-2.2 F800
N27110 X42
N27120 X42.1 Z-2.4 F75
N27130 X117.1 F800
N27140 X117.9 F200
N27150 X118 Z-2.2 F800
N27160 X122
N27170 X122.1 Z-2.4 F75
N27180 X160 F800
N27190 G2 X162 Y130 I0 J-2
N27200 G1 Y80
N27210 G2 X160 Y78 I-2 J0
N27220 G1 X122.9
N27230 X122.1 F200
N27240 X122 Z-2.2 F800
N27250 X118
N27260 X117.9 Z-2.4 F75
N27270 X42.9 F800
N27280 X42.1 F200
N27290 X42 Z-2.2 F800
N27300 X38
N27310 X37.9 Z-2.4 F75
N27320 X0 F800
N27330 G2 X-1.999 Y79.947 I0 J2
N27340 G3 X-2.41 Y80.336 I-0.4 J-0.011
N27350 G1 X-2.81 Y80.325
N27360 X-2.888 Y80.323 Z-2.392
N27370 X-2.963 Y80.321 Z-2.37
N27380 X-3.032 Y80.32 Z-2.333
N27390 X-3.092 Y80.318 Z-2.283
N27400 X-3.142 Y80.317 Z-2.222
N27410 X-3.179 Y80.316 Z-2.153
N27420 X-3.202 Y80.315 Z-2.078
N27430 X-3.209 Z-2
N27440 G0 Z2.3
N27450 X-3.188 Y79.515
N27460 G1 Z-2.1 F75
N27470 X-3.181 Z-2.178 F43
N27480 X-3.158 Y79.516 Z-2.253
N27490 X-3.121 Y79.517 Z-2.322
N27500 X-3.071 Y79.518 Z-2.383
N27510 X-3.011 Y79.52 Z-2.433
N27520 X-2.941 Y79.522 Z-2.47
N27530 X-2.866 Y79.524 Z-2.492
N27540 X-2.788 Y79.526 Z-2.5
N27550 X-2.389 Y79.536
N27560 G3 X-1.999 Y79.947 I-0.011 J0.4
N27570 G1 X-2 Y80 F800
N27580 Y130
N27590 G2 X0 Y132 I2 J0
N27600 G1 X37.05
N27610 X37.85 F200
N27620 X38 Z-2.2 F800
N27630 X42
N27640 X42.15 Z-2.5 F75
N27650 X117.05 F800
N27660 X117.85 F200
N27670 X118 Z-2.2 F800
N27680 X122
N27690 X122.15 Z-2.5 F75
N27700 X160 F800
N27710 G2 X162 Y130 I0 J-2
N27720 G1 Y80
N27730 G2 X160 Y78 I-2 J0
N27740 G1 X122.95
N27750 X122.15 F200
N27760 X122 Z-2.2 F800
N27770 X118
N27780 X117.85 Z-2.5 F75
N27790 X42.95 F800
N27800 X42.15 F200
N27810 X42 Z-2.2 F800
N27820 X38
N27830 X37.85 Z-2.5 F75
N27840 X0 F800
N27850 G2 X-1.999 Y79.947 I0 J2
N27860 G3 X-2.41 Y80.336 I-0.4 J-0.011
N27870 G1 X-2.81 Y80.325
N27880 X-2.888 Y80.323 Z-2.492
N27890 X-2.963 Y80.321 Z-2.47
N27900 X-3.032 Y80.32 Z-2.433
N27910 X-3.092 Y80.318 Z-2.383
N27920 X-3.142 Y80.317 Z-2.322
N27930 X-3.179 Y80.316 Z-2.253
N27940 X-3.202 Y80.315 Z-2.178
N27950 X-3.209 Z-2.1
N27960 G0 Z2.3
N27970 X-3.188 Y79.515
N27980 G1 Z-2.2 F75
N27990 X-3.181 Z-2.278 F43
N28000 X-3.158 Y79.516 Z-2.353
N28010 X-3.121 Y79.517 Z-2.422
N28020 X-3.071 Y79.518 Z-2.483
N28030 X-3.011 Y79.52 Z-2.533
N28040 X-2.941 Y79.522 Z-2.57
N28050 X-2.866 Y79.524 Z-2.592
N28060 X-2.788 Y79.526 Z-2.6
N28070 X-2.389 Y79.536
N28080 G3 X-1.999 Y79.947 I-0.011 J0.4
N28090 G1 X-2 Y80 F800
N28100 Y130
N28110 G2 X0 Y132 I2 J0
N28120 G1 X37
N28130 X37.8 F200
N28140 X38 Z-2.2 F800
N28150 X42
N28160 X42.2 Z-2.6 F75
N28170 X117 F800
N28180 X117.8 F200
N28190 X118 Z-2.2 F800
N28200 X122
N28210 X122.2 Z-2.6 F75
N28220 X160 F800
N28230 G2 X162 Y130 I0 J-2
N28240 G1 Y80
N28250 G2 X160 Y78 I-2 J0
N28260 G1 X123
N28270 X122.2 F200
N28280 X122 Z-2.2 F800
N28290 X118
N28300 X117.8 Z-2.6 F75
N28310 X43 F800
N28320 X42.2 F200
N28330 X42 Z-2.2 F800
N28340 X38
N28350 X37.8 Z-2.6 F75
N28360 X0 F800
N28370 G2 X-1.999 Y79.947 I0 J2
N28380 G3 X-2.41 Y80.336 I-0.4 J-0.011
N28390 G1 X-2.81 Y80.325
N28400 X-2.888 Y80.323 Z-2.592
N28410 X-2.963 Y80.321 Z-2.57
N28420 X-3.032 Y80.32 Z-2.533
N28430 X-3.092 Y80.318 Z-2.483
N28440 X-3.142 Y80.317 Z-2.422
N28450 X-3.179 Y80.316 Z-2.353
N28460 X-3.202 Y80.315 Z-2.278
N28470 X-3.209 Z-2.2
N28480 G0 Z2.3
N28490 X-3.188 Y79.515
N28500 G1 Z-2.3 F75
N28510 X-3.181 Z-2.378 F43
N28520 X-3.158 Y79.516 Z-2.453
N28530 X-3.121 Y79.517 Z-2.522
N28540 X-3.071 Y79.518 Z-2.583
N28550 X-3.011 Y79.52 Z-2.633
N28560 X-2.941 Y79.522 Z-2.67
N28570 X-2.866 Y79.524 Z-2.692
N28580 X-2.788 Y79.526 Z-2.7
N28590 X-2.389 Y79.536
N28600 G3 X-1.999 Y79.947 I-0.011 J0.4
N28610 G1 X-2 Y80 F800
N28620 Y130
N28630 G2 X0 Y132 I2 J0
N28640 G1 X36.95
N28650 X37.75 F200
N28660 X38 Z-2.2 F800
N28670 X42
N28680 X42.25 Z-2.7 F75
N28690 X116.95 F800
N28700 X117.75 F200
N28710 X118 Z-2.2 F800
N28720 X122
N28730 X122.25 Z-2.7 F75
N28740 X160 F800
N28750 G2 X162 Y130 I0 J-2
N28760 G1 Y80
N28770 G2 X160 Y78 I-2 J0
N28780 G1 X123.05
N28790 X122.25 F200
N28800 X122 Z-2.2 F800
N28810 X118
N28820 X117.75 Z-2.7 F75
N28830 X43.05 F800
N28840 X42.25 F200
N28850 X42 Z-2.2 F800
N28860 X38
N28870 X37.75 Z-2.7 F75
N28880 X0 F800
N28890 G2 X-1.999 Y79.947 I0 J2
N28900 G3 X-2.41 Y80.336 I-0.4 J-0.011
N28910 G1 X-2.81 Y80.325
N28920 X-2.888 Y80.323 Z-2.692
N28930 X-2.963 Y80.321 Z-2.67
N28940 X-3.032 Y80.32 Z-2.633
N28950 X-3.092 Y80.318 Z-2.583
N28960 X-3.142 Y80.317 Z-2.522
N28970 X-3.179 Y80.316 Z-2.453
N28980 X-3.202 Y80.315 Z-2.378
N28990 X-3.209 Z-2.3
N29000 G0 Z2.3
N29010 X-3.188 Y79.515
N29020 G1 Z-2.4 F75
N29030 X-3.181 Z-2.478 F43
N29040 X-3.158 Y79.516 Z-2.553
N29050 X-3.121 Y79.517 Z-2.622
N29060 X-3.071 Y79.518 Z-2.683
N29070 X-3.011 Y79.52 Z-2.733
N29080 X-2.941 Y79.522 Z-2.77
N29090 X-2.866 Y79.524 Z-2.792
N29100 X-2.788 Y79.526 Z-2.8
N29110 X-2.389 Y79.536
N29120 G3 X-1.999 Y79.947 I-0.011 J0.4
N29130 G1 X-2 Y80 F800
N29140 Y130
N29150 G2 X0 Y132 I2 J0
N29160 G1 X36.9
N29170 X37.7 F200
N29180 X38 Z-2.2 F800
N29190 X42
N29200 X42.3 Z-2.8 F75
N29210 X116.9 F800
N29220 X117.7 F200
N29230 X118 Z-2.2 F800
N29240 X122
N29250 X122.3 Z-2.8 F75
N29260 X160 F800
N29270 G2 X162 Y130 I0 J-2
N29280 G1 Y80
N29290 G2 X160 Y78 I-2 J0
N29300 G1 X123.1
N29310 X122.3 F200
N29320 X122 Z-2.2 F800
N29330 X118
N29340 X117.7 Z-2.8 F75
N29350 X43.1 F800
N29360 X42.3 F200
N29370 X42 Z-2.2 F800
N29380 X38
N29390 X37.7 Z-2.8 F75
N29400 X0 F800
N29410 G2 X-1.999 Y79.947 I0 J2
N29420 G3 X-2.41 Y80.336 I-0.4 J-0.011
N29430 G1 X-2.81 Y80.325
N29440 X-2.888 Y80.323 Z-2.792
N29450 X-2.963 Y80.321 Z-2.77
N29460 X-3.032 Y80.32 Z-2.733
N29470 X-3.092 Y80.318 Z-2.683
N29480 X-3.142 Y80.317 Z-2.622
N29490 X-3.179 Y80.316 Z-2.553
N29500 X-3.202 Y80.315 Z-2.478
N29510 X-3.209 Z-2.4
N29520 G0 Z2.3
N29530 X-3.188 Y79.515
N29540 G1 Z-2.5 F75
N29550 X-3.181 Z-2.578 F43
N29560 X-3.158 Y79.516 Z-2.653
N29570 X-3.121 Y79.517 Z-2.722
N29580 X-3.071 Y79.518 Z-2.783
N29590 X-3.011 Y79.52 Z-2.833
N29600 X-2.941 Y79.522 Z-2.87
N29610 X-2.866 Y79.524 Z-2.892
N29620 X-2.788 Y79.526 Z-2.9
N29630 X-2.389 Y79.536
N29640 G3 X-1.999 Y79.947 I-0.011 J0.4
N29650 G1 X-2 Y80 F800
N29660 Y130
N29670 G2 X0 Y132 I2 J0
N29680 G1 X36.85
N29690 X37.65 F200
N29700 X38 Z-2.2 F800
N29710 X42
N29720 X42.35 Z-2.9 F75
N29730 X116.85 F800
N29740 X117.65 F200
N29750 X118 Z-2.2 F800
N29760 X122
N29770 X122.35 Z-2.9 F75
N29780 X160 F800
N29790 G2 X162 Y130 I0 J-2
N29800 G1 Y80
N29810 G2 X160 Y78 I-2 J0
N29820 G1 X123.15
N29830 X122.35 F200
N29840 X122 Z-2.2 F800
N29850 X118
N29860 X117.65 Z-2.9 F75
N29870 X43.15 F800
N29880 X42.35 F200
N29890 X42 Z-2.2 F800
N29900 X38
N29910 X37.65 Z-2.9 F75
N29920 X0 F800
N29930 G2 X-1.999 Y79.947 I0 J2
N29940 G3 X-2.41 Y80.336 I-0.4 J-0.011
N29950 G1 X-2.81 Y80.325
N29960 X-2.888 Y80.323 Z-2.892
N29970 X-2.963 Y80.321 Z-2.87
N29980 X-3.032 Y80.32 Z-2.833
N29990 X-3.092 Y80.318 Z-2.783
N30000 X-3.142 Y80.317 Z-2.722
N30010 X-3.179 Y80.316 Z-2.653
N30020 X-3.202 Y80.315 Z-2.578
N30030 X-3.209 Z-2.5
N30040 G0 Z2.3
N30050 X-3.188 Y79.515
N30060 G1 Z-2.6 F75
N30070 X-3.181 Z-2.678 F43
N30080 X-3.158 Y79.516 Z-2.753
N30090 X-3.121 Y79.517 Z-2.822
N30100 X-3.071 Y79.518 Z-2.883
N30110 X-3.011 Y79.52 Z-2.933
N30120 X-2.941 Y79.522 Z-2.97
N30130 X-2.866 Y79.524 Z-2.992
N30140 X-2.788 Y79.526 Z-3
N30150 X-2.389 Y79.536
N30160 G3 X-1.999 Y79.947 I-0.011 J0.4
N30170 G1 X-2 Y80 F800
N30180 Y130
N30190 G2 X0 Y132 I2 J0
N30200 G1 X36.8
N30210 X37.6 F200
N30220 X38 Z-2.2 F800
N30230 X42
N30240 X42.4 Z-3 F75
N30250 X116.8 F800
N30260 X117.6 F200
N30270 X118 Z-2.2 F800
N30280 X122
N30290 X122.4 Z-3 F75
N30300 X160 F800
N30310 G2 X162 Y130 I0 J-2
N30320 G1 Y80
N30330 G2 X160 Y78 I-2 J0
N30340 G1 X123.2
N30350 X122.4 F200
N30360 X122 Z-2.2 F800
N30370 X118
N30380 X117.6 Z-3 F75
N30390 X43.2 F800
N30400 X42.4 F200
N30410 X42 Z-2.2 F800
N30420 X38
N30430 X37.6 Z-3 F75
N30440 X0 F800
N30450 G2 X-1.999 Y79.947 I0 J2
N30460 G3 X-2.41 Y80.336 I-0.4 J-0.011
N30470 G1 X-2.81 Y80.325
N30480 X-2.888 Y80.323 Z-2.992
N30490 X-2.963 Y80.321 Z-2.97
N30500 X-3.032 Y80.32 Z-2.933
N30510 X-3.092 Y80.318 Z-2.883
N30520 X-3.142 Y80.317 Z-2.822
N30530 X-3.179 Y80.316 Z-2.753
N30540 X-3.202 Y80.315 Z-2.678
N30550 X-3.209 Z-2.6
N30560 G0 Z2.3
N30570 X-3.188 Y79.515
N30580 G1 Z-2.7 F75
N30590 X-3.181 Z-2.778 F43
N30600 X-3.158 Y79.516 Z-2.853
N30610 X-3.121 Y79.517 Z-2.922
N30620 X-3.071 Y79.518 Z-2.983
N30630 X-3.011 Y79.52 Z-3.033
N30640 X-2.941 Y79.522 Z-3.07
N30650 X-2.866 Y79.524 Z-3.092
N30660 X-2.788 Y79.526 Z-3.1
N30670 X-2.389 Y79.536
N30680 G3 X-1.999 Y79.947 I-0.011 J0.4
N30690 G1 X-2 Y80 F800
N30700 Y130
N30710 G2 X0 Y132 I2 J0
N30720 G1 X36.75
N30730 X37.55 F200
N30740 X38 Z-2.2 F800
N30750 X42
N30760 X42.45 Z-3.1 F75
N30770 X116.75 F800
N30780 X117.55 F200
N30790 X118 Z-2.2 F800
N30800 X122
N30810 X122.45 Z-3.1 F75
N30820 X160 F800
N30830 G2 X162 Y130 I0 J-2
N30840 G1 Y80
N30850 G2 X160 Y78 I-2 J0
N30860 G1 X123.25
N30870 X122.45 F200
N30880 X122 Z-2.2 F800
N30890 X118
N30900 X117.55 Z-3.1 F75
N30910 X43.25 F800
N30920 X42.45 F200
N30930 X42 Z-2.2 F800
N30940 X38
N30950 X37.55 Z-3.1 F75
N30960 X0 F800
N30970 G2 X-1.999 Y79.947 I0 J2
N30980 G3 X-2.41 Y80.336 I-0.4 J-0.011
N30990 G1 X-2.81 Y80.325
N31000 X-2.888 Y80.323 Z-3.092
N31010 X-2.963 Y80.321 Z-3.07
N31020 X-3.032 Y80.32 Z-3.033
N31030 X-3.092 Y80.318 Z-2.983
N31040 X-3.142 Y80.317 Z-2.922
N31050 X-3.179 Y80.316 Z-2.853
N31060 X-3.202 Y80.315 Z-2.778
N31070 X-3.209 Z-2.7
N31080 G0 Z2.3
N31090 X-3.188 Y79.515
N31100 G1 Z-2.8 F75
N31110 X-3.181 Z-2.878 F43
N31120 X-3.158 Y79.516 Z-2.953
N31130 X-3.121 Y79.517 Z-3.022
N31140 X-3.071 Y79.518 Z-3.083
N31150 X-3.011 Y79.52 Z-3.133
N31160 X-2.941 Y79.522 Z-3.17
N31170 X-2.866 Y79.524 Z-3.192
N31180 X-2.788 Y79.526 Z-3.2
N31190 X-2.389 Y79.536
N31200 G3 X-1.999 Y79.947 I-0.011 J0.4
N31210 G1 X-2 Y80 F800
N31220 Y130
N31230 G2 X0 Y132 I2 J0
N31240 G1 X36.7
N31250 X37.5 F200
N31260 X38 Z-2.2 F800
N31270 X42
N31280 X42.5 Z-3.2 F75
N31290 X116.7 F800
N31300 X117.5 F200
N31310 X118 Z-2.2 F800
N31320 X122
N31330 X122.5 Z-3.2 F75
N31340 X160 F800
N31350 G2 X162 Y130 I0 J-2
N31360 G1 Y80
N31370 G2 X160 Y78 I-2 J0
N31380 G1 X123.3
N31390 X122.5 F200
N31400 X122 Z-2.2 F800
N31410 X118
N31420 X117.5 Z-3.2 F75
N31430 X43.3 F800
N31440 X42.5 F200
N31450 X42 Z-2.2 F800
N31460 X38
N31470 X37.5 Z-3.2 F75
N31480 X0 F800
N31490 G2 X-1.999 Y79.947 I0 J2
N31500 G3 X-2.41 Y80.336 I-0.4 J-0.011
N31510 G1 X-2.81 Y80.325
N31520 X-2.888 Y80.323 Z-3.192
N31530 X-2.963 Y80.321 Z-3.17
N31540 X-3.032 Y80.32 Z-3.133
N31550 X-3.092 Y80.318 Z-3.083
N31560 X-3.142 Y80.317 Z-3.022
N31570 X-3.179 Y80.316 Z-2.953
N31580 X-3.202 Y80.315 Z-2.878
N31590 X-3.209 Z-2.8
N31600 G0 Z2.3
N31610 M9
N31620 M30
%
