%
(1001)
(T1 D=4 CR=0 - ZMIN=-4.2 - flat end mill)
N10 G90 G94
N20 G17
N30 G21
(-Attention- Property Safe Retracts is set to Clearance Height.)
(Ensure the clearance height will clear the part and or fixtures.)
(Raise the Z-axis to a safe height before starting the program.)

(2D 3)
N40 T1 M6
N50 S20000 M3
N60 G17 G90 G94
N70 G54
N80 M8
N90 G0 G43 Z2.3
N100 G0 X-80.368 Y11.683
N110 Z2.3
N120 G1 Z0.6 F75
N130 G19 G2 Y11.283 Z0.2 J-0.4 K0 F50
N140 G1 Y10.883
N150 G17 G3 X-79.968 Y10.483 I0.4 J0
N160 G1 X80.032 F880
N170 G2 X82.032 Y8.483 I0 J-2
N180 G1 Y-61.517
N190 G2 X80.032 Y-63.517 I-2 J0
N200 G1 X65.032
N210 G2 X63.032 Y-61.517 I0 J2
N220 G1 Y-14.317
N230 Y-13.517 F200
N240 X42.832 F880
N250 X42.032 F200
N260 Y-61.517 F880
N270 G2 X40.032 Y-63.517 I-2 J0
N280 G1 X-39.968
N290 G2 X-41.968 Y-61.517 I0 J2
N300 G1 Y-14.317
N310 Y-13.517 F200
N320 X-62.168 F880
N330 X-62.968 F200
N340 Y-61.517 F880
N350 G2 X-64.968 Y-63.517 I-2 J0
N360 G1 X-79.968
N370 G2 X-81.968 Y-61.517 I0 J2
N380 G1 Y8.483
N390 G2 X-79.968 Y10.483 I2 J0
N400 G3 X-79.568 Y10.883 I0 J0.4 F800
N410 G1 Y11.283
N420 G19 G3 Y11.683 Z0.6 J0 K0.4
N430 G0 Z2.3
N440 X-80.368
N450 G1 Z0.5 F75
N460 G2 Y11.283 Z0.1 J-0.4 K0 F50
N470 G1 Y10.883
N480 G17 G3 X-79.968 Y10.483 I0.4 J0
N490 G1 X80.032 F880
N500 G2 X82.032 Y8.483 I0 J-2
N510 G1 Y-61.517
N520 G2 X80.032 Y-63.517 I-2 J0
N530 G1 X65.032
N540 G2 X63.032 Y-61.517 I0 J2
N550 G1 Y-14.317
N560 Y-13.517 F200
N570 X42.832 F880
N580 X42.032 F200
N590 Y-61.517 F880
N600 G2 X40.032 Y-63.517 I-2 J0
N610 G1 X-39.968
N620 G2 X-41.968 Y-61.517 I0 J2
N630 G1 Y-14.317
N640 Y-13.517 F200
N650 X-62.168 F880
N660 X-62.968 F200
N670 Y-61.517 F880
N680 G2 X-64.968 Y-63.517 I-2 J0
N690 G1 X-79.968
N700 G2 X-81.968 Y-61.517 I0 J2
N710 G1 Y8.483
N720 G2 X-79.968 Y10.483 I2 J0
N730 G3 X-79.568 Y10.883 I0 J0.4 F800
N740 G1 Y11.283
N750 G19 G3 Y11.683 Z0.5 J0 K0.4
N760 G0 Z2.3
N770 X-80.368
N780 G1 Z0.4 F75
N790 G2 Y11.283 Z0 J-0.4 K0 F50
N800 G1 Y10.883
N810 G17 G3 X-79.968 Y10.483 I0.4 J0
N820 G1 X80.032 F880
N830 G2 X82.032 Y8.483 I0 J-2
N840 G1 Y-61.517
N850 G2 X80.032 Y-63.517 I-2 J0
N860 G1 X65.032
N870 G2 X63.032 Y-61.517 I0 J2
N880 G1 Y-14.317
N890 Y-13.517 F200
N900 X42.832 F880
N910 X42.032 F200
N920 Y-61.517 F880
N930 G2 X40.032 Y-63.517 I-2 J0
N940 G1 X-39.968
N950 G2 X-41.968 Y-61.517 I0 J2
N960 G1 Y-14.317
N970 Y-13.517 F200
N980 X-62.168 F880
N990 X-62.968 F200
N1000 Y-61.517 F880
N1010 G2 X-64.968 Y-63.517 I-2 J0
N1020 G1 X-79.968
N1030 G2 X-81.968 Y-61.517 I0 J2
N1040 G1 Y8.483
N1050 G2 X-79.968 Y10.483 I2 J0
N1060 G3 X-79.568 Y10.883 I0 J0.4 F800
N1070 G1 Y11.283
N1080 G19 G3 Y11.683 Z0.4 J0 K0.4
N1090 G0 Z2.3
N1100 X-80.368
N1110 G1 Z0.3 F75
N1120 G2 Y11.283 Z-0.1 J-0.4 K0 F50
N1130 G1 Y10.883
N1140 G17 G3 X-79.968 Y10.483 I0.4 J0
N1150 G1 X80.032 F880
N1160 G2 X82.032 Y8.483 I0 J-2
N1170 G1 Y-61.517
N1180 G2 X80.032 Y-63.517 I-2 J0
N1190 G1 X65.032
N1200 G2 X63.032 Y-61.517 I0 J2
N1210 G1 Y-14.317
N1220 Y-13.517 F200
N1230 X42.832 F880
N1240 X42.032 F200
N1250 Y-61.517 F880
N1260 G2 X40.032 Y-63.517 I-2 J0
N1270 G1 X-39.968
N1280 G2 X-41.968 Y-61.517 I0 J2
N1290 G1 Y-14.317
N1300 Y-13.517 F200
N1310 X-62.168 F880
N1320 X-62.968 F200
N1330 Y-61.517 F880
N1340 G2 X-64.968 Y-63.517 I-2 J0
N1350 G1 X-79.968
N1360 G2 X-81.968 Y-61.517 I0 J2
N1370 G1 Y8.483
N1380 G2 X-79.968 Y10.483 I2 J0
N1390 G3 X-79.568 Y10.883 I0 J0.4 F800
N1400 G1 Y11.283
N1410 G19 G3 Y11.683 Z0.3 J0 K0.4
N1420 G0 Z2.3
N1430 X-80.368
N1440 G1 Z0.2 F75
N1450 G2 Y11.283 Z-0.2 J-0.4 K0 F50
N1460 G1 Y10.883
N1470 G17 G3 X-79.968 Y10.483 I0.4 J0
N1480 G1 X80.032 F880
N1490 G2 X82.032 Y8.483 I0 J-2
N1500 G1 Y-61.517
N1510 G2 X80.032 Y-63.517 I-2 J0
N1520 G1 X65.032
N1530 G2 X63.032 Y-61.517 I0 J2
N1540 G1 Y-14.317
N1550 Y-13.517 F200
N1560 X42.832 F880
N1570 X42.032 F200
N1580 Y-61.517 F880
N1590 G2 X40.032 Y-63.517 I-2 J0
N1600 G1 X-39.968
N1610 G2 X-41.968 Y-61.517 I0 J2
N1620 G1 Y-14.317
N1630 Y-13.517 F200
N1640 X-62.168 F880
N1650 X-62.968 F200
N1660 Y-61.517 F880
N1670 G2 X-64.968 Y-63.517 I-2 J0
N1680 G1 X-79.968
N1690 G2 X-81.968 Y-61.517 I0 J2
N1700 G1 Y8.483
N1710 G2 X-79.968 Y10.483 I2 J0
N1720 G3 X-79.568 Y10.883 I0 J0.4 F800
N1730 G1 Y11.283
N1740 G19 G3 Y11.683 Z0.2 J0 K0.4
N1750 G0 Z2.3
N1760 X-80.368
N1770 G1 Z0.1 F75
N1780 G2 Y11.283 Z-0.3 J-0.4 K0 F50
N1790 G1 Y10.883
N1800 G17 G3 X-79.968 Y10.483 I0.4 J0
N1810 G1 X80.032 F880
N1820 G2 X82.032 Y8.483 I0 J-2
N1830 G1 Y-61.517
N1840 G2 X80.032 Y-63.517 I-2 J0
N1850 G1 X65.032
N1860 G2 X63.032 Y-61.517 I0 J2
N1870 G1 Y-14.317
N1880 Y-13.517 F200
N1890 X42.832 F880
N1900 X42.032 F200
N1910 Y-61.517 F880
N1920 G2 X40.032 Y-63.517 I-2 J0
N1930 G1 X-39.968
N1940 G2 X-41.968 Y-61.517 I0 J2
N1950 G1 Y-14.317
N1960 Y-13.517 F200
N1970 X-62.168 F880
N1980 X-62.968 F200
N1990 Y-61.517 F880
N2000 G2 X-64.968 Y-63.517 I-2 J0
N2010 G1 X-79.968
N2020 G2 X-81.968 Y-61.517 I0 J2
N2030 G1 Y8.483
N2040 G2 X-79.968 Y10.483 I2 J0
N2050 G3 X-79.568 Y10.883 I0 J0.4 F800
N2060 G1 Y11.283
N2070 G19 G3 Y11.683 Z0.1 J0 K0.4
N2080 G0 Z2.3
N2090 X-80.368
N2100 G1 Z0 F75
N2110 G2 Y11.283 Z-0.4 J-0.4 K0 F50
N2120 G1 Y10.883
N2130 G17 G3 X-79.968 Y10.483 I0.4 J0
N2140 G1 X80.032 F880
N2150 G2 X82.032 Y8.483 I0 J-2
N2160 G1 Y-61.517
N2170 G2 X80.032 Y-63.517 I-2 J0
N2180 G1 X65.032
N2190 G2 X63.032 Y-61.517 I0 J2
N2200 G1 Y-14.317
N2210 Y-13.517 F200
N2220 X42.832 F880
N2230 X42.032 F200
N2240 Y-61.517 F880
N2250 G2 X40.032 Y-63.517 I-2 J0
N2260 G1 X-39.968
N2270 G2 X-41.968 Y-61.517 I0 J2
N2280 G1 Y-14.317
N2290 Y-13.517 F200
N2300 X-62.168 F880
N2310 X-62.968 F200
N2320 Y-61.517 F880
N2330 G2 X-64.968 Y-63.517 I-2 J0
N2340 G1 X-79.968
N2350 G2 X-81.968 Y-61.517 I0 J2
N2360 G1 Y8.483
N2370 G2 X-79.968 Y10.483 I2 J0
N2380 G3 X-79.568 Y10.883 I0 J0.4 F800
N2390 G1 Y11.283
N2400 G19 G3 Y11.683 Z0 J0 K0.4
N2410 G0 Z2.3
N2420 X-80.368
N2430 G1 Z-0.1 F75
N2440 G2 Y11.283 Z-0.5 J-0.4 K0 F50
N2450 G1 Y10.883
N2460 G17 G3 X-79.968 Y10.483 I0.4 J0
N2470 G1 X80.032 F880
N2480 G2 X82.032 Y8.483 I0 J-2
N2490 G1 Y-61.517
N2500 G2 X80.032 Y-63.517 I-2 J0
N2510 G1 X65.032
N2520 G2 X63.032 Y-61.517 I0 J2
N2530 G1 Y-14.317
N2540 Y-13.517 F200
N2550 X42.832 F880
N2560 X42.032 F200
N2570 Y-61.517 F880
N2580 G2 X40.032 Y-63.517 I-2 J0
N2590 G1 X-39.968
N2600 G2 X-41.968 Y-61.517 I0 J2
N2610 G1 Y-14.317
N2620 Y-13.517 F200
N2630 X-62.168 F880
N2640 X-62.968 F200
N2650 Y-61.517 F880
N2660 G2 X-64.968 Y-63.517 I-2 J0
N2670 G1 X-79.968
N2680 G2 X-81.968 Y-61.517 I0 J2
N2690 G1 Y8.483
N2700 G2 X-79.968 Y10.483 I2 J0
N2710 G3 X-79.568 Y10.883 I0 J0.4 F800
N2720 G1 Y11.283
N2730 G19 G3 Y11.683 Z-0.1 J0 K0.4
N2740 G0 Z2.3
N2750 X-80.368
N2760 G1 Z-0.2 F75
N2770 G2 Y11.283 Z-0.6 J-0.4 K0 F50
N2780 G1 Y10.883
N2790 G17 G3 X-79.968 Y10.483 I0.4 J0
N2800 G1 X80.032 F880
N2810 G2 X82.032 Y8.483 I0 J-2
N2820 G1 Y-61.517
N2830 G2 X80.032 Y-63.517 I-2 J0
N2840 G1 X65.032
N2850 G2 X63.032 Y-61.517 I0 J2
N2860 G1 Y-14.317
N2870 Y-13.517 F200
N2880 X42.832 F880
N2890 X42.032 F200
N2900 Y-61.517 F880
N2910 G2 X40.032 Y-63.517 I-2 J0
N2920 G1 X-39.968
N2930 G2 X-41.968 Y-61.517 I0 J2
N2940 G1 Y-14.317
N2950 Y-13.517 F200
N2960 X-62.168 F880
N2970 X-62.968 F200
N2980 Y-61.517 F880
N2990 G2 X-64.968 Y-63.517 I-2 J0
N3000 G1 X-79.968
N3010 G2 X-81.968 Y-61.517 I0 J2
N3020 G1 Y8.483
N3030 G2 X-79.968 Y10.483 I2 J0
N3040 G3 X-79.568 Y10.883 I0 J0.4 F800
N3050 G1 Y11.283
N3060 G19 G3 Y11.683 Z-0.2 J0 K0.4
N3070 G0 Z2.3
N3080 X-80.368
N3090 G1 Z-0.3 F75
N3100 G2 Y11.283 Z-0.7 J-0.4 K0 F50
N3110 G1 Y10.883
N3120 G17 G3 X-79.968 Y10.483 I0.4 J0
N3130 G1 X80.032 F880
N3140 G2 X82.032 Y8.483 I0 J-2
N3150 G1 Y-61.517
N3160 G2 X80.032 Y-63.517 I-2 J0
N3170 G1 X65.032
N3180 G2 X63.032 Y-61.517 I0 J2
N3190 G1 Y-14.317
N3200 Y-13.517 F200
N3210 X42.832 F880
N3220 X42.032 F200
N3230 Y-61.517 F880
N3240 G2 X40.032 Y-63.517 I-2 J0
N3250 G1 X-39.968
N3260 G2 X-41.968 Y-61.517 I0 J2
N3270 G1 Y-14.317
N3280 Y-13.517 F200
N3290 X-62.168 F880
N3300 X-62.968 F200
N3310 Y-61.517 F880
N3320 G2 X-64.968 Y-63.517 I-2 J0
N3330 G1 X-79.968
N3340 G2 X-81.968 Y-61.517 I0 J2
N3350 G1 Y8.483
N3360 G2 X-79.968 Y10.483 I2 J0
N3370 G3 X-79.568 Y10.883 I0 J0.4 F800
N3380 G1 Y11.283
N3390 G19 G3 Y11.683 Z-0.3 J0 K0.4
N3400 G0 Z2.3
N3410 X-80.368
N3420 G1 Z-0.4 F75
N3430 G2 Y11.283 Z-0.8 J-0.4 K0 F50
N3440 G1 Y10.883
N3450 G17 G3 X-79.968 Y10.483 I0.4 J0
N3460 G1 X80.032 F880
N3470 G2 X82.032 Y8.483 I0 J-2
N3480 G1 Y-61.517
N3490 G2 X80.032 Y-63.517 I-2 J0
N3500 G1 X65.032
N3510 G2 X63.032 Y-61.517 I0 J2
N3520 G1 Y-14.317
N3530 Y-13.517 F200
N3540 X42.832 F880
N3550 X42.032 F200
N3560 Y-61.517 F880
N3570 G2 X40.032 Y-63.517 I-2 J0
N3580 G1 X-39.968
N3590 G2 X-41.968 Y-61.517 I0 J2
N3600 G1 Y-14.317
N3610 Y-13.517 F200
N3620 X-62.168 F880
N3630 X-62.968 F200
N3640 Y-61.517 F880
N3650 G2 X-64.968 Y-63.517 I-2 J0
N3660 G1 X-79.968
N3670 G2 X-81.968 Y-61.517 I0 J2
N3680 G1 Y8.483
N3690 G2 X-79.968 Y10.483 I2 J0
N3700 G3 X-79.568 Y10.883 I0 J0.4 F800
N3710 G1 Y11.283
N3720 G19 G3 Y11.683 Z-0.4 J0 K0.4
N3730 G0 Z2.3
N3740 X-80.368
N3750 G1 Z-0.5 F75
N3760 G2 Y11.283 Z-0.9 J-0.4 K0 F50
N3770 G1 Y10.883
N3780 G17 G3 X-79.968 Y10.483 I0.4 J0
N3790 G1 X80.032 F880
N3800 G2 X82.032 Y8.483 I0 J-2
N3810 G1 Y-61.517
N3820 G2 X80.032 Y-63.517 I-2 J0
N3830 G1 X65.032
N3840 G2 X63.032 Y-61.517 I0 J2
N3850 G1 Y-14.317
N3860 Y-13.517 F200
N3870 X42.832 F880
N3880 X42.032 F200
N3890 Y-61.517 F880
N3900 G2 X40.032 Y-63.517 I-2 J0
N3910 G1 X-39.968
N3920 G2 X-41.968 Y-61.517 I0 J2
N3930 G1 Y-14.317
N3940 Y-13.517 F200
N3950 X-62.168 F880
N3960 X-62.968 F200
N3970 Y-61.517 F880
N3980 G2 X-64.968 Y-63.517 I-2 J0
N3990 G1 X-79.968
N4000 G2 X-81.968 Y-61.517 I0 J2
N4010 G1 Y8.483
N4020 G2 X-79.968 Y10.483 I2 J0
N4030 G3 X-79.568 Y10.883 I0 J0.4 F800
N4040 G1 Y11.283
N4050 G19 G3 Y11.683 Z-0.5 J0 K0.4
N4060 G0 Z2.3
N4070 X-80.368
N4080 G1 Z-0.6 F75
N4090 G2 Y11.283 Z-1 J-0.4 K0 F50
N4100 G1 Y10.883
N4110 G17 G3 X-79.968 Y10.483 I0.4 J0
N4120 G1 X80.032 F880
N4130 G2 X82.032 Y8.483 I0 J-2
N4140 G1 Y-61.517
N4150 G2 X80.032 Y-63.517 I-2 J0
N4160 G1 X65.032
N4170 G2 X63.032 Y-61.517 I0 J2
N4180 G1 Y-14.317
N4190 Y-13.517 F200
N4200 X42.832 F880
N4210 X42.032 F200
N4220 Y-61.517 F880
N4230 G2 X40.032 Y-63.517 I-2 J0
N4240 G1 X-39.968
N4250 G2 X-41.968 Y-61.517 I0 J2
N4260 G1 Y-14.317
N4270 Y-13.517 F200
N4280 X-62.168 F880
N4290 X-62.968 F200
N4300 Y-61.517 F880
N4310 G2 X-64.968 Y-63.517 I-2 J0
N4320 G1 X-79.968
N4330 G2 X-81.968 Y-61.517 I0 J2
N4340 G1 Y8.483
N4350 G2 X-79.968 Y10.483 I2 J0
N4360 G3 X-79.568 Y10.883 I0 J0.4 F800
N4370 G1 Y11.283
N4380 G19 G3 Y11.683 Z-0.6 J0 K0.4
N4390 G0 Z2.3
N4400 X-80.368
N4410 G1 Z-0.7 F75
N4420 G2 Y11.283 Z-1.1 J-0.4 K0 F50
N4430 G1 Y10.883
N4440 G17 G3 X-79.968 Y10.483 I0.4 J0
N4450 G1 X80.032 F880
N4460 G2 X82.032 Y8.483 I0 J-2
N4470 G1 Y-61.517
N4480 G2 X80.032 Y-63.517 I-2 J0
N4490 G1 X65.032
N4500 G2 X63.032 Y-61.517 I0 J2
N4510 G1 Y-14.317
N4520 Y-13.517 F200
N4530 X42.832 F880
N4540 X42.032 F200
N4550 Y-61.517 F880
N4560 G2 X40.032 Y-63.517 I-2 J0
N4570 G1 X-39.968
N4580 G2 X-41.968 Y-61.517 I0 J2
N4590 G1 Y-14.317
N4600 Y-13.517 F200
N4610 X-62.168 F880
N4620 X-62.968 F200
N4630 Y-61.517 F880
N4640 G2 X-64.968 Y-63.517 I-2 J0
N4650 G1 X-79.968
N4660 G2 X-81.968 Y-61.517 I0 J2
N4670 G1 Y8.483
N4680 G2 X-79.968 Y10.483 I2 J0
N4690 G3 X-79.568 Y10.883 I0 J0.4 F800
N4700 G1 Y11.283
N4710 G19 G3 Y11.683 Z-0.7 J0 K0.4
N4720 G0 Z2.3
N4730 X-80.368
N4740 G1 Z-0.8 F75
N4750 G2 Y11.283 Z-1.2 J-0.4 K0 F50
N4760 G1 Y10.883
N4770 G17 G3 X-79.968 Y10.483 I0.4 J0
N4780 G1 X80.032 F880
N4790 G2 X82.032 Y8.483 I0 J-2
N4800 G1 Y-61.517
N4810 G2 X80.032 Y-63.517 I-2 J0
N4820 G1 X65.032
N4830 G2 X63.032 Y-61.517 I0 J2
N4840 G1 Y-14.317
N4850 Y-13.517 F200
N4860 X42.832 F880
N4870 X42.032 F200
N4880 Y-61.517 F880
N4890 G2 X40.032 Y-63.517 I-2 J0
N4900 G1 X-39.968
N4910 G2 X-41.968 Y-61.517 I0 J2
N4920 G1 Y-14.317
N4930 Y-13.517 F200
N4940 X-62.168 F880
N4950 X-62.968 F200
N4960 Y-61.517 F880
N4970 G2 X-64.968 Y-63.517 I-2 J0
N4980 G1 X-79.968
N4990 G2 X-81.968 Y-61.517 I0 J2
N5000 G1 Y8.483
N5010 G2 X-79.968 Y10.483 I2 J0
N5020 G3 X-79.568 Y10.883 I0 J0.4 F800
N5030 G1 Y11.283
N5040 G19 G3 Y11.683 Z-0.8 J0 K0.4
N5050 G0 Z2.3
N5060 X-80.368
N5070 G1 Z-0.9 F75
N5080 G2 Y11.283 Z-1.3 J-0.4 K0 F50
N5090 G1 Y10.883
N5100 G17 G3 X-79.968 Y10.483 I0.4 J0
N5110 G1 X80.032 F880
N5120 G2 X82.032 Y8.483 I0 J-2
N5130 G1 Y-61.517
N5140 G2 X80.032 Y-63.517 I-2 J0
N5150 G1 X65.032
N5160 G2 X63.032 Y-61.517 I0 J2
N5170 G1 Y-14.317
N5180 Y-13.517 F200
N5190 X42.832 F880
N5200 X42.032 F200
N5210 Y-61.517 F880
N5220 G2 X40.032 Y-63.517 I-2 J0
N5230 G1 X-39.968
N5240 G2 X-41.968 Y-61.517 I0 J2
N5250 G1 Y-14.317
N5260 Y-13.517 F200
N5270 X-62.168 F880
N5280 X-62.968 F200
N5290 Y-61.517 F880
N5300 G2 X-64.968 Y-63.517 I-2 J0
N5310 G1 X-79.968
N5320 G2 X-81.968 Y-61.517 I0 J2
N5330 G1 Y8.483
N5340 G2 X-79.968 Y10.483 I2 J0
N5350 G3 X-79.568 Y10.883 I0 J0.4 F800
N5360 G1 Y11.283
N5370 G19 G3 Y11.683 Z-0.9 J0 K0.4
N5380 G0 Z2.3
N5390 X-80.368
N5400 G1 Z-1 F75
N5410 G2 Y11.283 Z-1.4 J-0.4 K0 F50
N5420 G1 Y10.883
N5430 G17 G3 X-79.968 Y10.483 I0.4 J0
N5440 G1 X80.032 F880
N5450 G2 X82.032 Y8.483 I0 J-2
N5460 G1 Y-61.517
N5470 G2 X80.032 Y-63.517 I-2 J0
N5480 G1 X65.032
N5490 G2 X63.032 Y-61.517 I0 J2
N5500 G1 Y-14.317
N5510 Y-13.517 F200
N5520 X42.832 F880
N5530 X42.032 F200
N5540 Y-61.517 F880
N5550 G2 X40.032 Y-63.517 I-2 J0
N5560 G1 X-39.968
N5570 G2 X-41.968 Y-61.517 I0 J2
N5580 G1 Y-14.317
N5590 Y-13.517 F200
N5600 X-62.168 F880
N5610 X-62.968 F200
N5620 Y-61.517 F880
N5630 G2 X-64.968 Y-63.517 I-2 J0
N5640 G1 X-79.968
N5650 G2 X-81.968 Y-61.517 I0 J2
N5660 G1 Y8.483
N5670 G2 X-79.968 Y10.483 I2 J0
N5680 G3 X-79.568 Y10.883 I0 J0.4 F800
N5690 G1 Y11.283
N5700 G19 G3 Y11.683 Z-1 J0 K0.4
N5710 G0 Z2.3
N5720 X-80.368
N5730 G1 Z-1.1 F75
N5740 G2 Y11.283 Z-1.5 J-0.4 K0 F50
N5750 G1 Y10.883
N5760 G17 G3 X-79.968 Y10.483 I0.4 J0
N5770 G1 X80.032 F880
N5780 G2 X82.032 Y8.483 I0 J-2
N5790 G1 Y-61.517
N5800 G2 X80.032 Y-63.517 I-2 J0
N5810 G1 X65.032
N5820 G2 X63.032 Y-61.517 I0 J2
N5830 G1 Y-14.317
N5840 Y-13.517 F200
N5850 X42.832 F880
N5860 X42.032 F200
N5870 Y-61.517 F880
N5880 G2 X40.032 Y-63.517 I-2 J0
N5890 G1 X-39.968
N5900 G2 X-41.968 Y-61.517 I0 J2
N5910 G1 Y-14.317
N5920 Y-13.517 F200
N5930 X-62.168 F880
N5940 X-62.968 F200
N5950 Y-61.517 F880
N5960 G2 X-64.968 Y-63.517 I-2 J0
N5970 G1 X-79.968
N5980 G2 X-81.968 Y-61.517 I0 J2
N5990 G1 Y8.483
N6000 G2 X-79.968 Y10.483 I2 J0
N6010 G3 X-79.568 Y10.883 I0 J0.4 F800
N6020 G1 Y11.283
N6030 G19 G3 Y11.683 Z-1.1 J0 K0.4
N6040 G0 Z2.3
N6050 X-80.368
N6060 G1 Z-1.2 F75
N6070 G2 Y11.283 Z-1.6 J-0.4 K0 F50
N6080 G1 Y10.883
N6090 G17 G3 X-79.968 Y10.483 I0.4 J0
N6100 G1 X80.032 F880
N6110 G2 X82.032 Y8.483 I0 J-2
N6120 G1 Y-61.517
N6130 G2 X80.032 Y-63.517 I-2 J0
N6140 G1 X65.032
N6150 G2 X63.032 Y-61.517 I0 J2
N6160 G1 Y-14.317
N6170 Y-13.517 F200
N6180 X42.832 F880
N6190 X42.032 F200
N6200 Y-61.517 F880
N6210 G2 X40.032 Y-63.517 I-2 J0
N6220 G1 X-39.968
N6230 G2 X-41.968 Y-61.517 I0 J2
N6240 G1 Y-14.317
N6250 Y-13.517 F200
N6260 X-62.168 F880
N6270 X-62.968 F200
N6280 Y-61.517 F880
N6290 G2 X-64.968 Y-63.517 I-2 J0
N6300 G1 X-79.968
N6310 G2 X-81.968 Y-61.517 I0 J2
N6320 G1 Y8.483
N6330 G2 X-79.968 Y10.483 I2 J0
N6340 G3 X-79.568 Y10.883 I0 J0.4 F800
N6350 G1 Y11.283
N6360 G19 G3 Y11.683 Z-1.2 J0 K0.4
N6370 G0 Z2.3
N6380 X-80.368
N6390 G1 Z-1.3 F75
N6400 G2 Y11.283 Z-1.7 J-0.4 K0 F50
N6410 G1 Y10.883
N6420 G17 G3 X-79.968 Y10.483 I0.4 J0
N6430 G1 X80.032 F880
N6440 G2 X82.032 Y8.483 I0 J-2
N6450 G1 Y-61.517
N6460 G2 X80.032 Y-63.517 I-2 J0
N6470 G1 X65.032
N6480 G2 X63.032 Y-61.517 I0 J2
N6490 G1 Y-14.317
N6500 Y-13.517 F200
N6510 X42.832 F880
N6520 X42.032 F200
N6530 Y-61.517 F880
N6540 G2 X40.032 Y-63.517 I-2 J0
N6550 G1 X-39.968
N6560 G2 X-41.968 Y-61.517 I0 J2
N6570 G1 Y-14.317
N6580 Y-13.517 F200
N6590 X-62.168 F880
N6600 X-62.968 F200
N6610 Y-61.517 F880
N6620 G2 X-64.968 Y-63.517 I-2 J0
N6630 G1 X-79.968
N6640 G2 X-81.968 Y-61.517 I0 J2
N6650 G1 Y8.483
N6660 G2 X-79.968 Y10.483 I2 J0
N6670 G3 X-79.568 Y10.883 I0 J0.4 F800
N6680 G1 Y11.283
N6690 G19 G3 Y11.683 Z-1.3 J0 K0.4
N6700 G0 Z2.3
N6710 X-80.368
N6720 G1 Z-1.4 F75
N6730 G2 Y11.283 Z-1.8 J-0.4 K0 F50
N6740 G1 Y10.883
N6750 G17 G3 X-79.968 Y10.483 I0.4 J0
N6760 G1 X80.032 F880
N6770 G2 X82.032 Y8.483 I0 J-2
N6780 G1 Y-61.517
N6790 G2 X80.032 Y-63.517 I-2 J0
N6800 G1 X65.032
N6810 G2 X63.032 Y-61.517 I0 J2
N6820 G1 Y-14.317
N6830 Y-13.517 F200
N6840 X42.832 F880
N6850 X42.032 F200
N6860 Y-61.517 F880
N6870 G2 X40.032 Y-63.517 I-2 J0
N6880 G1 X-39.968
N6890 G2 X-41.968 Y-61.517 I0 J2
N6900 G1 Y-14.317
N6910 Y-13.517 F200
N6920 X-62.168 F880
N6930 X-62.968 F200
N6940 Y-61.517 F880
N6950 G2 X-64.968 Y-63.517 I-2 J0
N6960 G1 X-79.968
N6970 G2 X-81.968 Y-61.517 I0 J2
N6980 G1 Y8.483
N6990 G2 X-79.968 Y10.483 I2 J0
N7000 G3 X-79.568 Y10.883 I0 J0.4 F800
N7010 G1 Y11.283
N7020 G19 G3 Y11.683 Z-1.4 J0 K0.4
N7030 G0 Z2.3
N7040 X-80.368
N7050 G1 Z-1.5 F75
N7060 G2 Y11.283 Z-1.9 J-0.4 K0 F50
N7070 G1 Y10.883
N7080 G17 G3 X-79.968 Y10.483 I0.4 J0
N7090 G1 X80.032 F880
N7100 G2 X82.032 Y8.483 I0 J-2
N7110 G1 Y-61.517
N7120 G2 X80.032 Y-63.517 I-2 J0
N7130 G1 X65.032
N7140 G2 X63.032 Y-61.517 I0 J2
N7150 G1 Y-14.317
N7160 Y-13.517 F200
N7170 X42.832 F880
N7180 X42.032 F200
N7190 Y-61.517 F880
N7200 G2 X40.032 Y-63.517 I-2 J0
N7210 G1 X-39.968
N7220 G2 X-41.968 Y-61.517 I0 J2
N7230 G1 Y-14.317
N7240 Y-13.517 F200
N7250 X-62.168 F880
N7260 X-62.968 F200
N7270 Y-61.517 F880
N7280 G2 X-64.968 Y-63.517 I-2 J0
N7290 G1 X-79.968
N7300 G2 X-81.968 Y-61.517 I0 J2
N7310 G1 Y8.483
N7320 G2 X-79.968 Y10.483 I2 J0
N7330 G3 X-79.568 Y10.883 I0 J0.4 F800
N7340 G1 Y11.283
N7350 G19 G3 Y11.683 Z-1.5 J0 K0.4
N7360 G0 Z2.3
N7370 X-80.368
N7380 G1 Z-1.6 F75
N7390 G2 Y11.283 Z-2 J-0.4 K0 F50
N7400 G1 Y10.883
N7410 G17 G3 X-79.968 Y10.483 I0.4 J0
N7420 G1 X80.032 F880
N7430 G2 X82.032 Y8.483 I0 J-2
N7440 G1 Y-61.517
N7450 G2 X80.032 Y-63.517 I-2 J0
N7460 G1 X65.032
N7470 G2 X63.032 Y-61.517 I0 J2
N7480 G1 Y-14.317
N7490 Y-13.517 F200
N7500 X42.832 F880
N7510 X42.032 F200
N7520 Y-61.517 F880
N7530 G2 X40.032 Y-63.517 I-2 J0
N7540 G1 X-39.968
N7550 G2 X-41.968 Y-61.517 I0 J2
N7560 G1 Y-14.317
N7570 Y-13.517 F200
N7580 X-62.168 F880
N7590 X-62.968 F200
N7600 Y-61.517 F880
N7610 G2 X-64.968 Y-63.517 I-2 J0
N7620 G1 X-79.968
N7630 G2 X-81.968 Y-61.517 I0 J2
N7640 G1 Y8.483
N7650 G2 X-79.968 Y10.483 I2 J0
N7660 G3 X-79.568 Y10.883 I0 J0.4 F800
N7670 G1 Y11.283
N7680 G19 G3 Y11.683 Z-1.6 J0 K0.4
N7690 G0 Z2.3
N7700 X-80.368
N7710 G1 Z-1.7 F75
N7720 G2 Y11.283 Z-2.1 J-0.4 K0 F50
N7730 G1 Y10.883
N7740 G17 G3 X-79.968 Y10.483 I0.4 J0
N7750 G1 X80.032 F880
N7760 G2 X82.032 Y8.483 I0 J-2
N7770 G1 Y-61.517
N7780 G2 X80.032 Y-63.517 I-2 J0
N7790 G1 X65.032
N7800 G2 X63.032 Y-61.517 I0 J2
N7810 G1 Y-14.317
N7820 Y-13.517 F200
N7830 X42.832 F880
N7840 X42.032 F200
N7850 Y-61.517 F880
N7860 G2 X40.032 Y-63.517 I-2 J0
N7870 G1 X-39.968
N7880 G2 X-41.968 Y-61.517 I0 J2
N7890 G1 Y-14.317
N7900 Y-13.517 F200
N7910 X-62.168 F880
N7920 X-62.968 F200
N7930 Y-61.517 F880
N7940 G2 X-64.968 Y-63.517 I-2 J0
N7950 G1 X-79.968
N7960 G2 X-81.968 Y-61.517 I0 J2
N7970 G1 Y8.483
N7980 G2 X-79.968 Y10.483 I2 J0
N7990 G3 X-79.568 Y10.883 I0 J0.4 F800
N8000 G1 Y11.283
N8010 G19 G3 Y11.683 Z-1.7 J0 K0.4
N8020 G0 Z2.3
N8030 X-80.368
N8040 G1 Z-1.8 F75
N8050 G2 Y11.283 Z-2.2 J-0.4 K0 F50
N8060 G1 Y10.883
N8070 G17 G3 X-79.968 Y10.483 I0.4 J0
N8080 G1 X80.032 F880
N8090 G2 X82.032 Y8.483 I0 J-2
N8100 G1 Y-61.517
N8110 G2 X80.032 Y-63.517 I-2 J0
N8120 G1 X65.032
N8130 G2 X63.032 Y-61.517 I0 J2
N8140 G1 Y-14.317
N8150 Y-13.517 F200
N8160 X42.832 F880
N8170 X42.032 F200
N8180 Y-61.517 F880
N8190 G2 X40.032 Y-63.517 I-2 J0
N8200 G1 X-39.968
N8210 G2 X-41.968 Y-61.517 I0 J2
N8220 G1 Y-14.317
N8230 Y-13.517 F200
N8240 X-62.168 F880
N8250 X-62.968 F200
N8260 Y-61.517 F880
N8270 G2 X-64.968 Y-63.517 I-2 J0
N8280 G1 X-79.968
N8290 G2 X-81.968 Y-61.517 I0 J2
N8300 G1 Y8.483
N8310 G2 X-79.968 Y10.483 I2 J0
N8320 G3 X-79.568 Y10.883 I0 J0.4 F800
N8330 G1 Y11.283
N8340 G19 G3 Y11.683 Z-1.8 J0 K0.4
N8350 G0 Z2.3
N8360 X-80.368
N8370 G1 Z-1.9 F75
N8380 G2 Y11.283 Z-2.3 J-0.4 K0 F50
N8390 G1 Y10.883
N8400 G17 G3 X-79.968 Y10.483 I0.4 J0
N8410 G1 X80.032 F880
N8420 G2 X82.032 Y8.483 I0 J-2
N8430 G1 Y-61.517
N8440 G2 X80.032 Y-63.517 I-2 J0
N8450 G1 X65.032
N8460 G2 X63.032 Y-61.517 I0 J2
N8470 G1 Y-14.317
N8480 Y-13.517 F200
N8490 X42.832 F880
N8500 X42.032 F200
N8510 Y-61.517 F880
N8520 G2 X40.032 Y-63.517 I-2 J0
N8530 G1 X-39.968
N8540 G2 X-41.968 Y-61.517 I0 J2
N8550 G1 Y-14.317
N8560 Y-13.517 F200
N8570 X-62.168 F880
N8580 X-62.968 F200
N8590 Y-61.517 F880
N8600 G2 X-64.968 Y-63.517 I-2 J0
N8610 G1 X-79.968
N8620 G2 X-81.968 Y-61.517 I0 J2
N8630 G1 Y8.483
N8640 G2 X-79.968 Y10.483 I2 J0
N8650 G3 X-79.568 Y10.883 I0 J0.4 F800
N8660 G1 Y11.283
N8670 G19 G3 Y11.683 Z-1.9 J0 K0.4
N8680 G0 Z2.3
N8690 X-80.368
N8700 G1 Z-2 F75
N8710 G2 Y11.283 Z-2.4 J-0.4 K0 F50
N8720 G1 Y10.883
N8730 G17 G3 X-79.968 Y10.483 I0.4 J0
N8740 G1 X80.032 F880
N8750 G2 X82.032 Y8.483 I0 J-2
N8760 G1 Y-61.517
N8770 G2 X80.032 Y-63.517 I-2 J0
N8780 G1 X65.032
N8790 G2 X63.032 Y-61.517 I0 J2
N8800 G1 Y-14.317
N8810 Y-13.517 F200
N8820 X42.832 F880
N8830 X42.032 F200
N8840 Y-61.517 F880
N8850 G2 X40.032 Y-63.517 I-2 J0
N8860 G1 X-39.968
N8870 G2 X-41.968 Y-61.517 I0 J2
N8880 G1 Y-14.317
N8890 Y-13.517 F200
N8900 X-62.168 F880
N8910 X-62.968 F200
N8920 Y-61.517 F880
N8930 G2 X-64.968 Y-63.517 I-2 J0
N8940 G1 X-79.968
N8950 G2 X-81.968 Y-61.517 I0 J2
N8960 G1 Y8.483
N8970 G2 X-79.968 Y10.483 I2 J0
N8980 G3 X-79.568 Y10.883 I0 J0.4 F800
N8990 G1 Y11.283
N9000 G19 G3 Y11.683 Z-2 J0 K0.4
N9010 G0 Z2.3
N9020 X-80.368
N9030 G1 Z-2.1 F75
N9040 G2 Y11.283 Z-2.5 J-0.4 K0 F50
N9050 G1 Y10.883
N9060 G17 G3 X-79.968 Y10.483 I0.4 J0
N9070 G1 X80.032 F880
N9080 G2 X82.032 Y8.483 I0 J-2
N9090 G1 Y-61.517
N9100 G2 X80.032 Y-63.517 I-2 J0
N9110 G1 X65.032
N9120 G2 X63.032 Y-61.517 I0 J2
N9130 G1 Y-14.317
N9140 Y-13.517 F200
N9150 X42.832 F880
N9160 X42.032 F200
N9170 Y-61.517 F880
N9180 G2 X40.032 Y-63.517 I-2 J0
N9190 G1 X-39.968
N9200 G2 X-41.968 Y-61.517 I0 J2
N9210 G1 Y-14.317
N9220 Y-13.517 F200
N9230 X-62.168 F880
N9240 X-62.968 F200
N9250 Y-61.517 F880
N9260 G2 X-64.968 Y-63.517 I-2 J0
N9270 G1 X-79.968
N9280 G2 X-81.968 Y-61.517 I0 J2
N9290 G1 Y8.483
N9300 G2 X-79.968 Y10.483 I2 J0
N9310 G3 X-79.568 Y10.883 I0 J0.4 F800
N9320 G1 Y11.283
N9330 G19 G3 Y11.683 Z-2.1 J0 K0.4
N9340 G0 Z2.3
N9350 X-80.368
N9360 G1 Z-2.2 F75
N9370 G2 Y11.283 Z-2.6 J-0.4 K0 F50
N9380 G1 Y10.883
N9390 G17 G3 X-79.968 Y10.483 I0.4 J0
N9400 G1 X80.032 F880
N9410 G2 X82.032 Y8.483 I0 J-2
N9420 G1 Y-61.517
N9430 G2 X80.032 Y-63.517 I-2 J0
N9440 G1 X65.032
N9450 G2 X63.032 Y-61.517 I0 J2
N9460 G1 Y-14.317
N9470 Y-13.517 F200
N9480 X42.832 F880
N9490 X42.032 F200
N9500 Y-61.517 F880
N9510 G2 X40.032 Y-63.517 I-2 J0
N9520 G1 X-39.968
N9530 G2 X-41.968 Y-61.517 I0 J2
N9540 G1 Y-14.317
N9550 Y-13.517 F200
N9560 X-62.168 F880
N9570 X-62.968 F200
N9580 Y-61.517 F880
N9590 G2 X-64.968 Y-63.517 I-2 J0
N9600 G1 X-79.968
N9610 G2 X-81.968 Y-61.517 I0 J2
N9620 G1 Y8.483
N9630 G2 X-79.968 Y10.483 I2 J0
N9640 G3 X-79.568 Y10.883 I0 J0.4 F800
N9650 G1 Y11.283
N9660 G19 G3 Y11.683 Z-2.2 J0 K0.4
N9670 G0 Z2.3
N9680 X-80.368
N9690 G1 Z-2.3 F75
N9700 G2 Y11.283 Z-2.7 J-0.4 K0 F50
N9710 G1 Y10.883
N9720 G17 G3 X-79.968 Y10.483 I0.4 J0
N9730 G1 X80.032 F880
N9740 G2 X82.032 Y8.483 I0 J-2
N9750 G1 Y-61.517
N9760 G2 X80.032 Y-63.517 I-2 J0
N9770 G1 X65.032
N9780 G2 X63.032 Y-61.517 I0 J2
N9790 G1 Y-14.317
N9800 Y-13.517 F200
N9810 X42.832 F880
N9820 X42.032 F200
N9830 Y-61.517 F880
N9840 G2 X40.032 Y-63.517 I-2 J0
N9850 G1 X-39.968
N9860 G2 X-41.968 Y-61.517 I0 J2
N9870 G1 Y-14.317
N9880 Y-13.517 F200
N9890 X-62.168 F880
N9900 X-62.968 F200
N9910 Y-61.517 F880
N9920 G2 X-64.968 Y-63.517 I-2 J0
N9930 G1 X-79.968
N9940 G2 X-81.968 Y-61.517 I0 J2
N9950 G1 Y8.483
N9960 G2 X-79.968 Y10.483 I2 J0
N9970 G3 X-79.568 Y10.883 I0 J0.4 F800
N9980 G1 Y11.283
N9990 G19 G3 Y11.683 Z-2.3 J0 K0.4
N10000 G0 Z2.3
N10010 X-80.368
N10020 G1 Z-2.4 F75
N10030 G2 Y11.283 Z-2.8 J-0.4 K0 F50
N10040 G1 Y10.883
N10050 G17 G3 X-79.968 Y10.483 I0.4 J0
N10060 G1 X80.032 F880
N10070 G2 X82.032 Y8.483 I0 J-2
N10080 G1 Y-61.517
N10090 G2 X80.032 Y-63.517 I-2 J0
N10100 G1 X65.032
N10110 G2 X63.032 Y-61.517 I0 J2
N10120 G1 Y-14.317
N10130 Y-13.517 F200
N10140 X42.832 F880
N10150 X42.032 F200
N10160 Y-61.517 F880
N10170 G2 X40.032 Y-63.517 I-2 J0
N10180 G1 X-39.968
N10190 G2 X-41.968 Y-61.517 I0 J2
N10200 G1 Y-14.317
N10210 Y-13.517 F200
N10220 X-62.168 F880
N10230 X-62.968 F200
N10240 Y-61.517 F880
N10250 G2 X-64.968 Y-63.517 I-2 J0
N10260 G1 X-79.968
N10270 G2 X-81.968 Y-61.517 I0 J2
N10280 G1 Y8.483
N10290 G2 X-79.968 Y10.483 I2 J0
N10300 G3 X-79.568 Y10.883 I0 J0.4 F800
N10310 G1 Y11.283
N10320 G19 G3 Y11.683 Z-2.4 J0 K0.4
N10330 G0 Z2.3
N10340 X-80.368
N10350 G1 Z-2.5 F75
N10360 G2 Y11.283 Z-2.9 J-0.4 K0 F50
N10370 G1 Y10.883
N10380 G17 G3 X-79.968 Y10.483 I0.4 J0
N10390 G1 X80.032 F880
N10400 G2 X82.032 Y8.483 I0 J-2
N10410 G1 Y-61.517
N10420 G2 X80.032 Y-63.517 I-2 J0
N10430 G1 X65.032
N10440 G2 X63.032 Y-61.517 I0 J2
N10450 G1 Y-14.317
N10460 Y-13.517 F200
N10470 X42.832 F880
N10480 X42.032 F200
N10490 Y-61.517 F880
N10500 G2 X40.032 Y-63.517 I-2 J0
N10510 G1 X-39.968
N10520 G2 X-41.968 Y-61.517 I0 J2
N10530 G1 Y-14.317
N10540 Y-13.517 F200
N10550 X-62.168 F880
N10560 X-62.968 F200
N10570 Y-61.517 F880
N10580 G2 X-64.968 Y-63.517 I-2 J0
N10590 G1 X-79.968
N10600 G2 X-81.968 Y-61.517 I0 J2
N10610 G1 Y8.483
N10620 G2 X-79.968 Y10.483 I2 J0
N10630 G3 X-79.568 Y10.883 I0 J0.4 F800
N10640 G1 Y11.283
N10650 G19 G3 Y11.683 Z-2.5 J0 K0.4
N10660 G0 Z2.3
N10670 X-80.368
N10680 G1 Z-2.6 F75
N10690 G2 Y11.283 Z-3 J-0.4 K0 F50
N10700 G1 Y10.883
N10710 G17 G3 X-79.968 Y10.483 I0.4 J0
N10720 G1 X80.032 F880
N10730 G2 X82.032 Y8.483 I0 J-2
N10740 G1 Y-61.517
N10750 G2 X80.032 Y-63.517 I-2 J0
N10760 G1 X65.032
N10770 G2 X63.032 Y-61.517 I0 J2
N10780 G1 Y-14.317
N10790 Y-13.517 F200
N10800 X42.832 F880
N10810 X42.032 F200
N10820 Y-61.517 F880
N10830 G2 X40.032 Y-63.517 I-2 J0
N10840 G1 X-39.968
N10850 G2 X-41.968 Y-61.517 I0 J2
N10860 G1 Y-14.317
N10870 Y-13.517 F200
N10880 X-62.168 F880
N10890 X-62.968 F200
N10900 Y-61.517 F880
N10910 G2 X-64.968 Y-63.517 I-2 J0
N10920 G1 X-79.968
N10930 G2 X-81.968 Y-61.517 I0 J2
N10940 G1 Y8.483
N10950 G2 X-79.968 Y10.483 I2 J0
N10960 G3 X-79.568 Y10.883 I0 J0.4 F800
N10970 G1 Y11.283
N10980 G19 G3 Y11.683 Z-2.6 J0 K0.4
N10990 G0 Z2.3
N11000 X-80.368
N11010 G1 Z-2.7 F75
N11020 G2 Y11.283 Z-3.1 J-0.4 K0 F50
N11030 G1 Y10.883
N11040 G17 G3 X-79.968 Y10.483 I0.4 J0
N11050 G1 X80.032 F880
N11060 G2 X82.032 Y8.483 I0 J-2
N11070 G1 Y-61.517
N11080 G2 X80.032 Y-63.517 I-2 J0
N11090 G1 X65.032
N11100 G2 X63.032 Y-61.517 I0 J2
N11110 G1 Y-14.317
N11120 Y-13.517 F200
N11130 X42.832 F880
N11140 X42.032 F200
N11150 Y-61.517 F880
N11160 G2 X40.032 Y-63.517 I-2 J0
N11170 G1 X-39.968
N11180 G2 X-41.968 Y-61.517 I0 J2
N11190 G1 Y-14.317
N11200 Y-13.517 F200
N11210 X-62.168 F880
N11220 X-62.968 F200
N11230 Y-61.517 F880
N11240 G2 X-64.968 Y-63.517 I-2 J0
N11250 G1 X-79.968
N11260 G2 X-81.968 Y-61.517 I0 J2
N11270 G1 Y8.483
N11280 G2 X-79.968 Y10.483 I2 J0
N11290 G3 X-79.568 Y10.883 I0 J0.4 F800
N11300 G1 Y11.283
N11310 G19 G3 Y11.683 Z-2.7 J0 K0.4
N11320 G0 Z2.3
N11330 X-80.368
N11340 G1 Z-2.8 F75
N11350 G2 Y11.283 Z-3.2 J-0.4 K0 F50
N11360 G1 Y10.883
N11370 G17 G3 X-79.968 Y10.483 I0.4 J0
N11380 G1 X80.032 F880
N11390 G2 X82.032 Y8.483 I0 J-2
N11400 G1 Y-61.517
N11410 G2 X80.032 Y-63.517 I-2 J0
N11420 G1 X65.032
N11430 G2 X63.032 Y-61.517 I0 J2
N11440 G1 Y-14.317
N11450 Y-13.517 F200
N11460 X42.832 F880
N11470 X42.032 F200
N11480 Y-61.517 F880
N11490 G2 X40.032 Y-63.517 I-2 J0
N11500 G1 X-39.968
N11510 G2 X-41.968 Y-61.517 I0 J2
N11520 G1 Y-14.317
N11530 Y-13.517 F200
N11540 X-62.168 F880
N11550 X-62.968 F200
N11560 Y-61.517 F880
N11570 G2 X-64.968 Y-63.517 I-2 J0
N11580 G1 X-79.968
N11590 G2 X-81.968 Y-61.517 I0 J2
N11600 G1 Y8.483
N11610 G2 X-79.968 Y10.483 I2 J0
N11620 G3 X-79.568 Y10.883 I0 J0.4 F800
N11630 G1 Y11.283
N11640 G19 G3 Y11.683 Z-2.8 J0 K0.4
N11650 G0 Z2.3
N11660 X-80.368
N11670 G1 Z-2.9 F75
N11680 G2 Y11.283 Z-3.3 J-0.4 K0 F50
N11690 G1 Y10.883
N11700 G17 G3 X-79.968 Y10.483 I0.4 J0
N11710 G1 X-44.768 F880
N11720 X-43.968 F200
N11730 Z-3.2 F880
N11740 X-35.968
N11750 Z-3.3 F75
N11760 X35.232 F880
N11770 X36.032 F200
N11780 Z-3.2 F880
N11790 X44.032
N11800 Z-3.3 F75
N11810 X80.032 F880
N11820 G2 X82.032 Y8.483 I0 J-2
N11830 G1 Y-61.517
N11840 G2 X80.032 Y-63.517 I-2 J0
N11850 G1 X65.032
N11860 G2 X63.032 Y-61.517 I0 J2
N11870 G1 Y-14.317
N11880 Y-13.517 F200
N11890 X42.832 F880
N11900 X42.032 F200
N11910 Y-61.517 F880
N11920 G2 X40.032 Y-63.517 I-2 J0
N11930 G1 X4.832
N11940 X4.032 F200
N11950 Z-3.2 F880
N11960 X-3.968
N11970 Z-3.3 F75
N11980 X-39.968 F880
N11990 G2 X-41.968 Y-61.517 I0 J2
N12000 G1 Y-14.317
N12010 Y-13.517 F200
N12020 X-62.168 F880
N12030 X-62.968 F200
N12040 Y-61.517 F880
N12050 G2 X-64.968 Y-63.517 I-2 J0
N12060 G1 X-79.968
N12070 G2 X-81.968 Y-61.517 I0 J2
N12080 G1 Y8.483
N12090 G2 X-79.968 Y10.483 I2 J0
N12100 G3 X-79.568 Y10.883 I0 J0.4 F800
N12110 G1 Y11.283
N12120 G19 G3 Y11.683 Z-2.9 J0 K0.4
N12130 G0 Z2.3
N12140 X-80.368
N12150 G1 Z-3 F75
N12160 G2 Y11.283 Z-3.4 J-0.4 K0 F50
N12170 G1 Y10.883
N12180 G17 G3 X-79.968 Y10.483 I0.4 J0
N12190 G1 X-44.768 F880
N12200 X-43.968 F200
N12210 Z-3.2 F880
N12220 X-35.968
N12230 Z-3.4 F75
N12240 X35.232 F880
N12250 X36.032 F200
N12260 Z-3.2 F880
N12270 X44.032
N12280 Z-3.4 F75
N12290 X80.032 F880
N12300 G2 X82.032 Y8.483 I0 J-2
N12310 G1 Y-61.517
N12320 G2 X80.032 Y-63.517 I-2 J0
N12330 G1 X65.032
N12340 G2 X63.032 Y-61.517 I0 J2
N12350 G1 Y-14.317
N12360 Y-13.517 F200
N12370 X42.832 F880
N12380 X42.032 F200
N12390 Y-61.517 F880
N12400 G2 X40.032 Y-63.517 I-2 J0
N12410 G1 X4.832
N12420 X4.032 F200
N12430 Z-3.2 F880
N12440 X-3.968
N12450 Z-3.4 F75
N12460 X-39.968 F880
N12470 G2 X-41.968 Y-61.517 I0 J2
N12480 G1 Y-14.317
N12490 Y-13.517 F200
N12500 X-62.168 F880
N12510 X-62.968 F200
N12520 Y-61.517 F880
N12530 G2 X-64.968 Y-63.517 I-2 J0
N12540 G1 X-79.968
N12550 G2 X-81.968 Y-61.517 I0 J2
N12560 G1 Y8.483
N12570 G2 X-79.968 Y10.483 I2 J0
N12580 G3 X-79.568 Y10.883 I0 J0.4 F800
N12590 G1 Y11.283
N12600 G19 G3 Y11.683 Z-3 J0 K0.4
N12610 G0 Z2.3
N12620 X-80.368
N12630 G1 Z-3.1 F75
N12640 G2 Y11.283 Z-3.5 J-0.4 K0 F50
N12650 G1 Y10.883
N12660 G17 G3 X-79.968 Y10.483 I0.4 J0
N12670 G1 X-44.768 F880
N12680 X-43.968 F200
N12690 Z-3.2 F880
N12700 X-35.968
N12710 Z-3.5 F75
N12720 X35.232 F880
N12730 X36.032 F200
N12740 Z-3.2 F880
N12750 X44.032
N12760 Z-3.5 F75
N12770 X80.032 F880
N12780 G2 X82.032 Y8.483 I0 J-2
N12790 G1 Y-61.517
N12800 G2 X80.032 Y-63.517 I-2 J0
N12810 G1 X65.032
N12820 G2 X63.032 Y-61.517 I0 J2
N12830 G1 Y-14.317
N12840 Y-13.517 F200
N12850 X42.832 F880
N12860 X42.032 F200
N12870 Y-61.517 F880
N12880 G2 X40.032 Y-63.517 I-2 J0
N12890 G1 X4.832
N12900 X4.032 F200
N12910 Z-3.2 F880
N12920 X-3.968
N12930 Z-3.5 F75
N12940 X-39.968 F880
N12950 G2 X-41.968 Y-61.517 I0 J2
N12960 G1 Y-14.317
N12970 Y-13.517 F200
N12980 X-62.168 F880
N12990 X-62.968 F200
N13000 Y-61.517 F880
N13010 G2 X-64.968 Y-63.517 I-2 J0
N13020 G1 X-79.968
N13030 G2 X-81.968 Y-61.517 I0 J2
N13040 G1 Y8.483
N13050 G2 X-79.968 Y10.483 I2 J0
N13060 G3 X-79.568 Y10.883 I0 J0.4 F800
N13070 G1 Y11.283
N13080 G19 G3 Y11.683 Z-3.1 J0 K0.4
N13090 G0 Z2.3
N13100 X-80.368
N13110 G1 Z-3.2 F75
N13120 G2 Y11.283 Z-3.6 J-0.4 K0 F50
N13130 G1 Y10.883
N13140 G17 G3 X-79.968 Y10.483 I0.4 J0
N13150 G1 X-44.768 F880
N13160 X-43.968 F200
N13170 Z-3.2 F880
N13180 X-35.968
N13190 Z-3.6 F75
N13200 X35.232 F880
N13210 X36.032 F200
N13220 Z-3.2 F880
N13230 X44.032
N13240 Z-3.6 F75
N13250 X80.032 F880
N13260 G2 X82.032 Y8.483 I0 J-2
N13270 G1 Y-61.517
N13280 G2 X80.032 Y-63.517 I-2 J0
N13290 G1 X65.032
N13300 G2 X63.032 Y-61.517 I0 J2
N13310 G1 Y-14.317
N13320 Y-13.517 F200
N13330 X42.832 F880
N13340 X42.032 F200
N13350 Y-61.517 F880
N13360 G2 X40.032 Y-63.517 I-2 J0
N13370 G1 X4.832
N13380 X4.032 F200
N13390 Z-3.2 F880
N13400 X-3.968
N13410 Z-3.6 F75
N13420 X-39.968 F880
N13430 G2 X-41.968 Y-61.517 I0 J2
N13440 G1 Y-14.317
N13450 Y-13.517 F200
N13460 X-62.168 F880
N13470 X-62.968 F200
N13480 Y-61.517 F880
N13490 G2 X-64.968 Y-63.517 I-2 J0
N13500 G1 X-79.968
N13510 G2 X-81.968 Y-61.517 I0 J2
N13520 G1 Y8.483
N13530 G2 X-79.968 Y10.483 I2 J0
N13540 G3 X-79.568 Y10.883 I0 J0.4 F800
N13550 G1 Y11.283
N13560 G19 G3 Y11.683 Z-3.2 J0 K0.4
N13570 G0 Z2.3
N13580 X-80.368
N13590 G1 Z-3.3 F75
N13600 G2 Y11.283 Z-3.7 J-0.4 K0 F50
N13610 G1 Y10.883
N13620 G17 G3 X-79.968 Y10.483 I0.4 J0
N13630 G1 X-44.768 F880
N13640 X-43.968 F200
N13650 Z-3.2 F880
N13660 X-35.968
N13670 Z-3.7 F75
N13680 X35.232 F880
N13690 X36.032 F200
N13700 Z-3.2 F880
N13710 X44.032
N13720 Z-3.7 F75
N13730 X80.032 F880
N13740 G2 X82.032 Y8.483 I0 J-2
N13750 G1 Y-61.517
N13760 G2 X80.032 Y-63.517 I-2 J0
N13770 G1 X65.032
N13780 G2 X63.032 Y-61.517 I0 J2
N13790 G1 Y-14.317
N13800 Y-13.517 F200
N13810 X42.832 F880
N13820 X42.032 F200
N13830 Y-61.517 F880
N13840 G2 X40.032 Y-63.517 I-2 J0
N13850 G1 X4.832
N13860 X4.032 F200
N13870 Z-3.2 F880
N13880 X-3.968
N13890 Z-3.7 F75
N13900 X-39.968 F880
N13910 G2 X-41.968 Y-61.517 I0 J2
N13920 G1 Y-14.317
N13930 Y-13.517 F200
N13940 X-62.168 F880
N13950 X-62.968 F200
N13960 Y-61.517 F880
N13970 G2 X-64.968 Y-63.517 I-2 J0
N13980 G1 X-79.968
N13990 G2 X-81.968 Y-61.517 I0 J2
N14000 G1 Y8.483
N14010 G2 X-79.968 Y10.483 I2 J0
N14020 G3 X-79.568 Y10.883 I0 J0.4 F800
N14030 G1 Y11.283
N14040 G19 G3 Y11.683 Z-3.3 J0 K0.4
N14050 G0 Z2.3
N14060 X-80.368
N14070 G1 Z-3.4 F75
N14080 G2 Y11.283 Z-3.8 J-0.4 K0 F50
N14090 G1 Y10.883
N14100 G17 G3 X-79.968 Y10.483 I0.4 J0
N14110 G1 X-44.768 F880
N14120 X-43.968 F200
N14130 Z-3.2 F880
N14140 X-35.968
N14150 Z-3.8 F75
N14160 X35.232 F880
N14170 X36.032 F200
N14180 Z-3.2 F880
N14190 X44.032
N14200 Z-3.8 F75
N14210 X80.032 F880
N14220 G2 X82.032 Y8.483 I0 J-2
N14230 G1 Y-61.517
N14240 G2 X80.032 Y-63.517 I-2 J0
N14250 G1 X65.032
N14260 G2 X63.032 Y-61.517 I0 J2
N14270 G1 Y-14.317
N14280 Y-13.517 F200
N14290 X42.832 F880
N14300 X42.032 F200
N14310 Y-61.517 F880
N14320 G2 X40.032 Y-63.517 I-2 J0
N14330 G1 X4.832
N14340 X4.032 F200
N14350 Z-3.2 F880
N14360 X-3.968
N14370 Z-3.8 F75
N14380 X-39.968 F880
N14390 G2 X-41.968 Y-61.517 I0 J2
N14400 G1 Y-14.317
N14410 Y-13.517 F200
N14420 X-62.168 F880
N14430 X-62.968 F200
N14440 Y-61.517 F880
N14450 G2 X-64.968 Y-63.517 I-2 J0
N14460 G1 X-79.968
N14470 G2 X-81.968 Y-61.517 I0 J2
N14480 G1 Y8.483
N14490 G2 X-79.968 Y10.483 I2 J0
N14500 G3 X-79.568 Y10.883 I0 J0.4 F800
N14510 G1 Y11.283
N14520 G19 G3 Y11.683 Z-3.4 J0 K0.4
N14530 G0 Z2.3
N14540 X-80.368
N14550 G1 Z-3.5 F75
N14560 G2 Y11.283 Z-3.9 J-0.4 K0 F50
N14570 G1 Y10.883
N14580 G17 G3 X-79.968 Y10.483 I0.4 J0
N14590 G1 X-44.768 F880
N14600 X-43.968 F200
N14610 Z-3.2 F880
N14620 X-35.968
N14630 Z-3.9 F75
N14640 X35.232 F880
N14650 X36.032 F200
N14660 Z-3.2 F880
N14670 X44.032
N14680 Z-3.9 F75
N14690 X80.032 F880
N14700 G2 X82.032 Y8.483 I0 J-2
N14710 G1 Y-61.517
N14720 G2 X80.032 Y-63.517 I-2 J0
N14730 G1 X65.032
N14740 G2 X63.032 Y-61.517 I0 J2
N14750 G1 Y-14.317
N14760 Y-13.517 F200
N14770 X42.832 F880
N14780 X42.032 F200
N14790 Y-61.517 F880
N14800 G2 X40.032 Y-63.517 I-2 J0
N14810 G1 X4.832
N14820 X4.032 F200
N14830 Z-3.2 F880
N14840 X-3.968
N14850 Z-3.9 F75
N14860 X-39.968 F880
N14870 G2 X-41.968 Y-61.517 I0 J2
N14880 G1 Y-14.317
N14890 Y-13.517 F200
N14900 X-62.168 F880
N14910 X-62.968 F200
N14920 Y-61.517 F880
N14930 G2 X-64.968 Y-63.517 I-2 J0
N14940 G1 X-79.968
N14950 G2 X-81.968 Y-61.517 I0 J2
N14960 G1 Y8.483
N14970 G2 X-79.968 Y10.483 I2 J0
N14980 G3 X-79.568 Y10.883 I0 J0.4 F800
N14990 G1 Y11.283
N15000 G19 G3 Y11.683 Z-3.5 J0 K0.4
N15010 G0 Z2.3
N15020 X-80.368
N15030 G1 Z-3.6 F75
N15040 G2 Y11.283 Z-4 J-0.4 K0 F50
N15050 G1 Y10.883
N15060 G17 G3 X-79.968 Y10.483 I0.4 J0
N15070 G1 X-44.768 F880
N15080 X-43.968 F200
N15090 Z-3.2 F880
N15100 X-35.968
N15110 Z-4 F75
N15120 X35.232 F880
N15130 X36.032 F200
N15140 Z-3.2 F880
N15150 X44.032
N15160 Z-4 F75
N15170 X80.032 F880
N15180 G2 X82.032 Y8.483 I0 J-2
N15190 G1 Y-61.517
N15200 G2 X80.032 Y-63.517 I-2 J0
N15210 G1 X65.032
N15220 G2 X63.032 Y-61.517 I0 J2
N15230 G1 Y-14.317
N15240 Y-13.517 F200
N15250 X42.832 F880
N15260 X42.032 F200
N15270 Y-61.517 F880
N15280 G2 X40.032 Y-63.517 I-2 J0
N15290 G1 X4.832
N15300 X4.032 F200
N15310 Z-3.2 F880
N15320 X-3.968
N15330 Z-4 F75
N15340 X-39.968 F880
N15350 G2 X-41.968 Y-61.517 I0 J2
N15360 G1 Y-14.317
N15370 Y-13.517 F200
N15380 X-62.168 F880
N15390 X-62.968 F200
N15400 Y-61.517 F880
N15410 G2 X-64.968 Y-63.517 I-2 J0
N15420 G1 X-79.968
N15430 G2 X-81.968 Y-61.517 I0 J2
N15440 G1 Y8.483
N15450 G2 X-79.968 Y10.483 I2 J0
N15460 G3 X-79.568 Y10.883 I0 J0.4 F800
N15470 G1 Y11.283
N15480 G19 G3 Y11.683 Z-3.6 J0 K0.4
N15490 G0 Z2.3
N15500 X-80.368
N15510 G1 Z-3.7 F75
N15520 G2 Y11.283 Z-4.1 J-0.4 K0 F50
N15530 G1 Y10.883
N15540 G17 G3 X-79.968 Y10.483 I0.4 J0
N15550 G1 X-44.768 F880
N15560 X-43.968 F200
N15570 Z-3.2 F880
N15580 X-35.968
N15590 Z-4.1 F75
N15600 X35.232 F880
N15610 X36.032 F200
N15620 Z-3.2 F880
N15630 X44.032
N15640 Z-4.1 F75
N15650 X80.032 F880
N15660 G2 X82.032 Y8.483 I0 J-2
N15670 G1 Y-61.517
N15680 G2 X80.032 Y-63.517 I-2 J0
N15690 G1 X65.032
N15700 G2 X63.032 Y-61.517 I0 J2
N15710 G1 Y-14.317
N15720 Y-13.517 F200
N15730 X42.832 F880
N15740 X42.032 F200
N15750 Y-61.517 F880
N15760 G2 X40.032 Y-63.517 I-2 J0
N15770 G1 X4.832
N15780 X4.032 F200
N15790 Z-3.2 F880
N15800 X-3.968
N15810 Z-4.1 F75
N15820 X-39.968 F880
N15830 G2 X-41.968 Y-61.517 I0 J2
N15840 G1 Y-14.317
N15850 Y-13.517 F200
N15860 X-62.168 F880
N15870 X-62.968 F200
N15880 Y-61.517 F880
N15890 G2 X-64.968 Y-63.517 I-2 J0
N15900 G1 X-79.968
N15910 G2 X-81.968 Y-61.517 I0 J2
N15920 G1 Y8.483
N15930 G2 X-79.968 Y10.483 I2 J0
N15940 G3 X-79.568 Y10.883 I0 J0.4 F800
N15950 G1 Y11.283
N15960 G19 G3 Y11.683 Z-3.7 J0 K0.4
N15970 G0 Z2.3
N15980 X-80.368
N15990 G1 Z-3.8 F75
N16000 G2 Y11.283 Z-4.2 J-0.4 K0 F50
N16010 G1 Y10.883
N16020 G17 G3 X-79.968 Y10.483 I0.4 J0
N16030 G1 X-44.768 F880
N16040 X-43.968 F200
N16050 Z-3.2 F880
N16060 X-35.968
N16070 Z-4.2 F75
N16080 X35.232 F880
N16090 X36.032 F200
N16100 Z-3.2 F880
N16110 X44.032
N16120 Z-4.2 F75
N16130 X80.032 F880
N16140 G2 X82.032 Y8.483 I0 J-2
N16150 G1 Y-61.517
N16160 G2 X80.032 Y-63.517 I-2 J0
N16170 G1 X65.032
N16180 G2 X63.032 Y-61.517 I0 J2
N16190 G1 Y-14.317
N16200 Y-13.517 F200
N16210 X42.832 F880
N16220 X42.032 F200
N16230 Y-61.517 F880
N16240 G2 X40.032 Y-63.517 I-2 J0
N16250 G1 X4.832
N16260 X4.032 F200
N16270 Z-3.2 F880
N16280 X-3.968
N16290 Z-4.2 F75
N16300 X-39.968 F880
N16310 G2 X-41.968 Y-61.517 I0 J2
N16320 G1 Y-14.317
N16330 Y-13.517 F200
N16340 X-62.168 F880
N16350 X-62.968 F200
N16360 Y-61.517 F880
N16370 G2 X-64.968 Y-63.517 I-2 J0
N16380 G1 X-79.968
N16390 G2 X-81.968 Y-61.517 I0 J2
N16400 G1 Y8.483
N16410 G2 X-79.968 Y10.483 I2 J0
N16420 G3 X-79.568 Y10.883 I0 J0.4 F800
N16430 G1 Y11.283
N16440 G19 G3 Y11.683 Z-3.8 J0 K0.4
N16450 G0 Z2.3

(2D 4)
N16460 G17
N16470 G0 X80.368 Y8.317
N16480 G1 Z2.3 F75
N16490 Z0.6
N16500 G19 G3 Y8.717 Z0.2 J0.4 K0 F50
N16510 G1 Y9.117
N16520 G17 G3 X79.968 Y9.517 I-0.4 J0
N16530 G1 X-80.032 F800
N16540 G2 X-82.032 Y11.517 I0 J2
N16550 G1 Y61.517
N16560 G2 X-80.032 Y63.517 I2 J0
N16570 G1 X79.968
N16580 G2 X81.968 Y61.517 I0 J-2
N16590 G1 Y11.517
N16600 G2 X79.968 Y9.517 I-2 J0
N16610 G3 X79.568 Y9.117 I0 J-0.4
N16620 G1 Y8.717
N16630 G19 G2 Y8.317 Z0.6 J0 K0.4
N16640 G0 Z2.3
N16650 X80.368
N16660 G1 Z0.5 F75
N16670 G3 Y8.717 Z0.1 J0.4 K0 F50
N16680 G1 Y9.117
N16690 G17 G3 X79.968 Y9.517 I-0.4 J0
N16700 G1 X-80.032 F800
N16710 G2 X-82.032 Y11.517 I0 J2
N16720 G1 Y61.517
N16730 G2 X-80.032 Y63.517 I2 J0
N16740 G1 X79.968
N16750 G2 X81.968 Y61.517 I0 J-2
N16760 G1 Y11.517
N16770 G2 X79.968 Y9.517 I-2 J0
N16780 G3 X79.568 Y9.117 I0 J-0.4
N16790 G1 Y8.717
N16800 G19 G2 Y8.317 Z0.5 J0 K0.4
N16810 G0 Z2.3
N16820 X80.368
N16830 G1 Z0.4 F75
N16840 G3 Y8.717 Z0 J0.4 K0 F50
N16850 G1 Y9.117
N16860 G17 G3 X79.968 Y9.517 I-0.4 J0
N16870 G1 X-80.032 F800
N16880 G2 X-82.032 Y11.517 I0 J2
N16890 G1 Y61.517
N16900 G2 X-80.032 Y63.517 I2 J0
N16910 G1 X79.968
N16920 G2 X81.968 Y61.517 I0 J-2
N16930 G1 Y11.517
N16940 G2 X79.968 Y9.517 I-2 J0
N16950 G3 X79.568 Y9.117 I0 J-0.4
N16960 G1 Y8.717
N16970 G19 G2 Y8.317 Z0.4 J0 K0.4
N16980 G0 Z2.3
N16990 X80.368
N17000 G1 Z0.3 F75
N17010 G3 Y8.717 Z-0.1 J0.4 K0 F50
N17020 G1 Y9.117
N17030 G17 G3 X79.968 Y9.517 I-0.4 J0
N17040 G1 X-80.032 F800
N17050 G2 X-82.032 Y11.517 I0 J2
N17060 G1 Y61.517
N17070 G2 X-80.032 Y63.517 I2 J0
N17080 G1 X79.968
N17090 G2 X81.968 Y61.517 I0 J-2
N17100 G1 Y11.517
N17110 G2 X79.968 Y9.517 I-2 J0
N17120 G3 X79.568 Y9.117 I0 J-0.4
N17130 G1 Y8.717
N17140 G19 G2 Y8.317 Z0.3 J0 K0.4
N17150 G0 Z2.3
N17160 X80.368
N17170 G1 Z0.2 F75
N17180 G3 Y8.717 Z-0.2 J0.4 K0 F50
N17190 G1 Y9.117
N17200 G17 G3 X79.968 Y9.517 I-0.4 J0
N17210 G1 X-80.032 F800
N17220 G2 X-82.032 Y11.517 I0 J2
N17230 G1 Y61.517
N17240 G2 X-80.032 Y63.517 I2 J0
N17250 G1 X79.968
N17260 G2 X81.968 Y61.517 I0 J-2
N17270 G1 Y11.517
N17280 G2 X79.968 Y9.517 I-2 J0
N17290 G3 X79.568 Y9.117 I0 J-0.4
N17300 G1 Y8.717
N17310 G19 G2 Y8.317 Z0.2 J0 K0.4
N17320 G0 Z2.3
N17330 X80.368
N17340 G1 Z0.1 F75
N17350 G3 Y8.717 Z-0.3 J0.4 K0 F50
N17360 G1 Y9.117
N17370 G17 G3 X79.968 Y9.517 I-0.4 J0
N17380 G1 X-80.032 F800
N17390 G2 X-82.032 Y11.517 I0 J2
N17400 G1 Y61.517
N17410 G2 X-80.032 Y63.517 I2 J0
N17420 G1 X79.968
N17430 G2 X81.968 Y61.517 I0 J-2
N17440 G1 Y11.517
N17450 G2 X79.968 Y9.517 I-2 J0
N17460 G3 X79.568 Y9.117 I0 J-0.4
N17470 G1 Y8.717
N17480 G19 G2 Y8.317 Z0.1 J0 K0.4
N17490 G0 Z2.3
N17500 X80.368
N17510 G1 Z0 F75
N17520 G3 Y8.717 Z-0.4 J0.4 K0 F50
N17530 G1 Y9.117
N17540 G17 G3 X79.968 Y9.517 I-0.4 J0
N17550 G1 X-80.032 F800
N17560 G2 X-82.032 Y11.517 I0 J2
N17570 G1 Y61.517
N17580 G2 X-80.032 Y63.517 I2 J0
N17590 G1 X79.968
N17600 G2 X81.968 Y61.517 I0 J-2
N17610 G1 Y11.517
N17620 G2 X79.968 Y9.517 I-2 J0
N17630 G3 X79.568 Y9.117 I0 J-0.4
N17640 G1 Y8.717
N17650 G19 G2 Y8.317 Z0 J0 K0.4
N17660 G0 Z2.3
N17670 X80.368
N17680 G1 Z-0.1 F75
N17690 G3 Y8.717 Z-0.5 J0.4 K0 F50
N17700 G1 Y9.117
N17710 G17 G3 X79.968 Y9.517 I-0.4 J0
N17720 G1 X-80.032 F800
N17730 G2 X-82.032 Y11.517 I0 J2
N17740 G1 Y61.517
N17750 G2 X-80.032 Y63.517 I2 J0
N17760 G1 X79.968
N17770 G2 X81.968 Y61.517 I0 J-2
N17780 G1 Y11.517
N17790 G2 X79.968 Y9.517 I-2 J0
N17800 G3 X79.568 Y9.117 I0 J-0.4
N17810 G1 Y8.717
N17820 G19 G2 Y8.317 Z-0.1 J0 K0.4
N17830 G0 Z2.3
N17840 X80.368
N17850 G1 Z-0.2 F75
N17860 G3 Y8.717 Z-0.6 J0.4 K0 F50
N17870 G1 Y9.117
N17880 G17 G3 X79.968 Y9.517 I-0.4 J0
N17890 G1 X-80.032 F800
N17900 G2 X-82.032 Y11.517 I0 J2
N17910 G1 Y61.517
N17920 G2 X-80.032 Y63.517 I2 J0
N17930 G1 X79.968
N17940 G2 X81.968 Y61.517 I0 J-2
N17950 G1 Y11.517
N17960 G2 X79.968 Y9.517 I-2 J0
N17970 G3 X79.568 Y9.117 I0 J-0.4
N17980 G1 Y8.717
N17990 G19 G2 Y8.317 Z-0.2 J0 K0.4
N18000 G0 Z2.3
N18010 X80.368
N18020 G1 Z-0.3 F75
N18030 G3 Y8.717 Z-0.7 J0.4 K0 F50
N18040 G1 Y9.117
N18050 G17 G3 X79.968 Y9.517 I-0.4 J0
N18060 G1 X-80.032 F800
N18070 G2 X-82.032 Y11.517 I0 J2
N18080 G1 Y61.517
N18090 G2 X-80.032 Y63.517 I2 J0
N18100 G1 X79.968
N18110 G2 X81.968 Y61.517 I0 J-2
N18120 G1 Y11.517
N18130 G2 X79.968 Y9.517 I-2 J0
N18140 G3 X79.568 Y9.117 I0 J-0.4
N18150 G1 Y8.717
N18160 G19 G2 Y8.317 Z-0.3 J0 K0.4
N18170 G0 Z2.3
N18180 X80.368
N18190 G1 Z-0.4 F75
N18200 G3 Y8.717 Z-0.8 J0.4 K0 F50
N18210 G1 Y9.117
N18220 G17 G3 X79.968 Y9.517 I-0.4 J0
N18230 G1 X-80.032 F800
N18240 G2 X-82.032 Y11.517 I0 J2
N18250 G1 Y61.517
N18260 G2 X-80.032 Y63.517 I2 J0
N18270 G1 X79.968
N18280 G2 X81.968 Y61.517 I0 J-2
N18290 G1 Y11.517
N18300 G2 X79.968 Y9.517 I-2 J0
N18310 G3 X79.568 Y9.117 I0 J-0.4
N18320 G1 Y8.717
N18330 G19 G2 Y8.317 Z-0.4 J0 K0.4
N18340 G0 Z2.3
N18350 X80.368
N18360 G1 Z-0.5 F75
N18370 G3 Y8.717 Z-0.9 J0.4 K0 F50
N18380 G1 Y9.117
N18390 G17 G3 X79.968 Y9.517 I-0.4 J0
N18400 G1 X-80.032 F800
N18410 G2 X-82.032 Y11.517 I0 J2
N18420 G1 Y61.517
N18430 G2 X-80.032 Y63.517 I2 J0
N18440 G1 X79.968
N18450 G2 X81.968 Y61.517 I0 J-2
N18460 G1 Y11.517
N18470 G2 X79.968 Y9.517 I-2 J0
N18480 G3 X79.568 Y9.117 I0 J-0.4
N18490 G1 Y8.717
N18500 G19 G2 Y8.317 Z-0.5 J0 K0.4
N18510 G0 Z2.3
N18520 X80.368
N18530 G1 Z-0.6 F75
N18540 G3 Y8.717 Z-1 J0.4 K0 F50
N18550 G1 Y9.117
N18560 G17 G3 X79.968 Y9.517 I-0.4 J0
N18570 G1 X-80.032 F800
N18580 G2 X-82.032 Y11.517 I0 J2
N18590 G1 Y61.517
N18600 G2 X-80.032 Y63.517 I2 J0
N18610 G1 X79.968
N18620 G2 X81.968 Y61.517 I0 J-2
N18630 G1 Y11.517
N18640 G2 X79.968 Y9.517 I-2 J0
N18650 G3 X79.568 Y9.117 I0 J-0.4
N18660 G1 Y8.717
N18670 G19 G2 Y8.317 Z-0.6 J0 K0.4
N18680 G0 Z2.3
N18690 X80.368
N18700 G1 Z-0.7 F75
N18710 G3 Y8.717 Z-1.1 J0.4 K0 F50
N18720 G1 Y9.117
N18730 G17 G3 X79.968 Y9.517 I-0.4 J0
N18740 G1 X-80.032 F800
N18750 G2 X-82.032 Y11.517 I0 J2
N18760 G1 Y61.517
N18770 G2 X-80.032 Y63.517 I2 J0
N18780 G1 X79.968
N18790 G2 X81.968 Y61.517 I0 J-2
N18800 G1 Y11.517
N18810 G2 X79.968 Y9.517 I-2 J0
N18820 G3 X79.568 Y9.117 I0 J-0.4
N18830 G1 Y8.717
N18840 G19 G2 Y8.317 Z-0.7 J0 K0.4
N18850 G0 Z2.3
N18860 X80.368
N18870 G1 Z-0.8 F75
N18880 G3 Y8.717 Z-1.2 J0.4 K0 F50
N18890 G1 Y9.117
N18900 G17 G3 X79.968 Y9.517 I-0.4 J0
N18910 G1 X-80.032 F800
N18920 G2 X-82.032 Y11.517 I0 J2
N18930 G1 Y61.517
N18940 G2 X-80.032 Y63.517 I2 J0
N18950 G1 X79.968
N18960 G2 X81.968 Y61.517 I0 J-2
N18970 G1 Y11.517
N18980 G2 X79.968 Y9.517 I-2 J0
N18990 G3 X79.568 Y9.117 I0 J-0.4
N19000 G1 Y8.717
N19010 G19 G2 Y8.317 Z-0.8 J0 K0.4
N19020 G0 Z2.3
N19030 X80.368
N19040 G1 Z-0.9 F75
N19050 G3 Y8.717 Z-1.3 J0.4 K0 F50
N19060 G1 Y9.117
N19070 G17 G3 X79.968 Y9.517 I-0.4 J0
N19080 G1 X-80.032 F800
N19090 G2 X-82.032 Y11.517 I0 J2
N19100 G1 Y61.517
N19110 G2 X-80.032 Y63.517 I2 J0
N19120 G1 X79.968
N19130 G2 X81.968 Y61.517 I0 J-2
N19140 G1 Y11.517
N19150 G2 X79.968 Y9.517 I-2 J0
N19160 G3 X79.568 Y9.117 I0 J-0.4
N19170 G1 Y8.717
N19180 G19 G2 Y8.317 Z-0.9 J0 K0.4
N19190 G0 Z2.3
N19200 X80.368
N19210 G1 Z-1 F75
N19220 G3 Y8.717 Z-1.4 J0.4 K0 F50
N19230 G1 Y9.117
N19240 G17 G3 X79.968 Y9.517 I-0.4 J0
N19250 G1 X-80.032 F800
N19260 G2 X-82.032 Y11.517 I0 J2
N19270 G1 Y61.517
N19280 G2 X-80.032 Y63.517 I2 J0
N19290 G1 X79.968
N19300 G2 X81.968 Y61.517 I0 J-2
N19310 G1 Y11.517
N19320 G2 X79.968 Y9.517 I-2 J0
N19330 G3 X79.568 Y9.117 I0 J-0.4
N19340 G1 Y8.717
N19350 G19 G2 Y8.317 Z-1 J0 K0.4
N19360 G0 Z2.3
N19370 X80.368
N19380 G1 Z-1.1 F75
N19390 G3 Y8.717 Z-1.5 J0.4 K0 F50
N19400 G1 Y9.117
N19410 G17 G3 X79.968 Y9.517 I-0.4 J0
N19420 G1 X-80.032 F800
N19430 G2 X-82.032 Y11.517 I0 J2
N19440 G1 Y61.517
N19450 G2 X-80.032 Y63.517 I2 J0
N19460 G1 X79.968
N19470 G2 X81.968 Y61.517 I0 J-2
N19480 G1 Y11.517
N19490 G2 X79.968 Y9.517 I-2 J0
N19500 G3 X79.568 Y9.117 I0 J-0.4
N19510 G1 Y8.717
N19520 G19 G2 Y8.317 Z-1.1 J0 K0.4
N19530 G0 Z2.3
N19540 X80.368
N19550 G1 Z-1.2 F75
N19560 G3 Y8.717 Z-1.6 J0.4 K0 F50
N19570 G1 Y9.117
N19580 G17 G3 X79.968 Y9.517 I-0.4 J0
N19590 G1 X-80.032 F800
N19600 G2 X-82.032 Y11.517 I0 J2
N19610 G1 Y61.517
N19620 G2 X-80.032 Y63.517 I2 J0
N19630 G1 X79.968
N19640 G2 X81.968 Y61.517 I0 J-2
N19650 G1 Y11.517
N19660 G2 X79.968 Y9.517 I-2 J0
N19670 G3 X79.568 Y9.117 I0 J-0.4
N19680 G1 Y8.717
N19690 G19 G2 Y8.317 Z-1.2 J0 K0.4
N19700 G0 Z2.3
N19710 X80.368
N19720 G1 Z-1.3 F75
N19730 G3 Y8.717 Z-1.7 J0.4 K0 F50
N19740 G1 Y9.117
N19750 G17 G3 X79.968 Y9.517 I-0.4 J0
N19760 G1 X-80.032 F800
N19770 G2 X-82.032 Y11.517 I0 J2
N19780 G1 Y61.517
N19790 G2 X-80.032 Y63.517 I2 J0
N19800 G1 X79.968
N19810 G2 X81.968 Y61.517 I0 J-2
N19820 G1 Y11.517
N19830 G2 X79.968 Y9.517 I-2 J0
N19840 G3 X79.568 Y9.117 I0 J-0.4
N19850 G1 Y8.717
N19860 G19 G2 Y8.317 Z-1.3 J0 K0.4
N19870 G0 Z2.3
N19880 X80.368
N19890 G1 Z-1.4 F75
N19900 G3 Y8.717 Z-1.8 J0.4 K0 F50
N19910 G1 Y9.117
N19920 G17 G3 X79.968 Y9.517 I-0.4 J0
N19930 G1 X-80.032 F800
N19940 G2 X-82.032 Y11.517 I0 J2
N19950 G1 Y61.517
N19960 G2 X-80.032 Y63.517 I2 J0
N19970 G1 X79.968
N19980 G2 X81.968 Y61.517 I0 J-2
N19990 G1 Y11.517
N20000 G2 X79.968 Y9.517 I-2 J0
N20010 G3 X79.568 Y9.117 I0 J-0.4
N20020 G1 Y8.717
N20030 G19 G2 Y8.317 Z-1.4 J0 K0.4
N20040 G0 Z2.3
N20050 X80.368
N20060 G1 Z-1.5 F75
N20070 G3 Y8.717 Z-1.9 J0.4 K0 F50
N20080 G1 Y9.117
N20090 G17 G3 X79.968 Y9.517 I-0.4 J0
N20100 G1 X-80.032 F800
N20110 G2 X-82.032 Y11.517 I0 J2
N20120 G1 Y61.517
N20130 G2 X-80.032 Y63.517 I2 J0
N20140 G1 X79.968
N20150 G2 X81.968 Y61.517 I0 J-2
N20160 G1 Y11.517
N20170 G2 X79.968 Y9.517 I-2 J0
N20180 G3 X79.568 Y9.117 I0 J-0.4
N20190 G1 Y8.717
N20200 G19 G2 Y8.317 Z-1.5 J0 K0.4
N20210 G0 Z2.3
N20220 X80.368
N20230 G1 Z-1.6 F75
N20240 G3 Y8.717 Z-2 J0.4 K0 F50
N20250 G1 Y9.117
N20260 G17 G3 X79.968 Y9.517 I-0.4 J0
N20270 G1 X-80.032 F800
N20280 G2 X-82.032 Y11.517 I0 J2
N20290 G1 Y61.517
N20300 G2 X-80.032 Y63.517 I2 J0
N20310 G1 X79.968
N20320 G2 X81.968 Y61.517 I0 J-2
N20330 G1 Y11.517
N20340 G2 X79.968 Y9.517 I-2 J0
N20350 G3 X79.568 Y9.117 I0 J-0.4
N20360 G1 Y8.717
N20370 G19 G2 Y8.317 Z-1.6 J0 K0.4
N20380 G0 Z2.3
N20390 X80.368
N20400 G1 Z-1.7 F75
N20410 G3 Y8.717 Z-2.1 J0.4 K0 F50
N20420 G1 Y9.117
N20430 G17 G3 X79.968 Y9.517 I-0.4 J0
N20440 G1 X-80.032 F800
N20450 G2 X-82.032 Y11.517 I0 J2
N20460 G1 Y61.517
N20470 G2 X-80.032 Y63.517 I2 J0
N20480 G1 X79.968
N20490 G2 X81.968 Y61.517 I0 J-2
N20500 G1 Y11.517
N20510 G2 X79.968 Y9.517 I-2 J0
N20520 G3 X79.568 Y9.117 I0 J-0.4
N20530 G1 Y8.717
N20540 G19 G2 Y8.317 Z-1.7 J0 K0.4
N20550 G0 Z2.3
N20560 X80.368
N20570 G1 Z-1.8 F75
N20580 G3 Y8.717 Z-2.2 J0.4 K0 F50
N20590 G1 Y9.117
N20600 G17 G3 X79.968 Y9.517 I-0.4 J0
N20610 G1 X-80.032 F800
N20620 G2 X-82.032 Y11.517 I0 J2
N20630 G1 Y61.517
N20640 G2 X-80.032 Y63.517 I2 J0
N20650 G1 X79.968
N20660 G2 X81.968 Y61.517 I0 J-2
N20670 G1 Y11.517
N20680 G2 X79.968 Y9.517 I-2 J0
N20690 G3 X79.568 Y9.117 I0 J-0.4
N20700 G1 Y8.717
N20710 G19 G2 Y8.317 Z-1.8 J0 K0.4
N20720 G0 Z2.3
N20730 X80.368
N20740 G1 Z-1.9 F75
N20750 G3 Y8.717 Z-2.3 J0.4 K0 F50
N20760 G1 Y9.117
N20770 G17 G3 X79.968 Y9.517 I-0.4 J0
N20780 G1 X-80.032 F800
N20790 G2 X-82.032 Y11.517 I0 J2
N20800 G1 Y61.517
N20810 G2 X-80.032 Y63.517 I2 J0
N20820 G1 X79.968
N20830 G2 X81.968 Y61.517 I0 J-2
N20840 G1 Y11.517
N20850 G2 X79.968 Y9.517 I-2 J0
N20860 G3 X79.568 Y9.117 I0 J-0.4
N20870 G1 Y8.717
N20880 G19 G2 Y8.317 Z-1.9 J0 K0.4
N20890 G0 Z2.3
N20900 X80.368
N20910 G1 Z-2 F75
N20920 G3 Y8.717 Z-2.4 J0.4 K0 F50
N20930 G1 Y9.117
N20940 G17 G3 X79.968 Y9.517 I-0.4 J0
N20950 G1 X-80.032 F800
N20960 G2 X-82.032 Y11.517 I0 J2
N20970 G1 Y61.517
N20980 G2 X-80.032 Y63.517 I2 J0
N20990 G1 X79.968
N21000 G2 X81.968 Y61.517 I0 J-2
N21010 G1 Y11.517
N21020 G2 X79.968 Y9.517 I-2 J0
N21030 G3 X79.568 Y9.117 I0 J-0.4
N21040 G1 Y8.717
N21050 G19 G2 Y8.317 Z-2 J0 K0.4
N21060 G0 Z2.3
N21070 X80.368
N21080 G1 Z-2.1 F75
N21090 G3 Y8.717 Z-2.5 J0.4 K0 F50
N21100 G1 Y9.117
N21110 G17 G3 X79.968 Y9.517 I-0.4 J0
N21120 G1 X-80.032 F800
N21130 G2 X-82.032 Y11.517 I0 J2
N21140 G1 Y61.517
N21150 G2 X-80.032 Y63.517 I2 J0
N21160 G1 X79.968
N21170 G2 X81.968 Y61.517 I0 J-2
N21180 G1 Y11.517
N21190 G2 X79.968 Y9.517 I-2 J0
N21200 G3 X79.568 Y9.117 I0 J-0.4
N21210 G1 Y8.717
N21220 G19 G2 Y8.317 Z-2.1 J0 K0.4
N21230 G0 Z2.3
N21240 X80.368
N21250 G1 Z-2.2 F75
N21260 G3 Y8.717 Z-2.6 J0.4 K0 F50
N21270 G1 Y9.117
N21280 G17 G3 X79.968 Y9.517 I-0.4 J0
N21290 G1 X-80.032 F800
N21300 G2 X-82.032 Y11.517 I0 J2
N21310 G1 Y61.517
N21320 G2 X-80.032 Y63.517 I2 J0
N21330 G1 X79.968
N21340 G2 X81.968 Y61.517 I0 J-2
N21350 G1 Y11.517
N21360 G2 X79.968 Y9.517 I-2 J0
N21370 G3 X79.568 Y9.117 I0 J-0.4
N21380 G1 Y8.717
N21390 G19 G2 Y8.317 Z-2.2 J0 K0.4
N21400 G0 Z2.3
N21410 X80.368
N21420 G1 Z-2.3 F75
N21430 G3 Y8.717 Z-2.7 J0.4 K0 F50
N21440 G1 Y9.117
N21450 G17 G3 X79.968 Y9.517 I-0.4 J0
N21460 G1 X-80.032 F800
N21470 G2 X-82.032 Y11.517 I0 J2
N21480 G1 Y61.517
N21490 G2 X-80.032 Y63.517 I2 J0
N21500 G1 X79.968
N21510 G2 X81.968 Y61.517 I0 J-2
N21520 G1 Y11.517
N21530 G2 X79.968 Y9.517 I-2 J0
N21540 G3 X79.568 Y9.117 I0 J-0.4
N21550 G1 Y8.717
N21560 G19 G2 Y8.317 Z-2.3 J0 K0.4
N21570 G0 Z2.3
N21580 X80.368
N21590 G1 Z-2.4 F75
N21600 G3 Y8.717 Z-2.8 J0.4 K0 F50
N21610 G1 Y9.117
N21620 G17 G3 X79.968 Y9.517 I-0.4 J0
N21630 G1 X-80.032 F800
N21640 G2 X-82.032 Y11.517 I0 J2
N21650 G1 Y61.517
N21660 G2 X-80.032 Y63.517 I2 J0
N21670 G1 X79.968
N21680 G2 X81.968 Y61.517 I0 J-2
N21690 G1 Y11.517
N21700 G2 X79.968 Y9.517 I-2 J0
N21710 G3 X79.568 Y9.117 I0 J-0.4
N21720 G1 Y8.717
N21730 G19 G2 Y8.317 Z-2.4 J0 K0.4
N21740 G0 Z2.3
N21750 X80.368
N21760 G1 Z-2.5 F75
N21770 G3 Y8.717 Z-2.9 J0.4 K0 F50
N21780 G1 Y9.117
N21790 G17 G3 X79.968 Y9.517 I-0.4 J0
N21800 G1 X-80.032 F800
N21810 G2 X-82.032 Y11.517 I0 J2
N21820 G1 Y61.517
N21830 G2 X-80.032 Y63.517 I2 J0
N21840 G1 X79.968
N21850 G2 X81.968 Y61.517 I0 J-2
N21860 G1 Y11.517
N21870 G2 X79.968 Y9.517 I-2 J0
N21880 G3 X79.568 Y9.117 I0 J-0.4
N21890 G1 Y8.717
N21900 G19 G2 Y8.317 Z-2.5 J0 K0.4
N21910 G0 Z2.3
N21920 X80.368
N21930 G1 Z-2.6 F75
N21940 G3 Y8.717 Z-3 J0.4 K0 F50
N21950 G1 Y9.117
N21960 G17 G3 X79.968 Y9.517 I-0.4 J0
N21970 G1 X-80.032 F800
N21980 G2 X-82.032 Y11.517 I0 J2
N21990 G1 Y61.517
N22000 G2 X-80.032 Y63.517 I2 J0
N22010 G1 X79.968
N22020 G2 X81.968 Y61.517 I0 J-2
N22030 G1 Y11.517
N22040 G2 X79.968 Y9.517 I-2 J0
N22050 G3 X79.568 Y9.117 I0 J-0.4
N22060 G1 Y8.717
N22070 G19 G2 Y8.317 Z-2.6 J0 K0.4
N22080 G0 Z2.3
N22090 X80.368
N22100 G1 Z-2.7 F75
N22110 G3 Y8.717 Z-3.1 J0.4 K0 F50
N22120 G1 Y9.117
N22130 G17 G3 X79.968 Y9.517 I-0.4 J0
N22140 G1 X-80.032 F800
N22150 G2 X-82.032 Y11.517 I0 J2
N22160 G1 Y61.517
N22170 G2 X-80.032 Y63.517 I2 J0
N22180 G1 X79.968
N22190 G2 X81.968 Y61.517 I0 J-2
N22200 G1 Y11.517
N22210 G2 X79.968 Y9.517 I-2 J0
N22220 G3 X79.568 Y9.117 I0 J-0.4
N22230 G1 Y8.717
N22240 G19 G2 Y8.317 Z-2.7 J0 K0.4
N22250 G0 Z2.3
N22260 X80.368
N22270 G1 Z-2.8 F75
N22280 G3 Y8.717 Z-3.2 J0.4 K0 F50
N22290 G1 Y9.117
N22300 G17 G3 X79.968 Y9.517 I-0.4 J0
N22310 G1 X-80.032 F800
N22320 G2 X-82.032 Y11.517 I0 J2
N22330 G1 Y61.517
N22340 G2 X-80.032 Y63.517 I2 J0
N22350 G1 X79.968
N22360 G2 X81.968 Y61.517 I0 J-2
N22370 G1 Y11.517
N22380 G2 X79.968 Y9.517 I-2 J0
N22390 G3 X79.568 Y9.117 I0 J-0.4
N22400 G1 Y8.717
N22410 G19 G2 Y8.317 Z-2.8 J0 K0.4
N22420 G0 Z2.3
N22430 X80.368
N22440 G1 Z-2.9 F75
N22450 G3 Y8.717 Z-3.3 J0.4 K0 F50
N22460 G1 Y9.117
N22470 G17 G3 X79.968 Y9.517 I-0.4 J0
N22480 G1 X42.818 F800
N22490 X42.018 F200
N22500 X41.968 Z-3.2 F800
N22510 X37.968
N22520 X37.918 Z-3.3 F75
N22530 X-37.182 F800
N22540 X-37.982 F200
N22550 X-38.032 Z-3.2 F800
N22560 X-42.032
N22570 X-42.082 Z-3.3 F75
N22580 X-80.032 F800
N22590 G2 X-82.032 Y11.517 I0 J2
N22600 G1 Y61.517
N22610 G2 X-80.032 Y63.517 I2 J0
N22620 G1 X-42.882
N22630 X-42.082 F200
N22640 X-42.032 Z-3.2 F800
N22650 X-38.032
N22660 X-37.982 Z-3.3 F75
N22670 X37.118 F800
N22680 X37.918 F200
N22690 X37.968 Z-3.2 F800
N22700 X41.968
N22710 X42.018 Z-3.3 F75
N22720 X79.968 F800
N22730 G2 X81.968 Y61.517 I0 J-2
N22740 G1 Y11.517
N22750 G2 X79.968 Y9.517 I-2 J0
N22760 G3 X79.568 Y9.117 I0 J-0.4
N22770 G1 Y8.717
N22780 G19 G2 Y8.317 Z-2.9 J0 K0.4
N22790 G0 Z2.3
N22800 X80.368
N22810 G1 Z-3 F75
N22820 G3 Y8.717 Z-3.4 J0.4 K0 F50
N22830 G1 Y9.117
N22840 G17 G3 X79.968 Y9.517 I-0.4 J0
N22850 G1 X42.868 F800
N22860 X42.068 F200
N22870 X41.968 Z-3.2 F800
N22880 X37.968
N22890 X37.868 Z-3.4 F75
N22900 X-37.132 F800
N22910 X-37.932 F200
N22920 X-38.032 Z-3.2 F800
N22930 X-42.032
N22940 X-42.132 Z-3.4 F75
N22950 X-80.032 F800
N22960 G2 X-82.032 Y11.517 I0 J2
N22970 G1 Y61.517
N22980 G2 X-80.032 Y63.517 I2 J0
N22990 G1 X-42.932
N23000 X-42.132 F200
N23010 X-42.032 Z-3.2 F800
N23020 X-38.032
N23030 X-37.932 Z-3.4 F75
N23040 X37.068 F800
N23050 X37.868 F200
N23060 X37.968 Z-3.2 F800
N23070 X41.968
N23080 X42.068 Z-3.4 F75
N23090 X79.968 F800
N23100 G2 X81.968 Y61.517 I0 J-2
N23110 G1 Y11.517
N23120 G2 X79.968 Y9.517 I-2 J0
N23130 G3 X79.568 Y9.117 I0 J-0.4
N23140 G1 Y8.717
N23150 G19 G2 Y8.317 Z-3 J0 K0.4
N23160 G0 Z2.3
N23170 X80.368
N23180 G1 Z-3.1 F75
N23190 G3 Y8.717 Z-3.5 J0.4 K0 F50
N23200 G1 Y9.117
N23210 G17 G3 X79.968 Y9.517 I-0.4 J0
N23220 G1 X42.918 F800
N23230 X42.118 F200
N23240 X41.968 Z-3.2 F800
N23250 X37.968
N23260 X37.818 Z-3.5 F75
N23270 X-37.082 F800
N23280 X-37.882 F200
N23290 X-38.032 Z-3.2 F800
N23300 X-42.032
N23310 X-42.182 Z-3.5 F75
N23320 X-80.032 F800
N23330 G2 X-82.032 Y11.517 I0 J2
N23340 G1 Y61.517
N23350 G2 X-80.032 Y63.517 I2 J0
N23360 G1 X-42.982
N23370 X-42.182 F200
N23380 X-42.032 Z-3.2 F800
N23390 X-38.032
N23400 X-37.882 Z-3.5 F75
N23410 X37.018 F800
N23420 X37.818 F200
N23430 X37.968 Z-3.2 F800
N23440 X41.968
N23450 X42.118 Z-3.5 F75
N23460 X79.968 F800
N23470 G2 X81.968 Y61.517 I0 J-2
N23480 G1 Y11.517
N23490 G2 X79.968 Y9.517 I-2 J0
N23500 G3 X79.568 Y9.117 I0 J-0.4
N23510 G1 Y8.717
N23520 G19 G2 Y8.317 Z-3.1 J0 K0.4
N23530 G0 Z2.3
N23540 X80.368
N23550 G1 Z-3.2 F75
N23560 G3 Y8.717 Z-3.6 J0.4 K0 F50
N23570 G1 Y9.117
N23580 G17 G3 X79.968 Y9.517 I-0.4 J0
N23590 G1 X42.968 F800
N23600 X42.168 F200
N23610 X41.968 Z-3.2 F800
N23620 X37.968
N23630 X37.768 Z-3.6 F75
N23640 X-37.032 F800
N23650 X-37.832 F200
N23660 X-38.032 Z-3.2 F800
N23670 X-42.032
N23680 X-42.232 Z-3.6 F75
N23690 X-80.032 F800
N23700 G2 X-82.032 Y11.517 I0 J2
N23710 G1 Y61.517
N23720 G2 X-80.032 Y63.517 I2 J0
N23730 G1 X-43.032
N23740 X-42.232 F200
N23750 X-42.032 Z-3.2 F800
N23760 X-38.032
N23770 X-37.832 Z-3.6 F75
N23780 X36.968 F800
N23790 X37.768 F200
N23800 X37.968 Z-3.2 F800
N23810 X41.968
N23820 X42.168 Z-3.6 F75
N23830 X79.968 F800
N23840 G2 X81.968 Y61.517 I0 J-2
N23850 G1 Y11.517
N23860 G2 X79.968 Y9.517 I-2 J0
N23870 G3 X79.568 Y9.117 I0 J-0.4
N23880 G1 Y8.717
N23890 G19 G2 Y8.317 Z-3.2 J0 K0.4
N23900 G0 Z2.3
N23910 X80.368
N23920 G1 Z-3.3 F75
N23930 G3 Y8.717 Z-3.7 J0.4 K0 F50
N23940 G1 Y9.117
N23950 G17 G3 X79.968 Y9.517 I-0.4 J0
N23960 G1 X43.018 F800
N23970 X42.218 F200
N23980 X41.968 Z-3.2 F800
N23990 X37.968
N24000 X37.718 Z-3.7 F75
N24010 X-36.982 F800
N24020 X-37.782 F200
N24030 X-38.032 Z-3.2 F800
N24040 X-42.032
N24050 X-42.282 Z-3.7 F75
N24060 X-80.032 F800
N24070 G2 X-82.032 Y11.517 I0 J2
N24080 G1 Y61.517
N24090 G2 X-80.032 Y63.517 I2 J0
N24100 G1 X-43.082
N24110 X-42.282 F200
N24120 X-42.032 Z-3.2 F800
N24130 X-38.032
N24140 X-37.782 Z-3.7 F75
N24150 X36.918 F800
N24160 X37.718 F200
N24170 X37.968 Z-3.2 F800
N24180 X41.968
N24190 X42.218 Z-3.7 F75
N24200 X79.968 F800
N24210 G2 X81.968 Y61.517 I0 J-2
N24220 G1 Y11.517
N24230 G2 X79.968 Y9.517 I-2 J0
N24240 G3 X79.568 Y9.117 I0 J-0.4
N24250 G1 Y8.717
N24260 G19 G2 Y8.317 Z-3.3 J0 K0.4
N24270 G0 Z2.3
N24280 X80.368
N24290 G1 Z-3.4 F75
N24300 G3 Y8.717 Z-3.8 J0.4 K0 F50
N24310 G1 Y9.117
N24320 G17 G3 X79.968 Y9.517 I-0.4 J0
N24330 G1 X43.068 F800
N24340 X42.268 F200
N24350 X41.968 Z-3.2 F800
N24360 X37.968
N24370 X37.668 Z-3.8 F75
N24380 X-36.932 F800
N24390 X-37.732 F200
N24400 X-38.032 Z-3.2 F800
N24410 X-42.032
N24420 X-42.332 Z-3.8 F75
N24430 X-80.032 F800
N24440 G2 X-82.032 Y11.517 I0 J2
N24450 G1 Y61.517
N24460 G2 X-80.032 Y63.517 I2 J0
N24470 G1 X-43.132
N24480 X-42.332 F200
N24490 X-42.032 Z-3.2 F800
N24500 X-38.032
N24510 X-37.732 Z-3.8 F75
N24520 X36.868 F800
N24530 X37.668 F200
N24540 X37.968 Z-3.2 F800
N24550 X41.968
N24560 X42.268 Z-3.8 F75
N24570 X79.968 F800
N24580 G2 X81.968 Y61.517 I0 J-2
N24590 G1 Y11.517
N24600 G2 X79.968 Y9.517 I-2 J0
N24610 G3 X79.568 Y9.117 I0 J-0.4
N24620 G1 Y8.717
N24630 G19 G2 Y8.317 Z-3.4 J0 K0.4
N24640 G0 Z2.3
N24650 X80.368
N24660 G1 Z-3.5 F75
N24670 G3 Y8.717 Z-3.9 J0.4 K0 F50
N24680 G1 Y9.117
N24690 G17 G3 X79.968 Y9.517 I-0.4 J0
N24700 G1 X43.118 F800
N24710 X42.318 F200
N24720 X41.968 Z-3.2 F800
N24730 X37.968
N24740 X37.618 Z-3.9 F75
N24750 X-36.882 F800
N24760 X-37.682 F200
N24770 X-38.032 Z-3.2 F800
N24780 X-42.032
N24790 X-42.382 Z-3.9 F75
N24800 X-80.032 F800
N24810 G2 X-82.032 Y11.517 I0 J2
N24820 G1 Y61.517
N24830 G2 X-80.032 Y63.517 I2 J0
N24840 G1 X-43.182
N24850 X-42.382 F200
N24860 X-42.032 Z-3.2 F800
N24870 X-38.032
N24880 X-37.682 Z-3.9 F75
N24890 X36.818 F800
N24900 X37.618 F200
N24910 X37.968 Z-3.2 F800
N24920 X41.968
N24930 X42.318 Z-3.9 F75
N24940 X79.968 F800
N24950 G2 X81.968 Y61.517 I0 J-2
N24960 G1 Y11.517
N24970 G2 X79.968 Y9.517 I-2 J0
N24980 G3 X79.568 Y9.117 I0 J-0.4
N24990 G1 Y8.717
N25000 G19 G2 Y8.317 Z-3.5 J0 K0.4
N25010 G0 Z2.3
N25020 X80.368
N25030 G1 Z-3.6 F75
N25040 G3 Y8.717 Z-4 J0.4 K0 F50
N25050 G1 Y9.117
N25060 G17 G3 X79.968 Y9.517 I-0.4 J0
N25070 G1 X43.168 F800
N25080 X42.368 F200
N25090 X41.968 Z-3.2 F800
N25100 X37.968
N25110 X37.568 Z-4 F75
N25120 X-36.832 F800
N25130 X-37.632 F200
N25140 X-38.032 Z-3.2 F800
N25150 X-42.032
N25160 X-42.432 Z-4 F75
N25170 X-80.032 F800
N25180 G2 X-82.032 Y11.517 I0 J2
N25190 G1 Y61.517
N25200 G2 X-80.032 Y63.517 I2 J0
N25210 G1 X-43.232
N25220 X-42.432 F200
N25230 X-42.032 Z-3.2 F800
N25240 X-38.032
N25250 X-37.632 Z-4 F75
N25260 X36.768 F800
N25270 X37.568 F200
N25280 X37.968 Z-3.2 F800
N25290 X41.968
N25300 X42.368 Z-4 F75
N25310 X79.968 F800
N25320 G2 X81.968 Y61.517 I0 J-2
N25330 G1 Y11.517
N25340 G2 X79.968 Y9.517 I-2 J0
N25350 G3 X79.568 Y9.117 I0 J-0.4
N25360 G1 Y8.717
N25370 G19 G2 Y8.317 Z-3.6 J0 K0.4
N25380 G0 Z2.3
N25390 X80.368
N25400 G1 Z-3.7 F75
N25410 G3 Y8.717 Z-4.1 J0.4 K0 F50
N25420 G1 Y9.117
N25430 G17 G3 X79.968 Y9.517 I-0.4 J0
N25440 G1 X43.218 F800
N25450 X42.418 F200
N25460 X41.968 Z-3.2 F800
N25470 X37.968
N25480 X37.518 Z-4.1 F75
N25490 X-36.782 F800
N25500 X-37.582 F200
N25510 X-38.032 Z-3.2 F800
N25520 X-42.032
N25530 X-42.482 Z-4.1 F75
N25540 X-80.032 F800
N25550 G2 X-82.032 Y11.517 I0 J2
N25560 G1 Y61.517
N25570 G2 X-80.032 Y63.517 I2 J0
N25580 G1 X-43.282
N25590 X-42.482 F200
N25600 X-42.032 Z-3.2 F800
N25610 X-38.032
N25620 X-37.582 Z-4.1 F75
N25630 X36.718 F800
N25640 X37.518 F200
N25650 X37.968 Z-3.2 F800
N25660 X41.968
N25670 X42.418 Z-4.1 F75
N25680 X79.968 F800
N25690 G2 X81.968 Y61.517 I0 J-2
N25700 G1 Y11.517
N25710 G2 X79.968 Y9.517 I-2 J0
N25720 G3 X79.568 Y9.117 I0 J-0.4
N25730 G1 Y8.717
N25740 G19 G2 Y8.317 Z-3.7 J0 K0.4
N25750 G0 Z2.3
N25760 X80.368
N25770 G1 Z-3.8 F75
N25780 G3 Y8.717 Z-4.2 J0.4 K0 F50
N25790 G1 Y9.117
N25800 G17 G3 X79.968 Y9.517 I-0.4 J0
N25810 G1 X43.268 F800
N25820 X42.468 F200
N25830 X41.968 Z-3.2 F800
N25840 X37.968
N25850 X37.468 Z-4.2 F75
N25860 X-36.732 F800
N25870 X-37.532 F200
N25880 X-38.032 Z-3.2 F800
N25890 X-42.032
N25900 X-42.532 Z-4.2 F75
N25910 X-80.032 F800
N25920 G2 X-82.032 Y11.517 I0 J2
N25930 G1 Y61.517
N25940 G2 X-80.032 Y63.517 I2 J0
N25950 G1 X-43.332
N25960 X-42.532 F200
N25970 X-42.032 Z-3.2 F800
N25980 X-38.032
N25990 X-37.532 Z-4.2 F75
N26000 X36.668 F800
N26010 X37.468 F200
N26020 X37.968 Z-3.2 F800
N26030 X41.968
N26040 X42.468 Z-4.2 F75
N26050 X79.968 F800
N26060 G2 X81.968 Y61.517 I0 J-2
N26070 G1 Y11.517
N26080 G2 X79.968 Y9.517 I-2 J0
N26090 G3 X79.568 Y9.117 I0 J-0.4
N26100 G1 Y8.717
N26110 G19 G2 Y8.317 Z-3.8 J0 K0.4
N26120 G0 Z2.3
N26130 M9
N26140 M30
%
